!!!!SEGMENT: pl-cz--iii-107--004_dankowski-adalbert--vesperae-es-de-torrente.krn
!!!cenid: 18xx:764
!!!COM: Dankowski, Adalbert
!!!COM-rismID: pe30000793
!!!CDT: ~1760-~1836
!!!CNT: Polish
!!!OPR: Vesperae Es
!!!OTL: De torrente
!!!OMV: 004
!!!PDT: 1825
!!!AGN: Sacred; Vespers
!!!SMS-siglum: PL-CZ
!!!SMS-shelfmark: III-107
!!!SMS-shelfwork: 001-004 M
!!!SMS-variant:
!!!SMS-altvar:
!!!NIFC-rismSourceID: 300000115
!!!NIFC-islandoraID: pl-cz:34263
!!!URL-pdf-islandora: https://repozytorium.nifc.pl/islandora/object/pl-cz%3A34263/datastream/PDF/view
!!!URL-scan:
!!!ONB-nifc: UWAGA: części Vesperae: Dixit Dominus, Tecum principium, Iudicabit, De torrente, Gloria patri,
!!!AIN: 1 alto 1 bass 2 clara 2 cor 1 organ 1 soprn 1 tenor 2 violn
!!!key: E-
**kern	**fba	**dynam	**kern	**dynam	**kern	**dynam	**kern	**kern	**kern	**text	**kern	**kern	**dynam	**kern	**kern	**kern	**dynam
*part11	*	*part11	*part10	*part10	*part9	*part9	*part8	*part7	*part6	*part6	*part5	*part4	*part4	*part3	*part2	*part1	*part1
*staff11	*	*	*staff10	*	*staff9	*	*staff8	*staff7	*staff6	*staff6	*staff5	*staff4	*	*staff3	*staff2	*staff1	*
*I"Organo.	*	*	*I"Violino Secondo.	*	*I"Violino Primo.	*	*I"Baſso.	*I"Tenore	*I"Alto!	*	*I"Soprano.	*I"Corno Secondo. in Dis Obligato.	*	*I"Corno Prymo in Dis Obligato	*I"Clarinetto Secundo in Dis	*I"Clarinetto. Primo. in Dis.	*
*I'org	*	*	*I'vl 2	*	*I'vl 1	*	*I'B	*I'T	*I'A	*	*I'S	*I'cor 2	*	*I'cor 1	*I'cl 2	*I'cl 1	*
*Iorgan	*	*	*Ivioln	*	*Ivioln	*	*Ibass	*Itenor	*Ialto	*	*Isoprn	*Icor	*	*Icor	*Iclara	*Iclara	*
*ICklav	*	*	*ICstr	*	*ICstr	*	*ICvox	*ICvox	*ICvox	*	*ICvox	*ICbras	*	*ICbras	*ICww	*ICww	*
*clefF4	*	*	*clefG2	*	*clefG2	*	*clefF4	*clefC4	*clefC3	*	*clefC1	*clefG2	*	*clefG2	*clefG2	*clefG2	*
*	*	*	*	*	*	*	*	*	*	*	*	*ITrd-2c-3	*	*ITrd-2c-3	*ITrd1c2	*ITrd1c2	*
*k[b-e-a-]	*	*	*k[b-e-a-]	*	*k[b-e-a-]	*	*k[b-e-a-]	*k[b-e-a-]	*k[b-e-a-]	*	*k[b-e-a-]	*k[b-e-a-]	*	*k[b-e-a-]	*k[b-e-a-]	*k[b-e-a-]	*
*E-:	*	*	*E-:	*	*E-:	*	*E-:	*E-:	*E-:	*	*E-:	*	*	*	*E-:	*E-:	*
*M3/4	*	*	*M3/4	*	*M3/4	*	*M3/4	*M3/4	*M3/4	*	*M3/4	*M3/4	*	*M3/4	*M3/4	*M3/4	*
=1	=1	=1	=1	=1	=1	=1	=1	=1	=1	=1	=1	=1	=1	=1	=1	=1	=1
*	*	*	*	*	*	*	*	*	*all\right	*	*	*	*	*all\right	*all\right	*	*
!	!	!	!	!	!	!	!	!	!LO:TX:b:t=12.	!	!	!LO:TX:a:t=1.	!	!LO:TX:a:t=1	!LO:TX:t=3.:color=grey	!LO:TX:b:t=Solo.	!
!LO:TX:a:i:t=Andante.	!	!	!	!	!LO:TX:a:rj:t=Adagio	!	!	!	!LO:TX:a:t=Solo	!	!	!LO:TX:a:rj:t=Adagio	!	!LO:TX:a:rj:t=Adagio	!LO:TX:b:t=Adagio	!LO:TX:a:rj:t=Adagio.	!
!	!	!	!LO:TX:a:t=3.:color=grey	!LO:DY:b	!	!	!LO:TX:a:t=D etorente Tacet	!LO:TX:a:t=Detorente Tacet	!LO:TX:a:i:rj:t=Adagio	!	!LO:TX:a:t=Detorente Tacet	!LO:TX:a:t=III:color=grey	!	!LO:TX:a:t=III:color=grey	!LO:TX:a:rj:t=Detorente Solo	!	!
8r	.	.	8r	p	8r	.	2.ryy	2.ryy	0.r	.	2.ryy	2.r	.	2.r	4.gg\	4.bb-\	.
!LO:TX:a:t=Solo	!	!	!	!	!	!	!	!	!	!	!	!	!	!	!	!	!
8E-\L	.	.	8B-/L	.	8g/L	.	.	.	.	.	.	.	.	.	.	.	.
8E-\	.	.	8B-/	.	8g/	.	.	.	.	.	.	.	.	.	.	.	.
8E-\	.	.	8B-/	.	8g/	.	.	.	.	.	.	.	.	.	(16aa-\LL	16ccc\LL	.
.	.	.	.	.	.	.	.	.	.	.	.	.	.	.	16gg\JJ)	16bb-\JJ	.
8E-\	.	.	8B-/	.	8g/	.	.	.	.	.	.	.	.	.	(16ff\LL	16aa-\LL	.
.	.	.	.	.	.	.	.	.	.	.	.	.	.	.	16ee-\	16gg\	.
!	!	!	!	!	!LO:TX:a:t=3:color=grey	!	!	!	!	!	!	!	!	!	!	!	!
8E-\J	.	.	8B-/J	.	8g/J	.	.	.	.	.	.	.	.	.	16dd\	16ff\	.
.	.	.	.	.	.	.	.	.	.	.	.	.	.	.	16ee-\JJ)	16gg\JJ	.
=2	=2	=2	=2	=2	=2	=2	=2	=2	=2	=2	=2	=2	=2	=2	=2	=2	=2
8r	.	.	8r	.	8r	.	2.ryy	2.ryy	.	.	2.ryy	4r	.	4r	8.ff\L	8.aa-\L	.
8BB-/	7	.	8d/	.	8f/	.	.	.	.	.	.	.	.	.	.	.	.
.	.	.	.	.	.	.	.	.	.	.	.	.	.	.	16dd\Jk	16ff\Jk	.
*tremolo	*	*	*tremolo	*	*tremolo	*	*	*	*	*	*	*	*	*	*	*	*
!	!	!	!	!	!LO:TX:b:t=||||	!	!	!	!	!	!	!	!	!	!	!	!
8BB-/L	.	.	8d/L	.	8f/L|	.	.	.	.	.	.	8r	.	8r	4f/	4dd\	.
!	!	!	!	!	!	!	!	!	!	!	!	!LO:TX:b:t=Solo.	!	!LO:TX:a:t=Solo	!	!	!
8BB-/	.	.	8d/	.	8f/|	.	.	.	.	.	.	8b-/L	.	8ff\L	.	.	.
8BB-/	.	.	8d/	.	8f/|	.	.	.	.	.	.	8b-/	.	8ff\	8r	8r	.
8BB-/J	.	.	8d/J	.	8f/J|	.	.	.	.	.	.	8b-/J	.	8ff\J	8f/	8dd\	.
*Xtremolo	*	*	*Xtremolo	*	*Xtremolo	*	*	*	*	*	*	*	*	*	*	*	*
!	!	!	!	!	!	!	!	!	!	!	!	!	!	!	!	!LO:LB:g=original	!
=3	=3	=3	=3	=3	=3	=3	=3	=3	=3	=3	=3	=3	=3	=3	=3	=3	=3
4E-\	.	.	4B-/	.	4g/	.	2.ryy	2.ryy	.	.	2.ryy	8g/L	.	8ee-\L	(8g\L	8ee-\L	.
.	.	.	.	.	.	.	.	.	.	.	.	8ee-/J	.	8gg\	8ee-\)	8gg\	.
4D\	6 5	.	4B-/	.	4f/	.	.	.	.	.	.	8b-\L	.	8ff\	(8dd\	8ff\	.
.	.	.	.	.	.	.	.	.	.	.	.	8ff\	.	8aa-\	8ff\	8aa-\	.
4E-\	.	.	4B-/	.	4g/	.	.	.	.	.	.	8ee-\	.	8gg\	8ee-\)	8gg\	.
.	.	.	.	.	.	.	.	.	.	.	.	8gg\J	.	8bb-\J	8gg\J	8bb-\J	.
!LO:LB:g=original	!	!	!	!	!	!	!	!	!	!	!	!	!	!	!	!	!
=4	=4	=4	=4	=4	=4	=4	=4	=4	=4	=4	=4	=4	=4	=4	=4	=4	=4
4B-\	.	.	4e-/	.	4g/	.	2.ryy	2.ryy	.	.	2.ryy	16ff\LL	.	16aa-\LL	(16ff\LL	16aa-\LL	.
.	.	.	.	.	.	.	.	.	.	.	.	16ee-\	.	16gg\	16ee-\	16gg\	.
.	.	.	.	.	.	.	.	.	.	.	.	16b-\	.	16ff\	16dd\	16ff\	.
.	.	.	.	.	.	.	.	.	.	.	.	16ee-\JJ	.	16gg\JJ	16ee-\JJ)	16gg\JJ	.
8r	.	.	4d/	.	4f/	.	.	.	.	.	.	4b-/	.	4ff\	4dd\	4ff\	.
!LO:TX:t=P:problem=mixed beam	!	!	!	!	!	!	!	!	!	!	!	!	!	!	!	!	!
8BB-/L	3	.	.	.	.	.	.	.	.	.	.	.	.	.	.	.	.
8B-\	.	.	4r	.	4r	.	.	.	.	.	.	8r	.	8r	8r	8r	.
8A-\J	4 2	.	.	.	.	.	.	.	.	.	.	8b-/	.	8ff\	8dd\	8ff\	.
=5	=5	=5	=5	=5	=5	=5	=5	=5	=5	=5	=5	=5	=5	=5	=5	=5	=5
*	*	*	*tremolo	*	*tremolo	*	*	*	*	*	*	*	*	*	*	*	*
!	!	!	!	!	!LO:TX:b:t=||||||	!	!	!	!	!	!	!	!	!	!	!	!
8G\L	6	.	8B-/L	.	8g/L	.	2.ryy	2.ryy	0.r	.	2.ryy	4ee-\	.	4gg\	4ee-\	4gg\	.
8E-\J	.	.	8B-/	.	8g/	.	.	.	.	.	.	.	.	.	.	.	.
*tremolo	*	*	*	*	*	*	*	*	*	*	*	*	*	*	*	*	*
*2\right	*	*	*	*	*	*	*	*	*	*	*	*	*	*	*	*	*
8E-\L	.	.	8B-/	.	8g/	.	.	.	.	.	.	4gg\	.	4bb-\	4gg\	4bb-\	.
8E-\	.	.	8B-/	.	8g/	.	.	.	.	.	.	.	.	.	.	.	.
8E-\	.	.	8B-/	.	8g/	.	.	.	.	.	.	8r	.	8r	8r	8r	.
8E-\J	.	.	8B-/J	.	8g/J	.	.	.	.	.	.	8ee-\	.	8gg\	8ee-\	8gg\	.
!	!	!	!	!	!	!	!	!	!	!	!	!	!	!LO:LB:g=original	!LO:LB:g=original	!	!
=6	=6	=6	=6	=6	=6	=6	=6	=6	=6	=6	=6	=6	=6	=6	=6	=6	=6
!	!	!	!	!	!LO:TX:b:t=||||||	!	!	!	!	!	!	!	!	!	!	!	!
8BB-/L	.	.	8d/L	.	8f/L	.	2.ryy	2.ryy	.	.	2.ryy	4b-/	.	4ff\	4dd\	4ff\	.
8BB-/	.	.	8d/	.	8f/	.	.	.	.	.	.	.	.	.	.	.	.
8BB-/	.	.	8d/	.	8f/	.	.	.	.	.	.	4ff\	.	4aa-\	4ff\	4aa-\	.
8BB-/	.	.	8d/	.	8f/	.	.	.	.	.	.	.	.	.	.	.	.
8BB-/	.	.	8d/	.	8f/	.	.	.	.	.	.	8r	.	8r	8r	8r	.
8BB-/J	.	.	8d/J	.	8f/J	.	.	.	.	.	.	8b-/	.	8ff\	8dd\	8ff\	.
*Xtremolo	*	*	*Xtremolo	*	*Xtremolo	*	*	*	*	*	*	*	*	*	*	*	*
!	!	!	!	!	!LO:LB:g=original	!	!	!	!	!	!	!LO:LB:g=original	!	!	!	!	!
=7	=7	=7	=7	=7	=7	=7	=7	=7	=7	=7	=7	=7	=7	=7	=7	=7	=7
4E-\	.	.	(8e-/L	.	(8g/L	.	2.ryy	2.ryy	.	.	2.ryy	8ee-\L	.	8gg\L	8ee-\L	8gg\L	.
.	.	.	8g/)	.	8b-/)	.	.	.	.	.	.	8gg\	.	8bb-\J	8gg\J	8bb-\	.
4A-\	6	.	(8g/	.	(8b-/	.	.	.	.	.	.	8gg\	.	8bb-\L	(8gg\L	8bb-\	.
.	.	.	8f/)	.	8a-/)	.	.	.	.	.	.	8ff\	.	8aa-\	8ff\)	8aa-\	.
4An\	3	.	(8f/	.	(8a-/	.	.	.	.	.	.	8ff\	.	8aa-\	(8ff\	8aa-\	.
.	.	.	8e-/J)	.	8g/J)	.	.	.	.	.	.	8ee-\J	.	8gg\J	8ee-\J)	8gg\J	.
!	!	!	!LO:LB:g=original	!	!	!	!	!	!	!	!	!	!	!	!	!	!
=8	=8	=8	=8	=8	=8	=8	=8	=8	=8	=8	=8	=8	=8	=8	=8	=8	=8
!	!	!	!LO:TX:a:t=Adagio.	!LO:DY:a:t=for.	!	!	!	!	!	!	!	!	!	!	!	!	!
4B-\	4	.	(4e-/	f	4g/	.	2.ryy	2.ryy	.	.	2.ryy	4ee-/	.	4gg\	4ee-\	4gg\	.
!	!	!	!	!	!LO:TX:t=P:problem=mixed beam	!	!	!	!	!	!	!	!	!	!	!	!
4BB-/	3	.	8d/L)	.	8f/L	.	.	.	.	.	.	4b-/	.	4ff\	4dd\	4ff\	.
.	.	.	8f'/	.	8dd\	.	.	.	.	.	.	.	.	.	.	.	.
8r	.	.	8f'/	.	8dd\	.	.	.	.	.	.	8r	.	8r	8r	8r	.
8BB-/	.	.	8f'/J	.	8dd\J	.	.	.	.	.	.	8b-/	.	8ff\	8dd\	8ff\	.
=9	=9	=9	=9	=9	=9	=9	=9	=9	=9	=9	=9	=9	=9	=9	=9	=9	=9
4B-\	.	.	(4b-/	.	8ee-\L	.	2.ryy	2.ryy	0.r	.	2.ryy	4ee-\	.	4gg\	4ee-\	4gg\	.
.	.	.	.	.	16ff\L	.	.	.	.	.	.	.	.	.	.	.	.
.	.	.	.	.	16gg\JJ	.	.	.	.	.	.	.	.	.	.	.	.
4BB-/	.	.	8a-/L)	.	8ff\L	.	.	.	.	.	.	4b-/	.	4ff\	4dd\	4ff\	.
.	.	.	8f/	.	8aa-\	.	.	.	.	.	.	.	.	.	.	.	.
8r	.	.	8f/	.	8dd\	.	.	.	.	.	.	8r	.	8r	8r	8r	.
8B-\	.	.	8a-/J	.	8ff\J	.	.	.	.	.	.	8ff\	.	8aa-\	8ff\	8aa-\	.
=10	=10	=10	=10	=10	=10	=10	=10	=10	=10	=10	=10	=10	=10	=10	=10	=10	=10
4e-\	.	.	8a-/L	.	8ff\L	.	2.ryy	2.ryy	.	.	2.ryy	4ff\	.	4aa-\	4ff\	4aa-\	.
.	.	.	16g/L	.	16ee-\L	.	.	.	.	.	.	.	.	.	.	.	.
.	.	.	16a-/JJ	.	16ff\JJ	.	.	.	.	.	.	.	.	.	.	.	.
4E-\	.	.	8g/L	.	8ee-\L	.	.	.	.	.	.	4ee-\	.	4gg\	4ee-\	4gg\	.
.	.	.	8b-/	.	8gg\	.	.	.	.	.	.	.	.	.	.	.	.
8r	.	.	8g/	.	8b-\	.	.	.	.	.	.	8r	.	8r	8r	8r	.
8G\	.	.	8e-/J	.	8dd-X\J	.	.	.	.	.	.	8gg\	.	8bb-\	8gg\	8bb-\	.
=11	=11	=11	=11	=11	=11	=11	=11	=11	=11	=11	=11	=11	=11	=11	=11	=11	=11
4A-\	.	.	8a-/L	.	8cc\L	.	2.ryy	2.ryy	.	.	2.ryy	8aa-\L	.	8ccc\L	8aa-\L	8ccc\L	.
.	.	.	16g/L	.	16b-\L	.	.	.	.	.	.	16gg\L	.	16bb-\L	(16gg\L	16bb-\L	.
.	.	.	16f/JJ	.	16a-\JJ	.	.	.	.	.	.	16ff\JJ	.	16aa-\JJ	16ff\JJ)	16aa-\JJ	.
4B-\	.	.	4e-/	.	4g/	.	.	.	.	.	.	4ee-\	.	4gg\	4ee-\	4gg\	.
4BB-/	.	.	4d/	.	4f/	.	.	.	.	.	.	4b-/	.	4ff\	4dd\	4ff\	.
=12	=12	=12	=12	=12	=12	=12	=12	=12	=12	=12	=12	=12	=12	=12	=12	=12	=12
!	!	!	!	!	!	!	!	!	!	!	!	!	!	!	!LO:TX:t=P:problem=mixed beam	!	!
4E-\	.	.	8B-/L	.	8g/L	.	2.ryy	2.ryy	.	.	2.ryy	4g/	.	4ee-\	8ee-\L	4ee-\	.
.	.	.	16A-/L	.	16f/L	.	.	.	.	.	.	.	.	.	8g/J	.	.
.	.	.	16G/JJ	.	16e-/JJ	.	.	.	.	.	.	.	.	.	.	.	.
4EE-/	.	.	4G/	.	4e-/	.	.	.	.	.	.	4g/	.	4ee-\	4g/	4ee-\	.
4r	.	.	4r	.	4r	.	.	.	.	.	.	4r	.	4r	4r	4r	.
!	!	!	!	!	!LO:LB:g=original	!	!	!	!	!	!	!	!	!	!	!LO:LB:g=original	!
=13	=13	=13	=13	=13	=13	=13	=13	=13	=13	=13	=13	=13	=13	=13	=13	=13	=13
!	!	!	!	!	!	!	!	!	!LO:TX:a:t=P:problem=pierwszy dźwięk napisany na pauzach	!	!	!	!	!	!	!	!
!	!	!	!	!LO:DY:b	!	!	!	!	!	!	!	!LO:TX:a:t=3.	!	!LO:TX:a:t=3	!LO:TX:a:t=1.	!LO:TX:a:t=1	!
8r	.	.	8r	p	8r	.	2.ryy	2.ryy	4.b-\	De	2.ryy	1.r	.	1.r	2.r	2.r	.
!	!	!LO:DY:b:t=p&colon;	!	!	!	!	!	!	!	!	!	!	!	!	!	!	!
8E-\	.	p	8B-/	.	8g/	.	.	.	.	.	.	.	.	.	.	.	.
*tremolo	*	*	*tremolo	*	*tremolo	*	*	*	*	*	*	*	*	*	*	*	*
8E-\L	.	.	8B-/L	.	8g/L	.	.	.	.	.	.	.	.	.	.	.	.
8E-\	.	.	8B-/	.	8g/	.	.	.	16cc\LL	.	.	.	.	.	.	.	.
.	.	.	.	.	.	.	.	.	16b-\JJ	.	.	.	.	.	.	.	.
8E-\	.	.	8B-/	.	8g/	.	.	.	16a-\LL	.	.	.	.	.	.	.	.
.	.	.	.	.	.	.	.	.	16g\JJ	.	.	.	.	.	.	.	.
!	!	!	!	!	!	!	!	!	!LO:SIC:v:l:s=tor-	!	!	!	!	!	!	!	!
8E-\J	.	.	8B-/J	.	8g/J	.	.	.	16f\LL	to-	.	.	.	.	.	.	.
.	.	.	.	.	.	.	.	.	16g\JJ	.	.	.	.	.	.	.	.
*Xtremolo	*	*	*Xtremolo	*	*Xtremolo	*	*	*	*	*	*	*	*	*	*	*	*
!LO:LB:g=original	!	!	!	!	!	!	!	!	!	!	!	!	!	!	!	!	!
=14	=14	=14	=14	=14	=14	=14	=14	=14	=14	=14	=14	=14	=14	=14	=14	=14	=14
8r	.	.	8r	.	8r	.	2.ryy	2.ryy	8.a-\L	-ren-	2.ryy	.	.	.	4r	4r	.
8BB-/	.	.	8d/	.	8f/	.	.	.	.	.	.	.	.	.	.	.	.
.	.	.	.	.	.	.	.	.	16f\Jk	.	.	.	.	.	.	.	.
*tremolo	*	*	*tremolo	*	*tremolo	*	*	*	*	*	*	*	*	*	*	*	*
!	!	!	!	!	!	!	!	!	!	!	!	!	!	!	!LO:TX:a:t=Solo	!	!
8BB-/L	.	.	8d/L	.	8f/L	.	.	.	4d\	-te	.	.	.	.	8r	8r	p
!	!	!	!	!	!	!	!	!	!	!	!	!	!	!	!	!LO:TX:a:t=P:problem=korekta ołówkiem g--	!
8BB-/	.	.	8d/	.	8f/	.	.	.	.	.	.	.	.	.	8ee-\L	8ee-\L	.
8BB-/	.	.	8d/	.	8f/	.	.	.	8r	.	.	.	.	.	8ee-\	8ee-\	.
8BB-/J	.	.	8d/J	.	8f/J	.	.	.	8d\	in	.	.	.	.	8ee-\J	8ee-\J	.
*Xtremolo	*	*	*Xtremolo	*	*Xtremolo	*	*	*	*	*	*	*	*	*	*	*	*
=15	=15	=15	=15	=15	=15	=15	=15	=15	=15	=15	=15	=15	=15	=15	=15	=15	=15
4E-\	.	.	4B-/	.	(8e-/L	.	2.ryy	2.ryy	(8e-\L	vi-	2.ryy	2.r	.	2.r	4ee-\	4gg\	.
.	.	.	.	.	8g/	.	.	.	8g\)	.	.	.	.	.	.	.	.
4D\	6 5	.	4B-/	.	8f/)	.	.	.	(8f\	.	.	.	.	.	4ff\	4aa-\	.
.	.	.	.	.	(8a-/	.	.	.	8a-\J)	.	.	.	.	.	.	.	.
4E-\	.	.	4B-/	.	8g/	.	.	.	(8g\L	.	.	.	.	.	4gg\	4bb-\	.
.	.	.	.	.	8b-/J)	.	.	.	8b-\J)	-a	.	.	.	.	.	.	.
!	!	!	!LO:LB:g=original	!	!	!	!	!	!LO:LB:g=original	!	!	!	!	!	!	!	!
=16	=16	=16	=16	=16	=16	=16	=16	=16	=16	=16	=16	=16	=16	=16	=16	=16	=16
4B-\	.	.	(16f/LL	.	16a-/LL	.	2.ryy	2.ryy	(16a-\LL	bi-	2.ryy	4r	.	4r	(16ff\LL	(16aa-\LL	.
.	.	.	16e-/	.	(16g/	.	.	.	16g\	.	.	.	.	.	16ee-\	16gg\	.
.	.	.	16d/	.	16f/	.	.	.	16f\	.	.	.	.	.	16dd\)	16ff\	.
.	.	.	16e-/JJ)	.	16g/JJ)	.	.	.	16g\JJ)	.	.	.	.	.	16ee-|\JJ	16gg\JJ)	.
!	!	!	!	!	!	!	!	!	!	!	!	!	!	!	!LO:LB:g=original	!	!
8r	.	.	4d/	.	4f/	.	.	.	4f\	-bet	.	8r	.	8r	8dd|\L	8ff\L	.
!LO:TX:t=P:problem=mixed beam	!	!	!	!	!	!	!	!	!	!	!	!LO:TX:a:t=Solo.	!LO:DY:rj:t=p.	!	!	!	!
8BB-/L	3	.	.	.	.	.	.	.	.	.	.	8b-\L	p	8ff\L	8dd\	8ff\	.
8B-\	.	.	8r	.	8r	.	.	.	8r	.	.	8ee-\	.	8gg\	(8ee-\	8gg\	.
8A-\J	4 2	.	8d/	.	8f/	.	.	.	8f\	in	.	8ff\J	.	8aa-\J	8ff\J)	8aa-\J	.
!	!	!	!	!	!	!	!	!	!	!	!	!LO:LB:g=original	!	!LO:LB:g=original	!	!	!
=17	=17	=17	=17	=17	=17	=17	=17	=17	=17	=17	=17	=17	=17	=17	=17	=17	=17
*	*	*	*tremolo	*	*tremolo	*	*	*	*	*	*	*	*	*	*	*	*
8G\L	.	.	8B-/L	.	8g/L	.	2.ryy	2.ryy	(16g\LL	vi-	2.ryy	4ee-\	.	4gg\	4ee-\	4gg\	.
.	.	.	.	.	.	.	.	.	16f\	.	.	.	.	.	.	.	.
8E-\J	.	.	8B-/	.	8g/	.	.	.	16g\	.	.	.	.	.	.	.	.
.	.	.	.	.	.	.	.	.	16a-\JJ)	.	.	.	.	.	.	.	.
*tremolo	*	*	*	*	*	*	*	*	*	*	*	*	*	*	*	*	*
8E-\L	.	.	8B-/	.	8g/	.	.	.	4.b-\	.	.	4r	.	4r	4r	4r	.
8E-\	.	.	8B-/	.	8g/	.	.	.	.	.	.	.	.	.	.	.	.
8E-\	.	.	8B-/	.	8g/	.	.	.	.	.	.	4r	.	4r	4r	4r	.
8E-\J	.	.	8B-/J	.	8g/J	.	.	.	16cc\LL	.	.	.	.	.	.	.	.
.	.	.	.	.	.	.	.	.	16b-\JJ	-a	.	.	.	.	.	.	.
=18	=18	=18	=18	=18	=18	=18	=18	=18	=18	=18	=18	=18	=18	=18	=18	=18	=18
!	!	!	!	!	!	!	!	!	!	!	!	!	!	!LO:TX:a:t=P:problem=tt. 18-19 zapisane repetycją	!	!	!
.	.	.	.	.	.	.	.	.	8qqb-/	.	.	.	.	.	.	.	.
8D\L	6 5	.	8B-/L	.	8f/L	.	2.ryy	2.ryy	8a-\L	bi-	2.ryy	4r	.	4ryy	4r	4r	.
8D\	.	.	8B-/	.	8f/	.	.	.	16g\L	.	.	.	.	.	.	.	.
.	.	.	.	.	.	.	.	.	16a-\JJ	.	.	.	.	.	.	.	.
8D\	.	.	8B-/	.	8f/	.	.	.	4f\	-bet	.	8r	.	8ryy	8r	8r	.
8D\	.	.	8B-/	.	8f/	.	.	.	.	.	.	8b-\L	.	8ff\Lyy	(8dd\L	8ff\L	.
8D\	.	.	8B-/	.	8f/	.	.	.	8r	.	.	8ee-\	.	8gg\yy	8ee-\	8gg\	.
8D\J	.	.	8B-/J	.	8f/J	.	.	.	8f\	in	.	8ff\J	.	8aa-\Jyy	8ff\J)	8aa-\J	.
!	!	!	!	!	!	!	!	!	!	!	!	!	!	!LO:LB:g=original	!	!	!
=19	=19	=19	=19	=19	=19	=19	=19	=19	=19	=19	=19	=19	=19	=19	=19	=19	=19
8E-\L	.	.	8B-/L	.	8g/L	.	2.ryy	2.ryy	(16g\LL	vi-	2.ryy	4ee-\	.	4gg\yy	4ee-\	4gg\	.
.	.	.	.	.	.	.	.	.	16f\	.	.	.	.	.	.	.	.
8E-\	.	.	8B-/	.	8g/	.	.	.	16g\	.	.	.	.	.	.	.	.
.	.	.	.	.	.	.	.	.	16a-\JJ)	.	.	.	.	.	.	.	.
8E-\	.	.	8B-/	.	8g/	.	.	.	4.b-\	.	.	4r	.	4ryy	4r	4r	.
8E-\	.	.	8B-/	.	8g/	.	.	.	.	.	.	.	.	.	.	.	.
8E-\	.	.	8B-/	.	8g/	.	.	.	.	.	.	4r	.	4ryy	4r	4r	.
8E-\J	.	.	8B-/J	.	8g/J	.	.	.	16cc\LL	.	.	.	.	.	.	.	.
.	.	.	.	.	.	.	.	.	16b-\JJ	-a	.	.	.	.	.	.	.
!	!	!	!	!	!	!	!	!	!LO:LB:g=original	!	!	!	!	!	!	!	!
=20	=20	=20	=20	=20	=20	=20	=20	=20	=20	=20	=20	=20	=20	=20	=20	=20	=20
.	.	.	.	.	.	.	.	.	16qqb-/	.	.	.	.	.	.	.	.
8D\L	6 5	.	8B-/L	.	8f/L	.	2.ryy	2.ryy	8a-\L	bi-	2.ryy	4r	.	4r	4r	4r	.
8D\	.	.	8B-/	.	8f/	.	.	.	16g\L	.	.	.	.	.	.	.	.
.	.	.	.	.	.	.	.	.	16a-\JJ	.	.	.	.	.	.	.	.
8D\	.	.	8B-/	.	8f/	.	.	.	4f\	-bet	.	8r	.	8r	8r	8r	.
8D\	.	.	8B-/	.	8f/	.	.	.	.	.	.	8b-\L	.	8ff\L	(8dd\L	8ff\L	.
8D\	.	.	8B-/	.	8f/	.	.	.	8r	.	.	8ee-\	.	8gg\	8ee-\	8gg\	.
*	*	*	*	*	*custos:cc	*	*	*	*	*	*	*	*	*	*	*	*
!	!	!	!	!	!LO:TX:a:t=P:problem=wszystkie custos użyte jako łamanie pięciolinii	!	!	!	!	!	!	!	!	!	!	!	!
8D\J	.	.	8B-/J	.	8f/J	.	.	.	8f\	in	.	8ff\J	.	8aa-\J	8ff\J)	8aa-\J	.
!	!	!	!	!	!LO:LB:g=original	!	!	!	!	!	!	!	!	!	!	!	!
=21	=21	=21	=21	=21	=21	=21	=21	=21	=21	=21	=21	=21	=21	=21	=21	=21	=21
8E-\L	.	.	8B-/L	.	8g/L	.	2.ryy	2.ryy	(16g\LL	vi-	2.ryy	4ee-\	.	4gg\	4ee-\	4gg\	.
.	.	.	.	.	.	.	.	.	16f\	.	.	.	.	.	.	.	.
8E-\	.	.	8B-/	.	8g/	.	.	.	16e-\	.	.	.	.	.	.	.	.
.	.	.	.	.	.	.	.	.	16f\JJ)	.	.	.	.	.	.	.	.
8E-\	.	.	8B-/	.	8g/	.	.	.	(16e-\LL	.	.	4r	.	4r	4r	4r	.
.	.	.	.	.	.	.	.	.	16f\	.	.	.	.	.	.	.	.
8E-\J	.	.	8B-/J	.	8g/J	.	.	.	16g\	.	.	.	.	.	.	.	.
.	.	.	.	.	.	.	.	.	16a-\JJ)	.	.	.	.	.	.	.	.
*Xtremolo	*	*	*Xtremolo	*	*Xtremolo	*	*	*	*	*	*	*	*	*	*	*	*
8G\L	6	.	8e-/L	.	8b-/L	.	.	.	(16b-\LL	.	.	4r	.	4r	4r	4r	.
.	.	.	.	.	.	.	.	.	16g\	.	.	.	.	.	.	.	.
8G\J	.	.	8e-/J	.	8b-/J	.	.	.	16f\	.	.	.	.	.	.	.	.
.	.	.	.	.	.	.	.	.	16e-\JJ)	.	.	.	.	.	.	.	.
=22	=22	=22	=22	=22	=22	=22	=22	=22	=22	=22	=22	=22	=22	=22	=22	=22	=22
.	.	.	.	.	16qqdd/	.	.	.	.	.	.	.	.	.	.	.	.
!LO:TX:t=P:problem=mixed beam	!	!	!	!	!	!	!	!	!	!	!	!	!	!	!	!	!
8A-\L	.	.	8a-/L	.	8cc\L	.	2.ryy	2.ryy	8cc\	.	2.ryy	4ff\	.	4aa-\	8cc\L	8aa-\L	.
8A-\	.	.	16g/L	.	16b-\L	.	.	.	16b-\LL	.	.	.	.	.	16b-\L	16gg\L	.
.	.	.	16f/JJ	.	16a-\JJ	.	.	.	16a-\JJ	-a	.	.	.	.	16a-\JJ	16ff\JJ	.
8B-\	.	.	4e-/	.	4g\	.	.	.	4g\	bi-	.	4ee-\	.	4gg\	4g/	4ee-\	.
8B-\	4	.	.	.	.	.	.	.	.	.	.	.	.	.	.	.	.
8BB-/	3	.	4d/	.	4f\	.	.	.	4f\	.	.	4b-/	.	4ff\	4f/	4dd\	.
8BB-/J	.	.	.	.	.	.	.	.	.	.	.	.	.	.	.	.	.
=23	=23	=23	=23	=23	=23	=23	=23	=23	=23	=23	=23	=23	=23	=23	=23	=23	=23
8E-\L	.	.	4B-/	.	4g/	.	2.ryy	2.ryy	4g\	-bet	2.ryy	4g/	.	4ee-\	4g/	4ee-\	.
8E-\	.	.	.	.	.	.	.	.	.	.	.	.	.	.	.	.	.
8E-\	6	.	4e-/	.	8ee-\L	.	.	.	8ee-\L	in	.	4r	.	4r	4r	4r	.
8E-\	.	.	.	.	8cc\	.	.	.	(8cc\	.	.	.	.	.	.	.	.
8E-\	4 2	.	4f/	.	8b-\	.	.	.	8b-\	.	.	4r	.	4r	4r	4r	.
8E-\J	.	.	.	.	8an\J	.	.	.	8an\J)	.	.	.	.	.	.	.	.
!LO:LB:g=original	!	!	!	!	!	!	!	!	!LO:LB:g=original	!	!	!	!	!	!	!	!
=24	=24	=24	=24	=24	=24	=24	=24	=24	=24	=24	=24	=24	=24	=24	=24	=24	=24
*tremolo	*	*	*	*	*	*	*	*	*	*	*	*	*	*	*	*	*
!	!	!	!	!	!	!	!	!	!	!	!	!LO:TX:a:t=1.	!	!LO:TX:a:t=1	!LO:TX:a:t=1.	!LO:TX:a:t=1.	!
8D\L	6	.	4B-/	.	4b-\	.	2.ryy	2.ryy	8b-\L	vi-	2.ryy	2.r	.	2.r	2.r	2.r	.
8D\	.	.	.	.	.	.	.	.	8dd\J	.	.	.	.	.	.	.	.
8D\	.	.	4B-/	.	4f/	.	.	.	4g\	-a	.	.	.	.	.	.	.
8D\	.	.	.	.	.	.	.	.	.	.	.	.	.	.	.	.	.
8D\	.	.	8r	.	8r	.	.	.	8r	.	.	.	.	.	.	.	.
8D\J	.	.	8B-/	.	8f#X/	.	.	.	8f#X\	in	.	.	.	.	.	.	.
*Xtremolo	*	*	*	*	*	*	*	*	*	*	*	*	*	*	*	*	*
!	!	!	!	!	!	!	!	!	!	!	!	!LO:LB:g=original	!	!	!	!	!
=25	=25	=25	=25	=25	=25	=25	=25	=25	=25	=25	=25	=25	=25	=25	=25	=25	=25
!LO:TX:t=P:problem=mixed beam	!	!	!	!	!	!	!	!	!	!	!	!	!	!	!	!	!
8E-\L	.	.	16e-/LL	.	(16g\LL	.	2.ryy	2.ryy	8g\	vi-	2.ryy	4r	.	4r	8ee-\L	8gg\L	.
.	.	.	16g/	.	16ee-\	.	.	.	.	.	.	.	.	.	.	.	.
8E-\	.	.	16f/	.	16dd\	.	.	.	16ee-\LL	-a	.	.	.	.	16dd\L	16ff\L	.
.	.	.	16e-/JJ	.	16cc\JJ)	.	.	.	16cc\JJ	.	.	.	.	.	16cc\JJ	16ee-\JJ	.
8F\	4	.	4d/	.	4b-\	.	.	.	4b-\	bi-	.	4ff\	.	4ff\	4b-\	4dd\	.
8F\	.	.	.	.	.	.	.	.	.	.	.	.	.	.	.	.	.
8FF/	3	.	4c/	.	4an\	.	.	.	4an\	.	.	4ff\	.	4ff\	4a\	4cc\	.
8FF/J	.	.	.	.	.	.	.	.	.	.	.	.	.	.	.	.	.
=26	=26	=26	=26	=26	=26	=26	=26	=26	=26	=26	=26	=26	=26	=26	=26	=26	=26
4BB-/	.	.	4d/	.	4b-\	.	2.ryy	2.ryy	4b-\	-bet,	2.ryy	8b-/L	.	8ff\L	4b-\	4b-\	.
.	.	.	.	.	.	.	.	.	.	.	.	8b-/J	.	8ff\J	.	.	.
4B-\	.	.	4d/	.	4b-\	.	.	.	4r	.	.	4b-/	.	4ff\	4d/	4b-\	.
4r	.	.	4r	.	8r	.	.	.	8r	.	.	4r	.	4r	4r	4r	.
.	.	.	.	.	8B-/	.	.	.	8B-/	pro-	.	.	.	.	.	.	.
!	!	!	!LO:LB:g=original	!	!LO:LB:g=original	!	!	!	!	!	!	!	!	!	!LO:LB:g=original	!LO:LB:g=original	!
=27||	=27||	=27||	=27||	=27||	=27||	=27||	=27||	=27||	=27||	=27||	=27||	=27||	=27||	=27||	=27||	=27||	=27||
*	*	*	*	*	*clefG2	*	*	*	*	*	*	*clefG2	*	*clefG2	*clefG2	*clefG2	*
*	*	*	*	*	*k[b-e-a-]	*	*	*	*	*	*	*k[b-e-a-]	*	*k[b-e-a-]	*k[b-e-a-]	*k[b-e-a-]	*
*M2/4	*	*	*M2/4	*	*M2/4	*	*	*	*M2/4	*	*	*M2/4	*	*M2/4	*M2/4	*M2/4	*
*tremolo	*	*	*	*	*	*	*	*	*	*	*	*	*	*	*	*	*
!	!	!	!	!	!	!	!	!	!	!	!	!LO:TX:a:t=16.	!	!LO:TX:a:t=16	!	!	!
!LO:TX:a:i:t=Allo	!	!	!LO:TX:a:t=Allo.	!LO:DY:b:rj	!LO:TX:a:rj:t=Allo	!LO:DY:b:rj	!	!	!LO:TX:a:i:t=Allo	!	!	!LO:TX:b:t=Allo.	!	!LO:TX:a:t=Allo	!LO:TX:a:t=Allo	!LO:TX:a:t=Allo.	!
8E-\L	.	.	4.G/	p	4.e-/	p	2ryy	2ryy	4.e-\	-pte-	2ryy	0r	.	2r	4g/	4ee-\	.
8E-\	.	.	.	.	.	.	.	.	.	.	.	.	.	.	.	.	.
8E-\	.	.	.	.	.	.	.	.	.	.	.	.	.	.	4r	4r	.
8E-\J	.	.	(16c/LL	.	16a-/LL	.	.	.	(16a-\LL	.	.	.	.	.	.	.	.
.	.	.	16B-/JJ)	.	16g/JJ	.	.	.	16g\JJ)	.	.	.	.	.	.	.	.
=28	=28	=28	=28	=28	=28	=28	=28	=28	=28	=28	=28	=28	=28	=28	=28	=28	=28
8E-\L	.	.	4.B-/	.	4.g/	.	2ryy	2ryy	4.g\	-re-	2ryy	.	.	2r	4ee-\	4gg\	.
8E-\	.	.	.	.	.	.	.	.	.	.	.	.	.	.	.	.	.
8E-\	.	.	.	.	.	.	.	.	.	.	.	.	.	.	4r	4r	.
8E-\J	.	.	(16a-/LL	.	16cc/LL	.	.	.	16cc\LL	.	.	.	.	.	.	.	.
.	.	.	16g/JJ)	.	16b-/JJ	.	.	.	16b-\JJ	-a	.	.	.	.	.	.	.
!	!	!	!	!	!	!	!	!	!LO:LB:g=original	!	!	!	!	!	!	!	!
=29	=29	=29	=29	=29	=29	=29	=29	=29	=29	=29	=29	=29	=29	=29	=29	=29	=29
8E-\L	.	.	4.g/	.	4.b-\	.	2ryy	2ryy	4.b-\	ex-	2ryy	.	.	2r	4.b-\	4.gg\	.
8E-\	.	.	.	.	.	.	.	.	.	.	.	.	.	.	.	.	.
8E-\	.	.	.	.	.	.	.	.	.	.	.	.	.	.	.	.	.
8E-\J	.	.	8e-/	.	8g\	.	.	.	(16g\LL	-al-	.	.	.	.	8g/	8ee-\	.
.	.	.	.	.	.	.	.	.	16e-\JJ)	.	.	.	.	.	.	.	.
*Xtremolo	*	*	*	*	*	*	*	*	*	*	*	*	*	*	*	*	*
=30	=30	=30	=30	=30	=30	=30	=30	=30	=30	=30	=30	=30	=30	=30	=30	=30	=30
!LO:TX:t=P:problem=mixed beam	!	!	!	!	!	!	!	!	!	!	!	!	!	!	!	!	!
8B-\L	4	.	8g/L	.	8b-\L	.	2ryy	2ryy	8g\L	-ta-	2ryy	.	.	2r	(8b-/L	8gg\L	.
8B-\	.	.	8f/	.	8a-\	.	.	.	8f\	.	.	.	.	.	8a-/)	8ff\	.
8BB-/	3	.	8e-/	.	8g\	.	.	.	8e-\	.	.	.	.	.	(8g/	8ee-\	.
8BB-/J	.	.	8d/J	.	8f\J	.	.	.	8d\J	.	.	.	.	.	8f/J)	8dd\J	.
=31	=31	=31	=31	=31	=31	=31	=31	=31	=31	=31	=31	=31	=31	=31	=31	=31	=31
*tremolo	*	*	*	*	*	*	*	*	*	*	*	*	*	*	*	*	*
8E-\L	.	.	4.G/	.	4.e-/	.	2ryy	2ryy	4.e-\	-bit	2ryy	0r	.	2r	4g/	4ee-\	.
8E-\	.	.	.	.	.	.	.	.	.	.	.	.	.	.	.	.	.
8E-\	.	.	.	.	.	.	.	.	.	.	.	.	.	.	4r	4r	.
8E-\J	.	.	(16c/LL	.	16a-/LL	.	.	.	16a-\LL	ca-	.	.	.	.	.	.	.
.	.	.	16B-/JJ)	.	16g/JJ	.	.	.	16g\JJ	.	.	.	.	.	.	.	.
=32	=32	=32	=32	=32	=32	=32	=32	=32	=32	=32	=32	=32	=32	=32	=32	=32	=32
8E-\L	.	.	4.B-/	.	4.g/	.	2ryy	2ryy	4.g\	.	2ryy	.	.	2r	4ee-\	4gg\	.
8E-\	.	.	.	.	.	.	.	.	.	.	.	.	.	.	.	.	.
8E-\	.	.	.	.	.	.	.	.	.	.	.	.	.	.	4r	4r	.
8E-\J	.	.	(16a-/LL	.	16cc/LL	.	.	.	16cc\LL	.	.	.	.	.	.	.	.
.	.	.	16g/JJ)	.	16b-/JJ	.	.	.	16b-\JJ	.	.	.	.	.	.	.	.
=33	=33	=33	=33	=33	=33	=33	=33	=33	=33	=33	=33	=33	=33	=33	=33	=33	=33
8E-\L	.	.	4.g/	.	4.b-\	.	2ryy	2ryy	4.b-\	.	2ryy	.	.	2r	4.gg\	4.bb-\	.
8E-\	.	.	.	.	.	.	.	.	.	.	.	.	.	.	.	.	.
8E-\	.	.	.	.	.	.	.	.	.	.	.	.	.	.	.	.	.
8E-\J	.	.	8b-/	.	16g/LL	.	.	.	16g\LL	.	.	.	.	.	8ee-\	8gg\	.
.	.	.	.	.	16b-/JJ	.	.	.	16b-\JJ	.	.	.	.	.	.	.	.
*Xtremolo	*	*	*	*	*	*	*	*	*	*	*	*	*	*	*	*	*
!LO:LB:g=original	!	!	!	!	!	!	!	!	!	!	!	!	!	!	!	!	!
=34	=34	=34	=34	=34	=34	=34	=34	=34	=34	=34	=34	=34	=34	=34	=34	=34	=34
!LO:TX:t=P:problem=mixed beam	!	!	!	!	!	!	!	!	!	!	!	!	!	!	!	!	!
8B-\L	.	.	8b-/L	.	8b-\L	.	2ryy	2ryy	8b-\L	.	2ryy	.	.	2r	(8gg\L	8bb-\L	.
8B-\	.	.	8a-/	.	8a-\	.	.	.	8a-\	.	.	.	.	.	8ff\)	8aa-\	.
8BB-/	.	.	8g/	.	8g\	.	.	.	8g\	.	.	.	.	.	(8ee-\	8gg\	.
8BB-/J	.	.	8f/J	.	8f\J	.	.	.	8f\J	.	.	.	.	.	8dd\J)	8ff\J	.
!	!	!	!	!	!LO:LB:g=original	!	!	!	!	!	!	!	!	!	!	!	!
=35	=35	=35	=35	=35	=35	=35	=35	=35	=35	=35	=35	=35	=35	=35	=35	=35	=35
*tremolo	*	*	*tremolo	*	*	*	*	*	*	*	*	*	*	*	*	*	*
8E-\L	.	.	8B-/L	.	8g/	.	2ryy	2ryy	8g\	-put	2ryy	0r	.	2r	4ee-\	4ee-\	.
8E-\	.	.	8B-/	.	8r	.	.	.	8r	.	.	.	.	.	.	.	.
8E-\	.	.	8B-/	.	16e-/LL	.	.	.	(16e-\LL	ex-	.	.	.	.	4r	4r	.
.	.	.	.	.	16d/	.	.	.	16d\	.	.	.	.	.	.	.	.
8E-\J	.	.	8B-/J	.	16e-/	.	.	.	16e-\	.	.	.	.	.	.	.	.
.	.	.	.	.	16f/JJ	.	.	.	16f\JJ)	.	.	.	.	.	.	.	.
!	!	!	!	!	!	!	!	!	!LO:LB:g=original	!	!	!	!	!	!	!	!
=36	=36	=36	=36	=36	=36	=36	=36	=36	=36	=36	=36	=36	=36	=36	=36	=36	=36
8E-\L	.	.	8B-/L	.	8g/	.	2ryy	2ryy	8g\	-al-	2ryy	.	.	2r	4ee-\	4gg\	.
8E-\	.	.	8B-/	.	8r	.	.	.	8r	.	.	.	.	.	.	.	.
8E-\	.	.	8B-/	.	16g/LL	.	.	.	(16g\LL	-ta-	.	.	.	.	4r	4r	.
.	.	.	.	.	16f/	.	.	.	16f\	.	.	.	.	.	.	.	.
8E-\J	.	.	8B-/J	.	16g/	.	.	.	16g\	.	.	.	.	.	.	.	.
.	.	.	.	.	16a-/JJ	.	.	.	16a-\JJ)	.	.	.	.	.	.	.	.
=37	=37	=37	=37	=37	=37	=37	=37	=37	=37	=37	=37	=37	=37	=37	=37	=37	=37
8E-\L	.	.	8G/L	.	4.b-\	.	2ryy	2ryy	4.b-\	.	2ryy	.	.	2r	4gg\	4bb-\	.
8E-\	.	.	8G/	.	.	.	.	.	.	.	.	.	.	.	.	.	.
8E-\	.	.	8G/	.	.	.	.	.	.	.	.	.	.	.	4r	4r	.
8E-\J	.	.	8G/J	.	16cc\LL	.	.	.	16cc\LL	.	.	.	.	.	.	.	.
.	.	.	.	.	16b-\JJ	.	.	.	16b-\JJ	-bit	.	.	.	.	.	.	.
=38	=38	=38	=38	=38	=38	=38	=38	=38	=38	=38	=38	=38	=38	=38	=38	=38	=38
!	!	!	!	!	!	!	!	!	!	!	!	!	!	!	!LO:TX:a:t=1.	!LO:TX:a:t=1.	!
8E-\L	.	.	8g/L	.	8a-/L	.	2ryy	2ryy	8a-\L	ca-	2ryy	.	.	2r	2r	2r	.
8E-\	.	.	8g/	.	8g/	.	.	.	8g\	.	.	.	.	.	.	.	.
8E-\	.	.	8g/	.	8f/	.	.	.	8f\	.	.	.	.	.	.	.	.
8E-\J	.	.	8g/J	.	8e-/J	.	.	.	8e-\J	.	.	.	.	.	.	.	.
=39	=39	=39	=39	=39	=39	=39	=39	=39	=39	=39	=39	=39	=39	=39	=39	=39	=39
8BB-/L	7	.	8f/L	.	8d/	.	2ryy	2ryy	8d\	-put	2ryy	0r	.	2r	4b-\	4dd\	.
8BB-/	.	.	8f/	.	8r	.	.	.	8r	.	.	.	.	.	.	.	.
8BB-/	.	.	8f/	.	(16d/LL	.	.	.	(16d\LL	ex-	.	.	.	.	4r	4r	.
.	.	.	.	.	16c/	.	.	.	16c\	.	.	.	.	.	.	.	.
8BB-/J	.	.	8f/J	.	16d/	.	.	.	16d\	.	.	.	.	.	.	.	.
.	.	.	.	.	16e-/JJ)	.	.	.	16e-\JJ)	.	.	.	.	.	.	.	.
!	!	!	!LO:LB:g=original	!	!	!	!	!	!	!	!	!	!	!	!	!	!
=40	=40	=40	=40	=40	=40	=40	=40	=40	=40	=40	=40	=40	=40	=40	=40	=40	=40
8BB-/L	.	.	8d/L	.	8f/	.	2ryy	2ryy	8f\	-al-	2ryy	.	.	2r	4dd\	4ff\	.
8BB-/	.	.	8d/	.	8r	.	.	.	8r	.	.	.	.	.	.	.	.
8BB-/	.	.	8d/	.	16f/LL	.	.	.	(16f\LL	-ta-	.	.	.	.	4r	4r	.
.	.	.	.	.	16e-/	.	.	.	16e-\	.	.	.	.	.	.	.	.
8BB-/J	.	.	8d/J	.	16f/	.	.	.	16f\	.	.	.	.	.	.	.	.
*	*	*	*	*	*custos:cc	*	*	*	*	*	*	*	*	*	*	*	*
.	.	.	.	.	16g/JJ	.	.	.	16g\JJ)	.	.	.	.	.	.	.	.
!	!	!	!	!	!LO:PB:g=original	!	!	!	!	!	!	!	!	!	!	!	!
=41	=41	=41	=41	=41	=41	=41	=41	=41	=41	=41	=41	=41	=41	=41	=41	=41	=41
8BB-/L	.	.	8d/L	.	4.a-/	.	2ryy	2ryy	4.a-\	.	2ryy	.	.	2r	4ff\	4aa-\	.
8BB-/	.	.	8d/	.	.	.	.	.	.	.	.	.	.	.	.	.	.
8BB-/	.	.	8d/	.	.	.	.	.	.	.	.	.	.	.	4r	4r	.
8BB-/J	.	.	8d/J	.	16f/LL	.	.	.	16f\LL	.	.	.	.	.	.	.	.
.	.	.	.	.	16a-/JJ	.	.	.	16a-\JJ	-bit	.	.	.	.	.	.	.
!	!	!	!	!	!	!	!	!	!LO:LB:g=original	!	!	!	!	!	!	!LO:LB:g=original	!
=42	=42	=42	=42	=42	=42	=42	=42	=42	=42	=42	=42	=42	=42	=42	=42	=42	=42
!	!	!	!	!	!	!	!	!	!	!	!	!	!	!	!LO:TX:a:t=1.	!LO:TX:a:t=1	!
8BB-/L	.	.	8f/L	.	8g/L	.	2ryy	2ryy	8g\L	ca-	2ryy	.	.	2r	2r	2r	.
8BB-/	.	.	8f/	.	8f/	.	.	.	8f\	.	.	.	.	.	.	.	.
8BB-/	.	.	8f/	.	8e-/	.	.	.	8e-\	.	.	.	.	.	.	.	.
8BB-/J	.	.	8f/J	.	8d/J	.	.	.	8d\J	.	.	.	.	.	.	.	.
*	*	*	*Xtremolo	*	*	*	*	*	*	*	*	*	*	*	*	*	*
=43	=43	=43	=43	=43	=43	=43	=43	=43	=43	=43	=43	=43	=43	=43	=43	=43	=43
!	!	!	!	!	!	!	!	!	!	!	!	!	!LO:DY:rj:t=p.	!	!	!	!
8E-\L	.	.	8e-/	.	(16e-/LL	.	2ryy	2ryy	16e-\LL	.	2ryy	4ee-\	p	4gg\	4ee-\	4gg\	.
.	.	.	.	.	16d/	.	.	.	16d\	.	.	.	.	.	.	.	.
8E-\	.	.	8r	.	16e-/	.	.	.	16e-\	.	.	.	.	.	.	.	.
.	.	.	.	.	16f/JJ)	.	.	.	16f\JJ	.	.	.	.	.	.	.	.
8E-\	.	.	(16e-/LL	.	(16g/LL	.	.	.	16g\LL	.	.	4r	.	4r	4r	4r	.
.	.	.	16d/	.	16f/	.	.	.	16f\	.	.	.	.	.	.	.	.
8E-\J	.	.	16e-/	.	16g/	.	.	.	16g\	.	.	.	.	.	.	.	.
.	.	.	16f/JJ)	.	16a-/JJ)	.	.	.	16a-\JJ	.	.	.	.	.	.	.	.
!	!	!	!	!	!	!	!	!	!	!	!	!	!	!	!LO:LB:g=original	!	!
=44	=44	=44	=44	=44	=44	=44	=44	=44	=44	=44	=44	=44	=44	=44	=44	=44	=44
*	*	*	*	*	*	*	*	*	*	*	*	*2\right	*	*2\right	*	*	*
!	!	!	!LO:N:vis=16/L	!	!	!	!	!	!	!	!	!	!	!	!	!	!
8E-\L	.	.	8g/L	.	8b-/L	.	2ryy	2ryy	8b-\L	.	2ryy	2ee-\	.	2gg\	8gg\L	8bb-\L	.
!	!	!	!LO:N:vis=16/	!	!	!	!	!	!	!	!	!	!	!	!	!	!
8E-\	.	.	8e-/	.	8g/	.	.	.	8g\	.	.	.	.	.	8ee-\	8gg\	.
!	!	!	!LO:N:vis=16/	!	!	!	!	!	!	!	!	!	!	!	!	!	!
8E-\	.	.	8g/	.	8b-/	.	.	.	8b-\	.	.	.	.	.	8gg\	8bb-\	.
!	!	!	!LO:N:vis=16/J	!	!	!	!	!	!	!	!	!	!	!	!	!	!
8E-\J	.	.	8e-/J	.	8g/J	.	.	.	8g\J	.	.	.	.	.	8ee-\J	8gg\J	.
!	!	!	!	!	!	!	!	!	!	!	!	!	!	!LO:LB:g=original	!	!	!
=45	=45	=45	=45	=45	=45	=45	=45	=45	=45	=45	=45	=45	=45	=45	=45	=45	=45
8D\L	6 5	.	8d/	.	16f/LL	.	2ryy	2ryy	(16f\LL	.	2ryy	4b-/	.	4ff\	4dd\	4ff\	.
.	.	.	.	.	16e-/	.	.	.	16e-\	.	.	.	.	.	.	.	.
8D\	.	.	8r	.	16f/	.	.	.	16f\	.	.	.	.	.	.	.	.
.	.	.	.	.	16g/JJ	.	.	.	16g\JJ)	.	.	.	.	.	.	.	.
8D\	.	.	(16f/LL	.	16a-/LL	.	.	.	(16a-\LL	.	.	4r	.	4r	4r	4r	.
.	.	.	16e-/	.	16g/	.	.	.	16g\	.	.	.	.	.	.	.	.
8D\J	.	.	16f/	.	16a-/	.	.	.	16a-\	.	.	.	.	.	.	.	.
.	.	.	16g/JJ)	.	16b-/JJ	.	.	.	16b-\JJ)	.	.	.	.	.	.	.	.
=46	=46	=46	=46	=46	=46	=46	=46	=46	=46	=46	=46	=46	=46	=46	=46	=46	=46
8D\L	7	.	8a-/L	.	8cc/L	.	2ryy	2ryy	8cc\L	.	2ryy	2ff\	.	2aa-\	4ff\	4aa-\	.
8D\	.	.	8f/	.	8a-/	.	.	.	8a-\	.	.	.	.	.	.	.	.
8D\	.	.	8e-/	.	8g/	.	.	.	8g\	.	.	.	.	.	8ee-\L	8gg\L	.
8D\J	.	.	8d/J	.	8f/J	.	.	.	8f\J	.	.	.	.	.	8dd\J	8ff\J	.
=47	=47	=47	=47	=47	=47	=47	=47	=47	=47	=47	=47	=47	=47	=47	=47	=47	=47
8E-\L	.	.	8e-/	.	(16e-/LL	.	2ryy	2ryy	(16e-\LL	.	2ryy	4ee-\	.	4gg\	4ee-\	4gg\	.
.	.	.	.	.	16d/	.	.	.	16d\	.	.	.	.	.	.	.	.
8E-\	.	.	8r	.	16e-/	.	.	.	16e-\	.	.	.	.	.	.	.	.
.	.	.	.	.	16f/JJ)	.	.	.	16f\JJ)	.	.	.	.	.	.	.	.
!	!	!	!	!	!LO:LB:g=original	!	!	!	!	!	!	!	!	!	!	!	!
8E-\	.	.	(16e-/LL	.	(16g/LL	.	.	.	(16g\LL	.	.	4r	.	4r	4r	4r	.
.	.	.	16d/	.	16f/	.	.	.	16f\	.	.	.	.	.	.	.	.
8E-\J	.	.	16e-/	.	16g/	.	.	.	16g\	.	.	.	.	.	.	.	.
.	.	.	16f/JJ)	.	16a-/JJ)	.	.	.	16a-\JJ)	.	.	.	.	.	.	.	.
!	!	!	!	!	!	!	!	!	!LO:LB:g=original	!	!	!	!	!	!	!	!
=48	=48	=48	=48	=48	=48	=48	=48	=48	=48	=48	=48	=48	=48	=48	=48	=48	=48
8E-\L	.	.	8g/L	.	8b-/L	.	2ryy	2ryy	8b-\L	.	2ryy	2ee-\	.	2gg\	8gg\L	8bb-\L	.
8E-\	.	.	8e-/	.	8g/	.	.	.	8g\	.	.	.	.	.	8ee-\	8gg\	.
8E-\	.	.	8g/	.	8b-/	.	.	.	8b-\	.	.	.	.	.	8gg\	8bb-\	.
8E-\J	.	.	8e-/J	.	8g/J	.	.	.	8g\J	.	.	.	.	.	8ee-\J	8gg\J	.
!LO:LB:g=original	!	!	!	!	!	!	!	!	!	!	!	!	!	!	!	!	!
=49	=49	=49	=49	=49	=49	=49	=49	=49	=49	=49	=49	=49	=49	=49	=49	=49	=49
8D\L	6	.	8d/	.	16f/LL	.	2ryy	2ryy	(16f\LL	.	2ryy	4b-/	.	4ff\	4dd\	4ff\	.
.	.	.	.	.	(16e-/	.	.	.	16e-\	.	.	.	.	.	.	.	.
8D\	.	.	8r	.	16f/	.	.	.	16f\	.	.	.	.	.	.	.	.
.	.	.	.	.	16g/JJ)	.	.	.	16g\JJ)	.	.	.	.	.	.	.	.
8D\	.	.	(16f/LL	.	(16a-/LL	.	.	.	(16a-\LL	.	.	4r	.	4r	4r	4r	.
.	.	.	16e-/	.	16g/	.	.	.	16g\	.	.	.	.	.	.	.	.
8D\J	.	.	16f/	.	16a-/	.	.	.	16a-\	.	.	.	.	.	.	.	.
.	.	.	16g/JJ)	.	16b-/JJ)	.	.	.	16b-\JJ)	.	.	.	.	.	.	.	.
!	!	!	!LO:LB:g=original	!	!	!	!	!	!	!	!	!	!	!	!	!	!
=50	=50	=50	=50	=50	=50	=50	=50	=50	=50	=50	=50	=50	=50	=50	=50	=50	=50
8D\L	7	.	8a-/L	.	8cc/L	.	2ryy	2ryy	8cc\L	.	2ryy	2ff\	.	2aa-\	4ff\	4aa-\	.
8D\	.	.	8f/	.	8a-/	.	.	.	8a-\	.	.	.	.	.	.	.	.
8D\	.	.	8e-/	.	8g/	.	.	.	8g\	.	.	.	.	.	8ee-\L	8gg\L	.
8D\J	.	.	8d/J	.	8f/J	.	.	.	8f\J	.	.	.	.	.	8dd\J	8ff\J	.
!	!	!	!	!	!	!	!	!	!	!	!	!LO:LB:g=original	!	!	!	!	!
=51	=51	=51	=51	=51	=51	=51	=51	=51	=51	=51	=51	=51	=51	=51	=51	=51	=51
*	*	*	*tremolo	*	*	*	*	*	*	*	*	*	*	*	*	*	*
8E-\L	.	.	8B-/L	.	4.e-/	.	2ryy	2ryy	4.e-\	-put	2ryy	4ee-\	.	4gg\	4ee-\	4gg\	.
8E-\	.	.	8B-/	.	.	.	.	.	.	.	.	.	.	.	.	.	.
8E-\	.	.	8B-/	.	.	.	.	.	.	.	.	4r	.	4r	4r	4r	.
8E-\J	.	.	8B-/J	.	16g/LL	.	.	.	16g\LL	ex-	.	.	.	.	.	.	.
.	.	.	.	.	16b-/JJ	.	.	.	16b-\JJ	.	.	.	.	.	.	.	.
=52	=52	=52	=52	=52	=52	=52	=52	=52	=52	=52	=52	=52	=52	=52	=52	=52	=52
!	!	!	!	!	!	!	!	!	!	!	!	!LO:TX:a:t=8.	!	!LO:TX:a:t=8:pokreślone:problem	!LO:TX:a:t=8.	!LO:TX:a:t=8.	!
8E-\L	6	.	8g/L	.	8ee-\L	.	2ryy	2ryy	8ee-\L	-al-	2ryy	0r	.	2r	0r	0r	.
8E-\	.	.	8g/	.	8dd\	.	.	.	8dd\	.	.	.	.	.	.	.	.
8E-\	5	.	8g/	.	8cc\	.	.	.	8cc\	.	.	.	.	.	.	.	.
8E-\J	.	.	8g/J	.	8b-\J	.	.	.	8b-\J	.	.	.	.	.	.	.	.
=53	=53	=53	=53	=53	=53	=53	=53	=53	=53	=53	=53	=53	=53	=53	=53	=53	=53
8E-\L	4_ 2_	.	8f/L	.	8b-\L	.	2ryy	2ryy	(8b-\L	-ta-	2ryy	.	.	2r	.	.	.
8E-\	.	.	8f/	.	8an\J	.	.	.	8an\J)	.	.	.	.	.	.	.	.
8E-\	.	.	8f/	.	4a\	.	.	.	4a\	-bit	.	.	.	.	.	.	.
8E-\J	.	.	8f/J	.	.	.	.	.	.	.	.	.	.	.	.	.	.
!	!	!	!	!	!LO:LB:g=original	!	!	!	!	!	!	!	!	!	!	!	!
=54	=54	=54	=54	=54	=54	=54	=54	=54	=54	=54	=54	=54	=54	=54	=54	=54	=54
!	!	!	!	!	!	!	!	!	!LO:SIC:v:s=16an\LL	!	!	!	!	!	!	!	!
8E-\L	.	.	8f/L	.	(16an\LL	.	2ryy	2ryy	16a-\LL	ca-	2ryy	.	.	2r	.	.	.
.	.	.	.	.	16b-\	.	.	.	16b-\	.	.	.	.	.	.	.	.
8E-\	.	.	8f/	.	16cc\)	.	.	.	16cc\	.	.	.	.	.	.	.	.
.	.	.	.	.	16b-\JJ	.	.	.	16b-\JJ	.	.	.	.	.	.	.	.
8E-\	.	.	8f/	.	(16dd\LL	.	.	.	16dd\LL	.	.	.	.	.	.	.	.
.	.	.	.	.	16cc\	.	.	.	16cc\	.	.	.	.	.	.	.	.
8E-\J	.	.	8f/J	.	16b-\	.	.	.	16b-\	.	.	.	.	.	.	.	.
!	!	!	!	!	!	!	!	!	!LO:SIC:v:s=16an\JJ	!	!	!	!	!	!	!	!
.	X X	.	.	.	16a\JJ)	.	.	.	16a-\JJ	.	.	.	.	.	.	.	.
!	!	!	!	!	!	!	!	!	!LO:PB:g=original	!	!	!	!	!	!	!	!
=55	=55	=55	=55	=55	=55	=55	=55	=55	=55	=55	=55	=55	=55	=55	=55	=55	=55
8D\L	6	.	8B-/L	.	8b-\L	.	2ryy	2ryy	8b-\L	.	2ryy	.	.	2r	.	.	.
8D\	.	.	8B-/	.	8dd\J	.	.	.	8dd\J	.	.	.	.	.	.	.	.
8D\	.	.	8B-/	.	4f/	.	.	.	4f\	-put	.	.	.	.	.	.	.
8D\J	.	.	8B-/J	.	.	.	.	.	.	.	.	.	.	.	.	.	.
=56	=56	=56	=56	=56	=56	=56	=56	=56	=56	=56	=56	=56	=56	=56	=56	=56	=56
8BB-/L	.	.	8d/L	.	16f/LL	.	2ryy	2ryy	16f\LL	ca-	2ryy	0r	.	2r	0r	0r	.
.	.	.	.	.	(16g/	.	.	.	16g\	.	.	.	.	.	.	.	.
!	!	!	!	!	!LO:SIC:v:s=16an/	!	!	!	!	!	!	!	!	!	!	!	!
8BB-/	.	.	8d/	.	16a-/	.	.	.	16an\	.	.	.	.	.	.	.	.
.	.	.	.	.	16b-/JJ)	.	.	.	16b-\JJ	.	.	.	.	.	.	.	.
8BB-/	.	.	8d/	.	(16cc\LL	.	.	.	16cc\LL	.	.	.	.	.	.	.	.
.	.	.	.	.	16b-\	.	.	.	16b-\	.	.	.	.	.	.	.	.
8BB-/J	.	.	8d/J	.	16ee-\	.	.	.	16ee-\	.	.	.	.	.	.	.	.
.	.	.	.	.	16dd\JJ)	.	.	.	16dd\JJ	.	.	.	.	.	.	.	.
*Xtremolo	*	*	*Xtremolo	*	*	*	*	*	*	*	*	*	*	*	*	*	*
=57	=57	=57	=57	=57	=57	=57	=57	=57	=57	=57	=57	=57	=57	=57	=57	=57	=57
8B-\	.	.	8d/	.	16cc\LL	.	2ryy	2ryy	16cc\LL	.	2ryy	.	.	2r	.	.	.
.	.	.	.	.	(16b-\	.	.	.	16b-\	.	.	.	.	.	.	.	.
8r	.	.	8r	.	16an\	.	.	.	16an\	.	.	.	.	.	.	.	.
.	.	.	.	.	16b-\JJ)	.	.	.	16b-\JJ	.	.	.	.	.	.	.	.
8An\	6 5	.	8c/	.	(16cc\LL	.	.	.	16cc\LL	.	.	.	.	.	.	.	.
.	.	.	.	.	16dd\	.	.	.	16dd\	.	.	.	.	.	.	.	.
8r	.	.	8r	.	16ee-\	.	.	.	16ee-\	.	.	.	.	.	.	.	.
.	.	.	.	.	16cc\JJ)	.	.	.	16cc\JJ	.	.	.	.	.	.	.	.
=58	=58	=58	=58	=58	=58	=58	=58	=58	=58	=58	=58	=58	=58	=58	=58	=58	=58
8B-\	.	.	8d/	.	(16dd\LL	.	2ryy	2ryy	16dd\LL	.	2ryy	.	.	2r	.	.	.
.	.	.	.	.	16b-\	.	.	.	16b-\	.	.	.	.	.	.	.	.
!	!	!	!	!	!LO:SIC:v:s=16an\	!	!	!	!	!	!	!	!	!	!	!	!
8r	.	.	8r	.	16a-\	.	.	.	16an\	.	.	.	.	.	.	.	.
.	.	.	.	.	16b-\JJ)	.	.	.	16b-\JJ	.	.	.	.	.	.	.	.
8An\	6 5	.	8c/	.	(16cc\LL	.	.	.	16cc\LL	.	.	.	.	.	.	.	.
.	.	.	.	.	16dd\	.	.	.	16dd\	.	.	.	.	.	.	.	.
8r	.	.	8r	.	16ee-\	.	.	.	16ee-\	.	.	.	.	.	.	.	.
.	.	.	.	.	16cc\JJ)	.	.	.	16cc\JJ	.	.	.	.	.	.	.	.
!	!	!	!	!	!LO:LB:g=original	!	!	!	!	!	!	!	!	!	!	!	!
=59	=59	=59	=59	=59	=59	=59	=59	=59	=59	=59	=59	=59	=59	=59	=59	=59	=59
8B-\	.	.	8d/	.	4dd\	.	2ryy	2ryy	4dd\	.	2ryy	.	.	2r	.	.	.
8r	.	.	8r	.	.	.	.	.	.	.	.	.	.	.	.	.	.
8G\	6\	.	8en/	.	(16cc\LL	.	.	.	16cc\LL	.	.	.	.	.	.	.	.
.	.	.	.	.	16b-\	.	.	.	16b-\	.	.	.	.	.	.	.	.
8r	.	.	8r	.	16an\	.	.	.	16an\	.	.	.	.	.	.	.	.
!	!	!LO:DY:b:t=f&colon;	!	!	!	!	!	!	!	!	!	!	!	!	!	!	!
.	.	f	.	.	16b-\JJ)	.	.	.	16b-\JJ	.	.	.	.	.	.	.	.
!	!	!	!	!	!	!	!	!	!LO:LB:g=original	!	!	!	!	!	!	!	!
=60	=60	=60	=60	=60	=60	=60	=60	=60	=60	=60	=60	=60	=60	=60	=60	=60	=60
!	!	!	!	!	!	!LO:DY:b:rj	!	!	!	!	!	!	!LO:DY:t=f.	!	!	!	!
8F\L	.	.	4f/	.	4an\	f	2ryy	2ryy	4a-\	-put	2ryy	4ff\	f	4ff\	4dd\	4ff\	.
8F\J	.	.	.	.	.	.	.	.	.	.	.	.	.	.	.	.	.
8C/L	.	.	4an 4f/	.	4ff 4a\	.	.	.	4r	.	.	4ff\	.	4ff\	4dd\	4ff\	.
8AAn/J	.	.	.	.	.	.	.	.	.	.	.	.	.	.	.	.	.
=61	=61	=61	=61	=61	=61	=61	=61	=61	=61	=61	=61	=61	=61	=61	=61	=61	=61
!	!	!	!LO:SIC:v:n=1:s=4an	!	!LO:SIC:v:n=2:s=4an\	!	!	!	!LO:TX:a:t=1.	!	!	!	!	!	!	!	!
4FF/	.	.	4a- 4f/	.	4ff 4a-\	.	2ryy	2ryy	2r	.	2ryy	4ff\	.	4ff\	4dd\	4ff\	.
4r	.	.	4r	.	4r	.	.	.	.	.	.	4r	.	4r	4r	4r	.
!LO:LB:g=original	!	!	!	!	!	!	!	!	!	!	!	!	!	!	!	!	!
=62	=62	=62	=62	=62	=62	=62	=62	=62	=62	=62	=62	=62	=62	=62	=62	=62	=62
!	!	!LO:DY:b:t=p.	!LO:TX:a:t=P:problem=brak początku ligatury	!	!LO:TX:a:i:t=Mancando.	!LO:DY:b:rj	!	!	!	!	!	!LO:TX:a:t=16.	!	!LO:TX:a:t=16.	!LO:TX:a:t=16.	!LO:TX:a:t=16.	!
[2BB-/	.	p	[2B-/	.	2d/	p	2ryy	2ryy	16b-\LL	ex-	2ryy	0r	.	2r	0r	0r	.
.	.	.	.	.	.	.	.	.	16cc\	.	.	.	.	.	.	.	.
.	.	.	.	.	.	.	.	.	16dd\	.	.	.	.	.	.	.	.
.	.	.	.	.	.	.	.	.	16cc\JJ	.	.	.	.	.	.	.	.
.	.	.	.	.	.	.	.	.	8b-\	-al-	.	.	.	.	.	.	.
.	.	.	.	.	.	.	.	.	8r	.	.	.	.	.	.	.	.
!	!	!	!LO:PB:g=original	!	!	!	!	!	!	!	!	!	!	!	!	!	!
=63	=63	=63	=63	=63	=63	=63	=63	=63	=63	=63	=63	=63	=63	=63	=63	=63	=63
2BB-/]	.	.	2B-/]	.	2d/	.	2ryy	2ryy	16b-\LL	-ta-	2ryy	.	.	2r	.	.	.
.	.	.	.	.	.	.	.	.	16cc\	.	.	.	.	.	.	.	.
.	.	.	.	.	.	.	.	.	16dd\	.	.	.	.	.	.	.	.
.	.	.	.	.	.	.	.	.	16b-\JJ	.	.	.	.	.	.	.	.
.	.	.	.	.	.	.	.	.	16ee-\LL	.	.	.	.	.	.	.	.
.	.	.	.	.	.	.	.	.	16dd\	.	.	.	.	.	.	.	.
.	.	.	.	.	.	.	.	.	16cc\	.	.	.	.	.	.	.	.
.	.	.	.	.	.	.	.	.	16b-\JJ	.	.	.	.	.	.	.	.
=64	=64	=64	=64	=64	=64	=64	=64	=64	=64	=64	=64	=64	=64	=64	=64	=64	=64
[2FF/	.	.	[2An/	.	2c/	.	2ryy	2ryy	16an\LL	.	2ryy	.	.	2r	.	.	.
.	.	.	.	.	.	.	.	.	16b-\	.	.	.	.	.	.	.	.
.	.	.	.	.	.	.	.	.	16cc\	.	.	.	.	.	.	.	.
.	.	.	.	.	.	.	.	.	16b-\JJ	.	.	.	.	.	.	.	.
.	.	.	.	.	.	.	.	.	8a\	-bit	.	.	.	.	.	.	.
.	.	.	.	.	.	.	.	.	8r	.	.	.	.	.	.	.	.
=65	=65	=65	=65	=65	=65	=65	=65	=65	=65	=65	=65	=65	=65	=65	=65	=65	=65
!	!	!	!	!	!	!	!	!	!LO:SIC:v:s=16an\LL	!	!	!	!	!	!	!	!
2FF/]	.	.	2A/]	.	2c/	.	2ryy	2ryy	16a-\LL	ca-	2ryy	.	.	2r	.	.	.
.	.	.	.	.	.	.	.	.	16b-\	.	.	.	.	.	.	.	.
.	.	.	.	.	.	.	.	.	16cc\	.	.	.	.	.	.	.	.
.	.	.	.	.	.	.	.	.	16a-\JJ	.	.	.	.	.	.	.	.
.	.	.	.	.	.	.	.	.	16dd\LL	.	.	.	.	.	.	.	.
.	.	.	.	.	.	.	.	.	16cc\	.	.	.	.	.	.	.	.
.	.	.	.	.	.	.	.	.	16b-\	.	.	.	.	.	.	.	.
!	!	!	!	!	!	!	!	!	!LO:SIC:v:s=16an\JJ	!	!	!	!	!	!	!	!
.	.	.	.	.	.	.	.	.	16a-\JJ	.	.	.	.	.	.	.	.
!	!	!	!	!	!	!	!	!	!LO:LB:g=original	!	!	!	!	!	!	!	!
=66	=66	=66	=66	=66	=66	=66	=66	=66	=66	=66	=66	=66	=66	=66	=66	=66	=66
2BB-/	.	.	[2B-/	.	2d/	.	2ryy	2ryy	16b-\LL	.	2ryy	0r	.	2r	0r	0r	.
.	.	.	.	.	.	.	.	.	16cc\	.	.	.	.	.	.	.	.
.	.	.	.	.	.	.	.	.	16dd\	.	.	.	.	.	.	.	.
.	.	.	.	.	.	.	.	.	16ee-\JJ	.	.	.	.	.	.	.	.
.	.	.	.	.	.	.	.	.	8b-\	-put	.	.	.	.	.	.	.
.	.	.	.	.	.	.	.	.	8r	.	.	.	.	.	.	.	.
=67	=67	=67	=67	=67	=67	=67	=67	=67	=67	=67	=67	=67	=67	=67	=67	=67	=67
2BB-/	.	.	2B-/]	.	2d/	.	2ryy	2ryy	16b-\LL	ca-	2ryy	.	.	2r	.	.	.
.	.	.	.	.	.	.	.	.	16cc\	.	.	.	.	.	.	.	.
.	.	.	.	.	.	.	.	.	16dd\	.	.	.	.	.	.	.	.
.	.	.	.	.	.	.	.	.	16b-\JJ	.	.	.	.	.	.	.	.
.	.	.	.	.	.	.	.	.	16ee-\LL	.	.	.	.	.	.	.	.
.	.	.	.	.	.	.	.	.	16dd\	.	.	.	.	.	.	.	.
.	.	.	.	.	.	.	.	.	16cc\	.	.	.	.	.	.	.	.
.	.	.	.	.	.	.	.	.	16b-\JJ	.	.	.	.	.	.	.	.
=68	=68	=68	=68	=68	=68	=68	=68	=68	=68	=68	=68	=68	=68	=68	=68	=68	=68
2FF/	.	.	[2An/	.	2c/	.	2ryy	2ryy	16an\LL	.	2ryy	.	.	2r	.	.	.
.	.	.	.	.	.	.	.	.	16b-\	.	.	.	.	.	.	.	.
.	.	.	.	.	.	.	.	.	16cc\	.	.	.	.	.	.	.	.
.	.	.	.	.	.	.	.	.	16b-\JJ	.	.	.	.	.	.	.	.
.	.	.	.	.	.	.	.	.	8a\	.	.	.	.	.	.	.	.
.	.	.	.	.	.	.	.	.	8r	.	.	.	.	.	.	.	.
=69	=69	=69	=69	=69	=69	=69	=69	=69	=69	=69	=69	=69	=69	=69	=69	=69	=69
2FF/	.	.	2A/]	.	2c/	.	2ryy	2ryy	16an\LL	.	2ryy	.	.	2r	.	.	.
.	.	.	.	.	.	.	.	.	16b-\	.	.	.	.	.	.	.	.
.	.	.	.	.	.	.	.	.	16cc\	.	.	.	.	.	.	.	.
.	.	.	.	.	.	.	.	.	16a\JJ	.	.	.	.	.	.	.	.
.	.	.	.	.	.	.	.	.	16dd\LL	.	.	.	.	.	.	.	.
.	.	.	.	.	.	.	.	.	16cc\	.	.	.	.	.	.	.	.
.	.	.	.	.	.	.	.	.	16b-\	.	.	.	.	.	.	.	.
.	.	.	.	.	.	.	.	.	16a\JJ	.	.	.	.	.	.	.	.
=70	=70	=70	=70	=70	=70	=70	=70	=70	=70	=70	=70	=70	=70	=70	=70	=70	=70
!	!	!	!	!	!LO:TX:a:t=dolce	!	!	!	!	!	!	!	!	!	!	!	!
!	!	!	!	!	!LO:TX:t=P:problem=mixed beam	!	!	!	!	!	!	!	!	!	!	!	!
4BB-/	.	.	8B-/L	.	8d/L	.	2ryy	2ryy	4b-\	-put	2ryy	0r	.	2r	0r	0r	.
!	!	!	!LO:TX:a:t=dol.	!	!	!	!	!	!	!	!	!	!	!	!	!	!
.	.	.	(8d/	.	8dd\	.	.	.	.	.	.	.	.	.	.	.	.
4AAn/	.	.	8f/	.	(8ff\	.	.	.	4r	.	.	.	.	.	.	.	.
!	!	!	!LO:SIC:v:s=8d/J)	!	!	!	!	!	!	!	!	!	!	!	!	!	!
.	.	.	8e-/J)	.	8dd\J)	.	.	.	.	.	.	.	.	.	.	.	.
!	!	!	!	!	!LO:LB:g=original	!	!	!	!LO:LB:g=original	!	!	!	!	!	!	!	!
=71	=71	=71	=71	=71	=71	=71	=71	=71	=71	=71	=71	=71	=71	=71	=71	=71	=71
!	!	!	!	!	!	!	!	!	!LO:TX:a:t=1.	!	!	!	!	!	!	!	!
4BB-/	.	.	8e-/L	.	(8ee-\L	.	2ryy	2ryy	2r	.	2ryy	.	.	2r	.	.	.
.	.	.	8d/	.	8dd\	.	.	.	.	.	.	.	.	.	.	.	.
4G\	.	.	8c/	.	8cc\	.	.	.	.	.	.	.	.	.	.	.	.
.	.	.	8B-/J	.	8b-\J)	.	.	.	.	.	.	.	.	.	.	.	.
=72	=72	=72	=72	=72	=72	=72	=72	=72	=72	=72	=72	=72	=72	=72	=72	=72	=72
4F\	n	.	4An/	.	4an/	.	2ryy	2ryy	8r	.	2ryy	.	.	2r	.	.	.
.	.	.	.	.	.	.	.	.	8cc\	et	.	.	.	.	.	.	.
8r	.	.	8r	.	8r	.	.	.	8dd\	ex-	.	.	.	.	.	.	.
8F\	.	.	8cc\	.	8ee-\	.	.	.	8ee-\	-al-	.	.	.	.	.	.	.
=73	=73	=73	=73	=73	=73	=73	=73	=73	=73	=73	=73	=73	=73	=73	=73	=73	=73
!LO:TX:t=P:problem=mixed beam	!	!	!	!	!	!	!	!	!	!	!	!	!	!	!	!	!
8B-\L	.	.	4f/	.	8dd\L	.	2ryy	2ryy	8dd\	-ta-	2ryy	.	.	2r	.	.	.
8BB-/J	.	.	.	.	8b-\J	.	.	.	8b-\	-bit	.	.	.	.	.	.	.
!LO:TX:t=P:problem=mixed beam	!	!	!	!	!	!	!	!	!	!	!	!	!	!	!	!	!
8F\L	4	.	(16f/LL	.	(16dd\LL	.	.	.	16dd\LL	ca-	.	.	.	.	.	.	.
.	.	.	16e-/	.	16cc\	.	.	.	16cc\	.	.	.	.	.	.	.	.
8FF/J	n	.	16d/	.	16b-\	.	.	.	16b-\	.	.	.	.	.	.	.	.
.	.	.	16c/JJ)	.	16an\JJ)	.	.	.	16an\JJ	.	.	.	.	.	.	.	.
=74	=74	=74	=74	=74	=74	=74	=74	=74	=74	=74	=74	=74	=74	=74	=74	=74	=74
4BB-/	.	.	4d/	.	(8b-\L	.	2ryy	2ryy	4b-\	-put	2ryy	0r	.	2r	0r	0r	.
.	.	.	.	.	8dd\	.	.	.	.	.	.	.	.	.	.	.	.
4AAn/	6 5	.	(8f/L	.	8ff\	.	.	.	4r	.	.	.	.	.	.	.	.
!	!	!	!LO:SIC:v:s=8d/J)	!	!	!	!	!	!	!	!	!	!	!	!	!	!
.	.	.	8e-/J)	.	8dd\J)	.	.	.	.	.	.	.	.	.	.	.	.
=75	=75	=75	=75	=75	=75	=75	=75	=75	=75	=75	=75	=75	=75	=75	=75	=75	=75
!	!	!	!	!	!	!	!	!	!LO:TX:a:t=1.	!	!	!	!	!	!	!	!
4BB-/	3	.	(8e-/L	.	(8ee-\L	.	2ryy	2ryy	2r	.	2ryy	.	.	2r	.	.	.
.	.	.	8d/)	.	8dd\	.	.	.	.	.	.	.	.	.	.	.	.
4G\	3	.	(8c/	.	8cc\	.	.	.	.	.	.	.	.	.	.	.	.
.	.	.	8B-/J)	.	8b-\J)	.	.	.	.	.	.	.	.	.	.	.	.
!LO:LB:g=original	!	!	!LO:LB:g=original	!	!	!	!	!	!	!	!	!	!	!	!	!	!
=76	=76	=76	=76	=76	=76	=76	=76	=76	=76	=76	=76	=76	=76	=76	=76	=76	=76
4F\	n	.	4An/	.	4an\	.	2ryy	2ryy	8r	.	2ryy	.	.	2r	.	.	.
.	.	.	.	.	.	.	.	.	8cc\	et	.	.	.	.	.	.	.
8r	.	.	8r	.	8r	.	.	.	8dd\	ex-	.	.	.	.	.	.	.
8F\	.	.	8f/	.	8ee-\	.	.	.	8ee-\	-al-	.	.	.	.	.	.	.
=77	=77	=77	=77	=77	=77	=77	=77	=77	=77	=77	=77	=77	=77	=77	=77	=77	=77
!LO:TX:t=P:problem=mixed beam	!	!	!	!	!	!	!	!	!	!	!	!	!	!	!	!	!
8B-\L	.	.	4f/	.	8dd\L	.	2ryy	2ryy	8dd\	-ta-	2ryy	.	.	2r	.	.	.
8BB-/J	.	.	.	.	8b-\J	.	.	.	8b-\	-bit	.	.	.	.	.	.	.
!LO:TX:t=P:problem=mixed beam	!	!	!	!	!	!	!	!	!	!	!	!	!	!	!	!	!
8F\L	4	.	(16f/LL	.	(16dd\LL	.	.	.	16dd\LL	ca-	.	.	.	.	.	.	.
.	.	.	16e-/	.	16cc\	.	.	.	16cc\	.	.	.	.	.	.	.	.
8FF/J	n	.	16d/	.	16b-\	.	.	.	16b-\	.	.	.	.	.	.	.	.
.	.	.	16c/JJ)	.	16an\JJ)	.	.	.	16an\JJ	.	.	.	.	.	.	.	.
!	!	!	!	!	!LO:LB:g=original	!	!	!	!LO:LB:g=original	!	!	!	!	!	!	!	!
=78	=78	=78	=78	=78	=78	=78	=78	=78	=78	=78	=78	=78	=78	=78	=78	=78	=78
*	*	*	*tremolo	*	*	*	*	*	*	*	*	*	*	*	*	*	*
!LO:TX:t=P:problem=mixed beam	!	!	!	!	!	!	!	!	!	!	!	!	!	!	!	!	!
8BB-/L	.	.	8d/L	.	8b-\	.	2ryy	2ryy	8b-\	-put	2ryy	4b-/	.	4ff\	4dd\	4ff\	.
8B-\	.	.	8d/	.	8r	.	.	.	8r	.	.	.	.	.	.	.	.
8B-\	.	.	8d/	.	(16b-\LL	.	.	.	16b-\LL	ca-	.	4r	.	4r	4r	4r	.
!	!	!	!	!	!LO:SIC:v:s=16an\	!	!	!	!	!	!	!	!	!	!	!	!
.	.	.	.	.	16a-\	.	.	.	16an\	.	.	.	.	.	.	.	.
8B-\J	.	.	8d/J	.	16b-\	.	.	.	16b-\	.	.	.	.	.	.	.	.
.	.	.	.	.	16dd\JJ)	.	.	.	16dd\JJ	.	.	.	.	.	.	.	.
*	*	*	*Xtremolo	*	*	*	*	*	*	*	*	*	*	*	*	*	*
=79	=79	=79	=79	=79	=79	=79	=79	=79	=79	=79	=79	=79	=79	=79	=79	=79	=79
!	!	!	!	!	!	!	!	!	!	!	!	!LO:TX:a:t=1.	!	!	!LO:TX:a:t=1.	!LO:TX:a:t=1	!
8An\L	6 5	.	8f/L	.	(16cc\LL	.	2ryy	2ryy	16cc\LL	.	2ryy	2r	.	2r	2r	2r	.
.	.	.	.	.	16b-\	.	.	.	16b-\	.	.	.	.	.	.	.	.
8A\	.	.	8f/	.	16cc\)	.	.	.	16cc\	.	.	.	.	.	.	.	.
.	.	.	.	.	16ee-\JJ	.	.	.	16ee-\JJ	.	.	.	.	.	.	.	.
8F\	n	.	8c/	.	16dd\LL	.	.	.	16dd\LL	.	.	.	.	.	.	.	.
.	.	.	.	.	(16cc\	.	.	.	16cc\	.	.	.	.	.	.	.	.
8F\J	.	.	8c/J	.	16b-\	.	.	.	16b-\	.	.	.	.	.	.	.	.
!	!	!	!	!	!	!	!	!	!LO:SIC:v:s=16an\JJ	!	!	!	!	!	!	!	!
.	.	.	.	.	16an\JJ)	.	.	.	16a-\JJ	.	.	.	.	.	.	.	.
=80	=80	=80	=80	=80	=80	=80	=80	=80	=80	=80	=80	=80	=80	=80	=80	=80	=80
*tremolo	*	*	*tremolo	*	*	*	*	*	*	*	*	*	*	*	*	*	*
8B-\L	.	.	8d/L	.	8b-\	.	2ryy	2ryy	8b-\	.	2ryy	4b-/	.	4ff\	4dd\	4ff\	.
8B-\	.	.	8d/	.	8r	.	.	.	8r	.	.	.	.	.	.	.	.
8B-\	.	.	8d/	.	(16b-\LL	.	.	.	16b-\LL	.	.	4r	.	4r	4r	4r	.
.	.	.	.	.	16an\	.	.	.	16an\	.	.	.	.	.	.	.	.
8B-\J	.	.	8d/J	.	16b-\	.	.	.	16b-\	.	.	.	.	.	.	.	.
.	.	.	.	.	16dd\JJ)	.	.	.	16dd\JJ	.	.	.	.	.	.	.	.
*Xtremolo	*	*	*Xtremolo	*	*	*	*	*	*	*	*	*	*	*	*	*	*
!	!	!	!	!	!	!	!	!	!	!	!	!	!	!	!	!LO:LB:g=original	!
=81	=81	=81	=81	=81	=81	=81	=81	=81	=81	=81	=81	=81	=81	=81	=81	=81	=81
!	!	!	!	!	!	!	!	!	!	!	!	!LO:TX:a:t=5.	!	!LO:TX:a:t=5:problem=dopisane ołówkiem brakujące 5 taktów pauzy	!LO:TX:a:t=5.	!LO:TX:a:t=5.	!
8An\L	.	.	8f/L	.	(16cc\LL	.	2ryy	2ryy	16cc\LL	.	2ryy	0r	.	2r	0r	0r	.
.	.	.	.	.	16b-\	.	.	.	16b-\	.	.	.	.	.	.	.	.
8A\	.	.	8f/	.	16cc\	.	.	.	16cc\	.	.	.	.	.	.	.	.
.	.	.	.	.	16ee-\JJ)	.	.	.	16ee-\JJ	.	.	.	.	.	.	.	.
8F\	.	.	8c/	.	(16dd\LL	.	.	.	16dd\LL	.	.	.	.	.	.	.	.
.	.	.	.	.	16cc\	.	.	.	16cc\	.	.	.	.	.	.	.	.
8F\J	.	.	8c/J	.	16b-\	.	.	.	16b-\	.	.	.	.	.	.	.	.
.	.	.	.	.	16an\JJ)	.	.	.	16an\JJ	.	.	.	.	.	.	.	.
=82	=82	=82	=82	=82	=82	=82	=82	=82	=82	=82	=82	=82	=82	=82	=82	=82	=82
8B-\	.	.	8d/	.	(16b-\LL	.	2ryy	2ryy	16b-\LL	.	2ryy	.	.	2r	.	.	.
.	.	.	.	.	16cc\	.	.	.	16cc\	.	.	.	.	.	.	.	.
8r	.	.	8r	.	16dd\	.	.	.	16dd\	.	.	.	.	.	.	.	.
.	.	.	.	.	16b-\JJ)	.	.	.	16b-\JJ	.	.	.	.	.	.	.	.
!	!	!	!	!	!LO:LB:g=original	!	!	!	!LO:LB:g=original	!	!	!	!	!	!	!	!
8An\	6 5	.	8f/	.	(16ee-\LL	.	.	.	16ee-\LL	.	.	.	.	.	.	.	.
.	.	.	.	.	16cc\	.	.	.	16cc\	.	.	.	.	.	.	.	.
8r	.	.	8r	.	16b-\	.	.	.	16b-\	.	.	.	.	.	.	.	.
.	.	.	.	.	16an\JJ)	.	.	.	16an\JJ	.	.	.	.	.	.	.	.
=83	=83	=83	=83	=83	=83	=83	=83	=83	=83	=83	=83	=83	=83	=83	=83	=83	=83
8B-\	.	.	8d/	.	(16b-\LL	.	2ryy	2ryy	16b-\LL	.	2ryy	.	.	2r	.	.	.
.	.	.	.	.	16cc\	.	.	.	16cc\	.	.	.	.	.	.	.	.
8r	.	.	8r	.	16dd\	.	.	.	16dd\	.	.	.	.	.	.	.	.
.	.	.	.	.	16b-\JJ)	.	.	.	16b-\JJ	.	.	.	.	.	.	.	.
8An\	6 5	.	8f/	.	16ee-\LL	.	.	.	16ee-\LL	.	.	.	.	.	.	.	.
.	.	.	.	.	16cc\	.	.	.	16cc\	.	.	.	.	.	.	.	.
8r	.	.	8r	.	16b-\	.	.	.	16b-\	.	.	.	.	.	.	.	.
.	.	.	.	.	16an\JJ	.	.	.	16an\JJ	.	.	.	.	.	.	.	.
=84	=84	=84	=84	=84	=84	=84	=84	=84	=84	=84	=84	=84	=84	=84	=84	=84	=84
8B-\	.	.	8d/	.	(16b-\LL	.	2ryy	2ryy	16b-\LL	.	2ryy	.	.	2r	.	.	.
!	!	!	!	!	!LO:SIC:v:s=16an\	!	!	!	!LO:SIC:v:s=16an\	!	!	!	!	!	!	!	!
.	.	.	.	.	16a-\	.	.	.	16a-\	.	.	.	.	.	.	.	.
8r	.	.	8r	.	16b-\	.	.	.	16b-\	.	.	.	.	.	.	.	.
.	.	.	.	.	16cc\JJ)	.	.	.	16cc\JJ	.	.	.	.	.	.	.	.
4r	.	.	4r	.	8dd\L	.	.	.	8dd\L	.	.	.	.	.	.	.	.
.	.	.	.	.	8b-\J	.	.	.	8b-\J	-put	.	.	.	.	.	.	.
!LO:LB:g=original	!	!	!	!	!	!	!	!	!	!	!	!	!	!	!	!	!
=85	=85	=85	=85	=85	=85	=85	=85	=85	=85	=85	=85	=85	=85	=85	=85	=85	=85
!LO:TX:a:t=1.	!	!	!LO:TX:a:t=1.	!	!	!	!	!	!	!	!	!	!	!	!	!	!
2r	.	.	2r	.	8g|/L	.	2ryy	2ryy	8g\L	ex-	2ryy	2r	.	2r	2r	2r	.
.	.	.	.	.	8b-|/	.	.	.	8b-\J	-al-	.	.	.	.	.	.	.
.	.	.	.	.	8g|/	.	.	.	8g\	-ta-	.	.	.	.	.	.	.
.	.	.	.	.	8e-|/J	.	.	.	8e-\	-bit	.	.	.	.	.	.	.
!	!	!	!LO:LB:g=original	!	!	!	!	!	!	!	!	!	!	!	!LO:LB:g=original	!	!
=86	=86	=86	=86	=86	=86	=86	=86	=86	=86	=86	=86	=86	=86	=86	=86	=86	=86
*tremolo	*	*	*	*	*	*	*	*	*2\right	*	*	*	*	*	*2\right	*2\right	*
!	!	!	!	!LO:HP:t=Crescedo.	!	!LO:HP:t=crescendo	!	!	!	!	!	!	!	!	!	!	!
8F\L	4	.	16b-\LL	<	16f\LL	<	2ryy	2ryy	2f\	ca-	2ryy	2ff\	.	2ff\	2b-\	2dd\	.
.	.	.	16b-\	.	16dd\	.	.	.	.	.	.	.	.	.	.	.	.
8F\	.	.	16b-\	.	16dd\	.	.	.	.	.	.	.	.	.	.	.	.
.	.	.	16b-\JJ	.	16dd\JJ	.	.	.	.	.	.	.	.	.	.	.	.
*	*	*	*tremolo	*	*tremolo	*	*	*	*	*	*	*	*	*	*	*	*
8F\	.	.	16b-\LL	.	16dd\LL	.	.	.	.	.	.	.	.	.	.	.	.
.	.	.	16b-\	.	16dd\	.	.	.	.	.	.	.	.	.	.	.	.
8F\J	.	.	16b-\	.	16dd\	.	.	.	.	.	.	.	.	.	.	.	.
.	.	.	16b-\JJ	.	16dd\JJ	.	.	.	.	.	.	.	.	.	.	.	.
=87	=87	=87	=87	=87	=87	=87	=87	=87	=87	=87	=87	=87	=87	=87	=87	=87	=87
8FF/L	n3r	.	16an/LL	.	16cc\LL	.	2ryy	2ryy	2cc\	.	2ryy	2ff\	.	2ff\	2a\	2cc\	.
.	.	.	16an/	.	16cc\	.	.	.	.	.	.	.	.	.	.	.	.
8FF/	.	.	16an/	.	16cc\	.	.	.	.	.	.	.	.	.	.	.	.
.	.	.	16an/JJ	.	16cc\JJ	.	.	.	.	.	.	.	.	.	.	.	.
8FF/	.	.	16a/LL	.	16cc\LL	.	.	.	.	.	.	.	.	.	.	.	.
.	.	.	16a/	.	16cc\	.	.	.	.	.	.	.	.	.	.	.	.
8FF/J	.	.	16a/	.	16cc\	.	.	.	.	.	.	.	.	.	.	.	.
*	*	*	*	*	*custos:cc	*	*	*	*	*	*	*	*	*	*	*	*
.	.	.	16a/JJ	.	16cc\JJ	.	.	.	.	.	.	.	.	.	.	.	.
*Xtremolo	*	*	*Xtremolo	*	*Xtremolo	*	*	*	*	*	*	*	*	*	*	*	*
!	!	!	!	!	!LO:LB:g=original	!	!	!	!	!	!	!	!	!	!	!	!
=88	=88	=88	=88	=88	=88	=88	=88	=88	=88	=88	=88	=88	=88	=88	=88	=88	=88
!LO:TX:t=P:problem=mixed beam	!	!LO:DY:b:rj:t=f&colon;	!	!LO:DY:b:rj:t=f.	!	!	!	!	!	!	!	!	!	!	!	!	!
8BB-/L	.	f	4f/	f	4dd\	.	2ryy	2ryy	4b-\	-put	2ryy	2b-/	.	2ff\	2b-\	2dd\	.
8B-\	.	.	.	.	.	.	.	.	.	.	.	.	.	.	.	.	.
8B-\	.	.	(16f/LL	.	(16ff\LL	.	.	.	4r	.	.	.	.	.	.	.	.
.	.	.	16en/	.	16een\	.	.	.	.	.	.	.	.	.	.	.	.
8B-\J	.	.	16f/	.	16ff\	.	.	.	.	.	.	.	.	.	.	.	.
.	.	.	16g/JJ)	.	16gg\JJ)	.	.	.	.	.	.	.	.	.	.	.	.
!	!	!	!	!	!	!	!	!	!LO:LB:g=original	!	!	!	!	!	!	!	!
=89	=89	=89	=89	=89	=89	=89	=89	=89	=89	=89	=89	=89	=89	=89	=89	=89	=89
*tremolo	*	*	*	*	*	*	*	*	*	*	*	*	*	*	*	*	*
!	!	!	!	!	!	!	!	!	!LO:TX:a:t=7.	!	!	!	!	!LO:TX:a:t=P:problem=tt. 89-91 zapisane repetycją	!	!	!
8An\L	.	.	8f/L	.	8ff\L	.	2ryy	2ryy	0r	.	2ryy	2ff\	.	2ff\yy	2cc\	2ee-\	.
8An\	.	.	8c/	.	8cc\	.	.	.	.	.	.	.	.	.	.	.	.
8An\	.	.	8d/	.	8dd\	.	.	.	.	.	.	.	.	.	.	.	.
8An\J	.	.	8e-X/J	.	8ee-X\J	.	.	.	.	.	.	.	.	.	.	.	.
=90	=90	=90	=90	=90	=90	=90	=90	=90	=90	=90	=90	=90	=90	=90	=90	=90	=90
8B-\L	.	.	4d/	.	4dd\	.	2ryy	2ryy	.	.	2ryy	2b-/	.	2ff\yy	2b-\	2dd\	.
8B-\	.	.	.	.	.	.	.	.	.	.	.	.	.	.	.	.	.
8B-\	.	.	(16f/LL	.	16ff\LL	.	.	.	.	.	.	.	.	.	.	.	.
.	.	.	16en/	.	16een\	.	.	.	.	.	.	.	.	.	.	.	.
8B-\J	.	.	16f/	.	16ff\	.	.	.	.	.	.	.	.	.	.	.	.
.	.	.	16g/JJ)	.	16gg\JJ	.	.	.	.	.	.	.	.	.	.	.	.
=91	=91	=91	=91	=91	=91	=91	=91	=91	=91	=91	=91	=91	=91	=91	=91	=91	=91
8An\L	.	.	8f/L	.	8ff\L	.	2ryy	2ryy	.	.	2ryy	2ff\	.	2ff\yy	2cc\	2ee-\	.
8An\	.	.	8c/	.	8cc\	.	.	.	.	.	.	.	.	.	.	.	.
8An\	.	.	8d/	.	8dd\	.	.	.	.	.	.	.	.	.	.	.	.
8An\J	.	.	8e-X/J	.	8ee-X\J	.	.	.	.	.	.	.	.	.	.	.	.
*Xtremolo	*	*	*	*	*	*	*	*	*	*	*	*	*	*	*	*	*
!	!	!	!	!	!	!	!	!	!	!	!	!LO:LB:g=original	!	!	!	!	!
=92	=92	=92	=92	=92	=92	=92	=92	=92	=92	=92	=92	=92	=92	=92	=92	=92	=92
*	*	*	*tremolo	*	*	*	*	*	*	*	*	*	*	*	*	*	*
8B-\L	.	.	16b-/LL	.	16dd\LL	.	2ryy	2ryy	.	.	2ryy	4b-/	.	4gg\	4b-\	4dd\	.
.	.	.	16b-/	.	16bb-\	.	.	.	.	.	.	.	.	.	.	.	.
8B-\	.	.	16b-/	.	16dd\	.	.	.	.	.	.	.	.	.	.	.	.
.	.	.	16b-/JJ	.	16bb-\JJ	.	.	.	.	.	.	.	.	.	.	.	.
8E-\	.	.	16g/LL	.	16b-\LL	.	.	.	.	.	.	4ee-\	.	4gg\	4b-\	4ee-\	.
.	.	.	16g/	.	16bb-\	.	.	.	.	.	.	.	.	.	.	.	.
8E-\J	.	.	16g/	.	16b-\	.	.	.	.	.	.	.	.	.	.	.	.
.	.	.	16g/JJ	.	16bb-\JJ	.	.	.	.	.	.	.	.	.	.	.	.
=93	=93	=93	=93	=93	=93	=93	=93	=93	=93	=93	=93	=93	=93	=93	=93	=93	=93
!LO:TX:t=P:problem=mixed beam	!	!	!	!	!	!	!	!	!	!	!	!	!	!	!	!	!
8F\L	4	.	16b-/LL	.	16dd\LL	.	2ryy	2ryy	1r	.	2ryy	4ff\	.	4ff\	4b-\	4dd\	.
.	.	.	16b-/	.	16bb-\	.	.	.	.	.	.	.	.	.	.	.	.
8F\	.	.	16b-/	.	16dd\	.	.	.	.	.	.	.	.	.	.	.	.
.	.	.	16b-/JJ	.	16bb-\JJ	.	.	.	.	.	.	.	.	.	.	.	.
8FF/	n	.	16an/LL	.	16cc\LL	.	.	.	.	.	.	4ff\	.	4ff\	4a\	4cc\	.
.	.	.	16an/	.	16aan\	.	.	.	.	.	.	.	.	.	.	.	.
8FF/J	.	.	16an/	.	16cc\	.	.	.	.	.	.	.	.	.	.	.	.
.	.	.	16an/JJ	.	16aa\JJ	.	.	.	.	.	.	.	.	.	.	.	.
*	*	*	*Xtremolo	*	*	*	*	*	*	*	*	*	*	*	*	*	*
!	!	!	!	!	!LO:LB:g=original	!	!	!	!	!	!	!	!	!	!	!	!
=94	=94	=94	=94	=94	=94	=94	=94	=94	=94	=94	=94	=94	=94	=94	=94	=94	=94
!LO:TX:t=P:problem=mixed beam	!	!	!	!	!	!	!	!	!	!	!	!	!	!	!	!	!
8BB-/L	.	.	4b-\	.	4bb-\	.	2ryy	2ryy	.	.	2ryy	4b-/	.	4ff\	4b-\	4dd\	.
8B-\	.	.	.	.	.	.	.	.	.	.	.	.	.	.	.	.	.
8F\	.	.	4dd 4f/	.	4bb- 4dd 4f\	.	.	.	.	.	.	8b-/L	.	4ff\	4b-\	4dd\	.
8D\J	.	.	.	.	.	.	.	.	.	.	.	8b-/J	.	.	.	.	.
=95	=95	=95	=95	=95	=95	=95	=95	=95	=95	=95	=95	=95	=95	=95	=95	=95	=95
4BB-/	.	.	4dd 4f/	.	4bb- 4dd 4f\	.	2ryy	2ryy	2r	.	2ryy	4b-/	.	4ff\	4b-\	4dd\	.
4r	.	.	4r	.	4r	.	.	.	.	.	.	4r	.	4b-/	4r	4r	.
!LO:LB:g=original	!	!	!LO:LB:g=original	!	!	!	!	!	!	!	!	!	!	!LO:PB:g=original	!	!	!
=96||	=96||	=96||	=96||	=96||	=96||	=96||	=96||	=96||	=96||	=96||	=96||	=96||	=96||	=96||	=96||	=96||	=96||
*	*	*	*	*	*	*	*	*	*	*	*	*	*	*clefG2	*clefG2	*clefG2	*
*	*	*	*	*	*	*	*	*	*	*	*	*	*	*k[b-e-a-]	*k[b-e-a-]	*k[b-e-a-]	*
*M3/4	*	*	*M3/4	*	*M3/4	*	*	*	*M3/4	*	*	*M3/4	*	*M3/4	*M3/4	*M3/4	*
!LO:TX:a:i:t=Andante	!	!	!	!	!	!	!	!	!	!	!	!LO:TX:a:t=3.	!	!LO:TX:a:t=3	!	!LO:TX:a:t=Adagio.	!
!	!	!	!LO:TX:a:t=Adagio.	!LO:DY:b	!LO:TX:a:t=Adagio	!LO:DY:b	!	!	!LO:TX:a:i:t=Allo	!	!	!LO:TX:a:t=Adagio	!	!LO:TX:a:rj:t=Adagio	!LO:TX:a:i:t=Adagio	!LO:TX:a:t=1.	!
8r	.	.	8r	p	8r	p	2.ryy	2.ryy	4.b-\	De	2.ryy	1.r	.	1.r	2.r	2.r	.
!	!	!LO:DY:b:t=p&colon;	!	!	!	!	!	!	!	!	!	!	!	!	!	!	!
8E-\	.	p	8B-/L	.	8g/L	.	.	.	.	.	.	.	.	.	.	.	.
*tremolo	*	*	*	*	*	*	*	*	*	*	*	*	*	*	*	*	*
8E-\L	.	.	8B-/	.	8g/	.	.	.	.	.	.	.	.	.	.	.	.
8E-\	.	.	8B-/	.	8g/	.	.	.	16cc\LL	.	.	.	.	.	.	.	.
.	.	.	.	.	.	.	.	.	16b-\JJ	.	.	.	.	.	.	.	.
8E-\	.	.	8B-/	.	8g/	.	.	.	16a-\LL	.	.	.	.	.	.	.	.
.	.	.	.	.	.	.	.	.	16g\JJ	.	.	.	.	.	.	.	.
!	!	!	!	!	!	!	!	!	!LO:SIC:v:l:s=tor-	!	!	!	!	!	!	!	!
8E-\J	.	.	8B-/J	.	8g/J	.	.	.	16f\LL	to-	.	.	.	.	.	.	.
.	.	.	.	.	.	.	.	.	16g\JJ	.	.	.	.	.	.	.	.
=97	=97	=97	=97	=97	=97	=97	=97	=97	=97	=97	=97	=97	=97	=97	=97	=97	=97
8r	.	.	8r	.	8r	.	2.ryy	2.ryy	8.a-\L	-ren-	2.ryy	.	.	.	4r	4r	.
8BB-/	.	.	8d/	.	8f/	.	.	.	.	.	.	.	.	.	.	.	.
.	.	.	.	.	.	.	.	.	16f\Jk	.	.	.	.	.	.	.	.
*	*	*	*tremolo	*	*tremolo	*	*	*	*	*	*	*	*	*	*	*	*
!	!	!	!	!	!	!	!	!	!	!	!	!	!	!	!LO:TX:a:t=Solo	!LO:TX:a:t=Solo.	!
8BB-/L	.	.	8d/L	.	8f/L	.	.	.	4d\	-te	.	.	.	.	8r	8r	.
8BB-/	.	.	8d/	.	8f/	.	.	.	.	.	.	.	.	.	8dd\L	8ff\L	.
8BB-/	.	.	8d/	.	8f/	.	.	.	8r	.	.	.	.	.	8dd\	8ff\	.
8BB-/J	.	.	8d/J	.	8f/J	.	.	.	8f\	in	.	.	.	.	8dd\J	8ff\J	.
*Xtremolo	*	*	*Xtremolo	*	*Xtremolo	*	*	*	*	*	*	*	*	*	*	*	*
=98	=98	=98	=98	=98	=98	=98	=98	=98	=98	=98	=98	=98	=98	=98	=98	=98	=98
4E-\	.	.	4B-/	.	4g/	.	2.ryy	2.ryy	8e-\L	vi-	2.ryy	2.r	.	2.r	4ee-\	4gg\	.
.	.	.	.	.	.	.	.	.	8g\	.	.	.	.	.	.	.	.
4D\	6 5	.	4B-/	.	4f/	.	.	.	8f\	.	.	.	.	.	4ff\	4aa-\	.
.	.	.	.	.	.	.	.	.	8a-\J	.	.	.	.	.	.	.	.
4E-\	.	.	4B-/	.	4g/	.	.	.	8g\L	-a	.	.	.	.	4gg\	4bb-\	.
.	.	.	.	.	.	.	.	.	8b-\J	.	.	.	.	.	.	.	.
=99	=99	=99	=99	=99	=99	=99	=99	=99	=99	=99	=99	=99	=99	=99	=99	=99	=99
!	!	!	!	!	!	!	!	!	!	!	!	!	!	!LO:TX:a:t=Solo	!	!	!
4B-\	.	.	8e-/L	.	8g/L	.	2.ryy	2.ryy	16a-\LL	bi-	2.ryy	4r	.	4r	(16ff\LL	16aa-\LL	.
.	.	.	.	.	.	.	.	.	16g\	.	.	.	.	.	16ee-\)	16gg\	.
.	.	.	16d/L	.	16f/L	.	.	.	16f\	.	.	.	.	.	16dd'\	16ff\	.
.	.	.	16e-/JJ	.	16g/JJ	.	.	.	16g\JJ	.	.	.	.	.	16ee-'\JJ	16gg\JJ	.
8r	.	.	4d/	.	4f/	.	.	.	4f\	-bet	.	8r	.	8r	8dd|\L	8ff\L	.
!LO:TX:t=P:problem=mixed beam	!	!	!	!	!	!	!	!	!	!	!	!LO:TX:a:t=Solo.	!LO:DY:rj:t=p.	!	!	!	!
8BB-/L	.	.	.	.	.	.	.	.	.	.	.	8b-\L	p	8ff\L	8dd\	8ff\	.
8B-\	.	.	8r	.	8r	.	.	.	8r	.	.	8ee-\	.	8gg\	(8ee-\	8gg\	.
8A-\J	.	.	8d/	.	8f/	.	.	.	8f\	in	.	8ff\J	.	8aa-\J	8ff\J)	8aa-\J	.
!	!	!	!	!	!	!	!	!	!LO:LB:g=original	!	!	!	!	!	!LO:LB:g=original	!LO:LB:g=original	!
=100	=100	=100	=100	=100	=100	=100	=100	=100	=100	=100	=100	=100	=100	=100	=100	=100	=100
*	*	*	*tremolo	*	*tremolo	*	*	*	*	*	*	*	*	*	*	*	*
!	!	!	!	!	!LO:TX:a:t=P:problem=złe wyświetlanie wartości rytmicznej tremolo w tt.100-103	!	!	!	!	!	!	!	!	!	!	!	!
!	!	!	!	!	!LO:N:TREM::vis=2	!	!	!	!	!	!	!	!	!	!	!	!
8G\L	.	.	8B-/L	.	8g/L	.	2.ryy	2.ryy	16g\LL	vi-	2.ryy	4ee-\	.	4gg\	4ee-\	4gg\	.
.	.	.	.	.	.	.	.	.	16f\	.	.	.	.	.	.	.	.
8E-\J	.	.	8B-/	.	8g/	.	.	.	16g\	.	.	.	.	.	.	.	.
.	.	.	.	.	.	.	.	.	16a-\JJ	.	.	.	.	.	.	.	.
*tremolo	*	*	*	*	*	*	*	*	*	*	*	*	*	*	*	*	*
8E-\L	.	.	8B-/	.	8g/	.	.	.	4.b-\	.	.	4r	.	4r	4r	4r	.
8E-\	.	.	8B-/	.	8g/	.	.	.	.	.	.	.	.	.	.	.	.
8E-\	.	.	8B-/	.	8g/	.	.	.	.	.	.	4r	.	4r	4r	4r	.
8E-\J	.	.	8B-/J	.	8g/J	.	.	.	16cc\LL	.	.	.	.	.	.	.	.
.	.	.	.	.	.	.	.	.	16b-\JJ	-a	.	.	.	.	.	.	.
!	!	!	!	!	!LO:LB:g=original	!	!	!	!	!	!	!	!	!	!	!	!
=101	=101	=101	=101	=101	=101	=101	=101	=101	=101	=101	=101	=101	=101	=101	=101	=101	=101
!	!	!	!	!	!LO:N:vis=2	!	!	!	!	!	!	!	!	!	!	!	!
.	.	.	.	.	.	.	.	.	8qqb-/	.	.	.	.	.	.	.	.
8D\L	6 5	.	8B-/L	.	8f/L	.	2.ryy	2.ryy	8a-\L	bi-	2.ryy	4r	.	4r	4r	4r	.
8D\	.	.	8B-/	.	8f/	.	.	.	16g\L	.	.	.	.	.	.	.	.
.	.	.	.	.	.	.	.	.	16a-\JJ	.	.	.	.	.	.	.	.
8D\	.	.	8B-/	.	8f/	.	.	.	4f\	-bet	.	8r	.	8r	8r	8r	.
8D\	.	.	8B-/	.	8f/	.	.	.	.	.	.	8b-\L	.	8ff\L	8dd\L	8ff\L	.
8D\	.	.	8B-/	.	8f/	.	.	.	8r	.	.	8ee-\	.	8gg\	8ee-\	8gg\	.
8D\J	.	.	8B-/J	.	8f/J	.	.	.	8f\	in	.	8ff\J	.	8aa-\J	8ff\J	8aa-\J	.
=102	=102	=102	=102	=102	=102	=102	=102	=102	=102	=102	=102	=102	=102	=102	=102	=102	=102
!	!	!	!	!	!LO:N:vis=2	!	!	!	!	!	!	!	!	!	!	!	!
8E-\L	.	.	8B-/L	.	8g/L	.	2.ryy	2.ryy	16g\LL	vi-	2.ryy	4ee-\	.	4gg\	4ee-\	4gg\	.
.	.	.	.	.	.	.	.	.	16f\	.	.	.	.	.	.	.	.
8E-\	.	.	8B-/	.	8g/	.	.	.	16g\	.	.	.	.	.	.	.	.
.	.	.	.	.	.	.	.	.	16a-\JJ	.	.	.	.	.	.	.	.
8E-\	.	.	8B-/	.	8g/	.	.	.	4.b-\	.	.	4r	.	4r	4r	4r	.
8E-\	.	.	8B-/	.	8g/	.	.	.	.	.	.	.	.	.	.	.	.
!	!	!	!	!	!	!	!	!	!	!	!	!	!	!LO:TX:a:t=P:problem=wydrapany takt	!	!	!
8E-\	.	.	8B-/	.	8g/	.	.	.	.	.	.	4r	.	4r	4r	4r	.
8E-\J	.	.	8B-/J	.	8g/J	.	.	.	16cc\LL	.	.	.	.	.	.	.	.
.	.	.	.	.	.	.	.	.	16b-\JJ	-a	.	.	.	.	.	.	.
!	!	!	!	!	!	!	!	!	!	!	!	!LO:LB:g=original	!	!	!	!	!
=103	=103	=103	=103	=103	=103	=103	=103	=103	=103	=103	=103	=103	=103	=103	=103	=103	=103
!	!	!	!	!	!LO:N:vis=2	!	!	!	!	!	!	!	!	!	!	!	!
.	.	.	.	.	.	.	.	.	8qqb-/	.	.	.	.	.	.	.	.
8D\L	.	.	8B-/L	.	8f/L	.	2.ryy	2.ryy	8a-\L	bi-	2.ryy	4r	.	4r	4r	4r	.
8D\	.	.	8B-/	.	8f/	.	.	.	16g\L	.	.	.	.	.	.	.	.
.	.	.	.	.	.	.	.	.	16a-\JJ	.	.	.	.	.	.	.	.
8D\	.	.	8B-/	.	8f/	.	.	.	4f\	-bet	.	8r	.	8r	8r	8r	.
8D\	.	.	8B-/	.	8f/	.	.	.	.	.	.	8b-\L	.	8ff\L	8dd\L	8ff\L	.
8D\	.	.	8B-/	.	8f/	.	.	.	8r	.	.	8ee-\	.	8gg\	8ee-\	8gg\	.
8D\J	.	.	8B-/J	.	8f/J	.	.	.	8f\	in	.	8ff\J	.	8aa-\J	8ff\J	8aa-\J	.
*	*	*	*	*	*Xtremolo	*	*	*	*	*	*	*	*	*	*	*	*
!	!	!	!	!	!	!	!	!	!	!	!	!	!	!LO:LB:g=original	!	!	!
=104	=104	=104	=104	=104	=104	=104	=104	=104	=104	=104	=104	=104	=104	=104	=104	=104	=104
8E-\L	.	.	8B-/L	.	16g/LL	.	2.ryy	2.ryy	16g\LL	vi-	2.ryy	4ee-\	.	4gg\	4ee-\	4gg\	.
.	.	.	.	.	16f/	.	.	.	16f\	.	.	.	.	.	.	.	.
8E-\	.	.	8B-/	.	16e-/	.	.	.	16e-\	.	.	.	.	.	.	.	.
.	.	.	.	.	16f/JJ	.	.	.	16f\JJ	.	.	.	.	.	.	.	.
8E-\	.	.	8B-/	.	16e-/LL	.	.	.	16e-\LL	.	.	4r	.	4r	4r	4r	.
.	.	.	.	.	16f/	.	.	.	16f\	.	.	.	.	.	.	.	.
8E-\J	.	.	8B-/	.	16g/	.	.	.	16g\	.	.	.	.	.	.	.	.
.	.	.	.	.	16a-/JJ	.	.	.	16a-\JJ	.	.	.	.	.	.	.	.
*Xtremolo	*	*	*	*	*	*	*	*	*	*	*	*	*	*	*	*	*
!	!	!	!	!	!	!	!	!	!LO:LB:g=original	!	!	!	!	!	!	!	!
8G\L	6	.	8B-/	.	16b-/LL	.	.	.	16b-\LL	.	.	4r	.	4r	4r	4r	.
.	.	.	.	.	16g/	.	.	.	16g\	.	.	.	.	.	.	.	.
8G\J	5	.	8B-/J	.	16f/	.	.	.	16f\	.	.	.	.	.	.	.	.
.	6	.	.	.	16e-/JJ	.	.	.	16e-\JJ	.	.	.	.	.	.	.	.
*	*	*	*Xtremolo	*	*	*	*	*	*	*	*	*	*	*	*	*	*
=105	=105	=105	=105	=105	=105	=105	=105	=105	=105	=105	=105	=105	=105	=105	=105	=105	=105
8A-\L	.	.	8a-/L	.	8cc\L	.	2.ryy	2.ryy	8cc\	.	2.ryy	4ff\	.	4aa-\	8aa-X\L	8ccc\L	.
8A-\	.	.	16g/L	.	16b-\L	.	.	.	16b-\LL	.	.	.	.	.	16gg\L	16bb-\L	.
.	.	.	16f/JJ	.	16a-\JJ	.	.	.	16a-\JJ	-a	.	.	.	.	16ff\JJ	16aa-\JJ	.
8B-\	.	.	4e-/	.	4g/	.	.	.	4g\	bi-	.	4ee-\	.	4ff\	8ee-\L	4gg\	.
8B-\J	.	.	.	.	.	.	.	.	.	.	.	.	.	.	8ee-\	.	.
!LO:LB:g=original	!	!	!	!	!	!	!	!	!	!	!	!	!	!	!	!	!
8BB-/L	.	.	4d/	.	4f/	.	.	.	4f\	.	.	4b-/	.	4ee-\	8dd\	4ff\	.
8BB-/J	.	.	.	.	.	.	.	.	.	.	.	.	.	.	8dd\J	.	.
=106	=106	=106	=106	=106	=106	=106	=106	=106	=106	=106	=106	=106	=106	=106	=106	=106	=106
4E-\	.	.	8e-/L	.	8e-/L	.	2.ryy	2.ryy	4e-\	-bet,	2.ryy	8g/L	.	4ee-\	4ee-\	4ee-\	.
.	.	.	8B-/J	.	8g/J	.	.	.	.	.	.	8g/J	.	.	.	.	.
4EE-/	.	.	4B-/	.	4g/	.	.	.	4r	.	.	4g/	.	4ee-\	4ee-\	4ee-\	.
4r	.	.	8r	.	8r	.	.	.	8r	.	.	4r	.	4r	4r	4r	.
.	.	.	8B-/	.	8B-/	.	.	.	8B-/	prop-	.	.	.	.	.	.	.
!	!	!	!LO:LB:g=original	!	!LO:LB:g=original	!	!	!	!	!	!	!	!	!	!	!	!
=107||	=107||	=107||	=107||	=107||	=107||;	=107||	=107||	=107||	=107||	=107||	=107||	=107||	=107||	=107||	=107||	=107||	=107||
*	*	*	*	*	*clefG2	*	*	*	*	*	*	*	*	*clefG2	*	*clefG2	*
*	*	*	*	*	*k[b-e-a-]	*	*	*	*	*	*	*k[b-e-a-]	*	*k[b-e-a-]	*k[b-e-a-]	*k[b-e-a-]	*
*M2/4	*	*	*M2/4	*	*M2/4	*	*	*	*M2/4	*	*	*M2/4	*	*M2/4	*M2/4	*M2/4	*
!	!	!	!	!	!	!	!	!	!	!	!	!LO:TX:a:t=16.	!	!LO:TX:a:t=16	!	!	!
!LO:TX:a:i:t=Allo	!	!	!LO:TX:a:t=Allo.	!	!LO:TX:a:t=Allo	!LO:DY:b:rj	!	!	!LO:TX:a:i:t=Allo.	!	!	!LO:TX:b:t=Allo.	!	!LO:TX:a:i:t=allo	!LO:TX:a:i:t=Allo	!LO:TX:a:t=Allo.	!
8E-\L	.	.	4.G/	.	4.e-/	p	2ryy	2ryy	4.e-\	-te-	2ryy	0r	.	2r	4g/	4ee-\	.
8E-\	.	.	.	.	.	.	.	.	.	.	.	.	.	.	.	.	.
8E-\	.	.	.	.	.	.	.	.	.	.	.	.	.	.	4r	4r	.
8E-\J	.	.	(16c/LL	.	16a-/LL	.	.	.	16a-\LL	.	.	.	.	.	.	.	.
.	.	.	16B-/JJ)	.	16g/JJ	.	.	.	16g\JJ	.	.	.	.	.	.	.	.
=108	=108	=108	=108	=108	=108	=108	=108	=108	=108	=108	=108	=108	=108	=108	=108	=108	=108
*tremolo	*	*	*	*	*	*	*	*	*	*	*	*	*	*	*	*	*
8E-\L	.	.	4.B-/	.	4.g/	.	2ryy	2ryy	4.g\	-re-	2ryy	.	.	2r	4b-\	4gg\	.
8E-\	.	.	.	.	.	.	.	.	.	.	.	.	.	.	.	.	.
8E-\	.	.	.	.	.	.	.	.	.	.	.	.	.	.	4r	4r	.
8E-\J	.	.	(16a-/LL	.	16cc/LL	.	.	.	16cc\LL	.	.	.	.	.	.	.	.
.	.	.	16g/JJ)	.	16b-/JJ	.	.	.	16b-\JJ	-a	.	.	.	.	.	.	.
=109	=109	=109	=109	=109	=109	=109	=109	=109	=109	=109	=109	=109	=109	=109	=109	=109	=109
8E-\L	.	.	4.g/	.	4.b-/	.	2ryy	2ryy	4.b-\	ex-	2ryy	.	.	2r	4.b-\	4.gg\	.
8E-\	.	.	.	.	.	.	.	.	.	.	.	.	.	.	.	.	.
8E-\	.	.	.	.	.	.	.	.	.	.	.	.	.	.	.	.	.
8E-\J	.	.	8e-/	.	8g/	.	.	.	16g\LL	-al-	.	.	.	.	8g/	8ee-\	.
.	.	.	.	.	.	.	.	.	16e-\JJ	.	.	.	.	.	.	.	.
*Xtremolo	*	*	*	*	*	*	*	*	*	*	*	*	*	*	*	*	*
!	!	!	!	!	!	!	!	!	!	!	!	!	!	!	!LO:LB:g=original	!	!
=110	=110	=110	=110	=110	=110	=110	=110	=110	=110	=110	=110	=110	=110	=110	=110	=110	=110
!LO:TX:t=P:problem=mixed beam	!	!	!	!	!	!	!	!	!	!	!	!	!	!	!	!	!
8B-\L	4	.	8g/L	.	8b-/L	.	2ryy	2ryy	8g\L	-ta-	2ryy	.	.	2r	8b-/L	8gg\L	.
8B-\	.	.	8f/	.	8a-/	.	.	.	8f\J	.	.	.	.	.	8a-X/	8ff\	.
8BB-/	3	.	8e-/	.	8g/	.	.	.	8e-\L	.	.	.	.	.	8g/	8ee-\	.
!	!	!	!	!	!	!	!	!	!	!	!	!	!	!	!LO:SIC:v:s=8f/J	!	!
8BB-/J	.	.	8d/J	.	8f/J	.	.	.	8d\J	-bit	.	.	.	.	8e-/J	8dd\J	.
!	!	!	!	!	!	!	!	!	!LO:LB:g=original	!	!	!	!	!	!	!	!
=111	=111	=111	=111	=111	=111	=111	=111	=111	=111	=111	=111	=111	=111	=111	=111	=111	=111
*tremolo	*	*	*	*	*	*	*	*	*	*	*	*	*	*	*	*	*
8E-\L	.	.	4.G/	.	4.e-/	.	2ryy	2ryy	4.e-\	ca-	2ryy	0r	.	2r	4g/	4ee-\	.
8E-\	.	.	.	.	.	.	.	.	.	.	.	.	.	.	.	.	.
8E-\	.	.	.	.	.	.	.	.	.	.	.	.	.	.	4r	4r	.
8E-\J	.	.	(16c/LL	.	16a-/LL	.	.	.	16a-\LL	.	.	.	.	.	.	.	.
.	.	.	16B-/JJ)	.	16g/JJ	.	.	.	16g\JJ	.	.	.	.	.	.	.	.
=112	=112	=112	=112	=112	=112	=112	=112	=112	=112	=112	=112	=112	=112	=112	=112	=112	=112
8E-\L	.	.	4.B-/	.	4.g/	.	2ryy	2ryy	4.g\	.	2ryy	.	.	2r	4b-\	4gg\	.
8E-\	.	.	.	.	.	.	.	.	.	.	.	.	.	.	.	.	.
8E-\	.	.	.	.	.	.	.	.	.	.	.	.	.	.	4r	4r	.
8E-\J	.	.	(16a-/LL	.	16cc/LL	.	.	.	16cc\LL	.	.	.	.	.	.	.	.
.	.	.	16g/JJ)	.	16b-/JJ	.	.	.	16b-\JJ	.	.	.	.	.	.	.	.
!	!	!	!	!	!	!	!	!	!	!	!	!	!	!	!	!LO:LB:g=original	!
=113	=113	=113	=113	=113	=113	=113	=113	=113	=113	=113	=113	=113	=113	=113	=113	=113	=113
8E-\L	.	.	4.g/	.	4.b-/	.	2ryy	2ryy	4.b-\	.	2ryy	.	.	2r	4.gg\	4.bb-\	.
8E-\	.	.	.	.	.	.	.	.	.	.	.	.	.	.	.	.	.
8E-\	.	.	.	.	.	.	.	.	.	.	.	.	.	.	.	.	.
8E-\J	.	.	8e-/	.	8g/	.	.	.	8g\	.	.	.	.	.	8ee-\	8gg\	.
*Xtremolo	*	*	*	*	*	*	*	*	*	*	*	*	*	*	*	*	*
=114	=114	=114	=114	=114	=114	=114	=114	=114	=114	=114	=114	=114	=114	=114	=114	=114	=114
!LO:TX:t=P:problem=mixed beam	!	!	!	!	!	!	!	!	!	!	!	!	!	!	!	!	!
8B-\L	4	.	8g/L	.	8b-/L	.	2ryy	2ryy	8b-\L	.	2ryy	.	.	2r	(8gg\L	8bb-\L	.
8B-\	.	.	8f/	.	8a-/	.	.	.	8a-\	.	.	.	.	.	8ff\)	8aa-\	.
8BB-/	3	.	8e-/	.	8g/	.	.	.	8g\	.	.	.	.	.	(8ee-\	8gg\	.
8BB-/J	.	.	8d/J	.	8f/J	.	.	.	8f\J	.	.	.	.	.	8dd\J)	8ff\J	.
!LO:LB:g=original	!	!	!	!	!LO:LB:g=original	!	!	!	!	!	!	!	!	!	!	!	!
=115	=115	=115	=115	=115	=115	=115	=115	=115	=115	=115	=115	=115	=115	=115	=115	=115	=115
*tremolo	*	*	*tremolo	*	*	*	*	*	*	*	*	*	*	*	*	*	*
8E-\L	.	.	16G/LL	.	8e-/	.	2ryy	2ryy	8e-\	-put	2ryy	0r	.	2r	4ee-\	4ee-\	.
.	.	.	16G/	.	.	.	.	.	.	.	.	.	.	.	.	.	.
8E-\	.	.	16G/	.	8r	.	.	.	8r	.	.	.	.	.	.	.	.
.	.	.	16G/	.	.	.	.	.	.	.	.	.	.	.	.	.	.
8E-\	.	.	16G/	.	16e-/LL	.	.	.	16e-\LL	ex-	.	.	.	.	4r	4r	.
.	.	.	16G/	.	(16d/	.	.	.	16d\	.	.	.	.	.	.	.	.
8E-\J	.	.	16G/	.	16e-/)	.	.	.	16e-\	.	.	.	.	.	.	.	.
.	.	.	16G/JJ	.	16f/JJ	.	.	.	16f\JJ	.	.	.	.	.	.	.	.
=116	=116	=116	=116	=116	=116	=116	=116	=116	=116	=116	=116	=116	=116	=116	=116	=116	=116
8E-\L	.	.	16B-/LL	.	8g/	.	2ryy	2ryy	8g\	.	2ryy	.	.	2r	4ee-\	4gg\	.
.	.	.	16B-/	.	.	.	.	.	.	.	.	.	.	.	.	.	.
8E-\	.	.	16B-/	.	8r	.	.	.	8r	.	.	.	.	.	.	.	.
.	.	.	16B-/	.	.	.	.	.	.	.	.	.	.	.	.	.	.
8E-\	.	.	16B-/	.	(16g/LL	.	.	.	16g\LL	-al-	.	.	.	.	4r	4r	.
.	.	.	16B-/	.	16f/	.	.	.	16f\	.	.	.	.	.	.	.	.
8E-\J	.	.	16B-/	.	16g/)	.	.	.	16g\	.	.	.	.	.	.	.	.
.	.	.	16B-/JJ	.	16a-/JJ	.	.	.	16a-\JJ	.	.	.	.	.	.	.	.
=117	=117	=117	=117	=117	=117	=117	=117	=117	=117	=117	=117	=117	=117	=117	=117	=117	=117
8E-\L	.	.	16g/LL	.	4.b-\	.	2ryy	2ryy	4.b-\	-ta-	2ryy	.	.	2r	4gg\	4bb-\	.
.	.	.	16g/	.	.	.	.	.	.	.	.	.	.	.	.	.	.
8E-\	.	.	16g/	.	.	.	.	.	.	.	.	.	.	.	.	.	.
.	.	.	16g/	.	.	.	.	.	.	.	.	.	.	.	.	.	.
8E-\	.	.	16g/	.	.	.	.	.	.	.	.	.	.	.	4r	4r	.
.	.	.	16g/	.	.	.	.	.	.	.	.	.	.	.	.	.	.
8E-\J	.	.	16g/	.	16cc\LL	.	.	.	16cc\LL	.	.	.	.	.	.	.	.
.	.	.	16g/JJ	.	16b-\JJ	.	.	.	16b-\JJ	-bit	.	.	.	.	.	.	.
!	!	!	!	!	!	!	!	!	!LO:LB:g=original	!	!	!	!	!	!	!	!
=118	=118	=118	=118	=118	=118	=118	=118	=118	=118	=118	=118	=118	=118	=118	=118	=118	=118
!	!	!	!	!	!	!	!	!	!	!	!	!	!	!	!LO:TX:a:t=1.	!LO:TX:a:t=1	!
8E-\L	.	.	16g/LL	.	8a-/L	.	2ryy	2ryy	8a-\L	ca-	2ryy	.	.	2r	2r	2r	.
.	.	.	16g/	.	.	.	.	.	.	.	.	.	.	.	.	.	.
8E-\	.	.	16g/	.	8g/	.	.	.	8g\	.	.	.	.	.	.	.	.
.	.	.	16g/	.	.	.	.	.	.	.	.	.	.	.	.	.	.
8E-\	.	.	16g/	.	8f/	.	.	.	8f\	.	.	.	.	.	.	.	.
.	.	.	16g/	.	.	.	.	.	.	.	.	.	.	.	.	.	.
8E-\J	.	.	16g/	.	8e-/J	.	.	.	8e-\J	.	.	.	.	.	.	.	.
.	.	.	16g/JJ	.	.	.	.	.	.	.	.	.	.	.	.	.	.
!	!	!	!LO:LB:g=original	!	!	!	!	!	!	!	!	!	!	!	!	!	!
=119	=119	=119	=119	=119	=119	=119	=119	=119	=119	=119	=119	=119	=119	=119	=119	=119	=119
8BB-/L	7	.	16f/LL	.	8d/	.	2ryy	2ryy	8d\	-put	2ryy	0r	.	2r	4b-\	4dd\	.
.	.	.	16f/	.	.	.	.	.	.	.	.	.	.	.	.	.	.
8BB-/	.	.	16f/	.	8r	.	.	.	8r	.	.	.	.	.	.	.	.
.	.	.	16f/	.	.	.	.	.	.	.	.	.	.	.	.	.	.
8BB-/	.	.	16f/	.	16d/LL	.	.	.	16d\LL	ex-	.	.	.	.	4r	4r	.
.	.	.	16f/	.	(16c/	.	.	.	16c\	.	.	.	.	.	.	.	.
8BB-/J	.	.	16f/	.	16d/)	.	.	.	16d\	.	.	.	.	.	.	.	.
.	.	.	16f/JJ	.	16e-/JJ	.	.	.	16e-\JJ	.	.	.	.	.	.	.	.
=120	=120	=120	=120	=120	=120	=120	=120	=120	=120	=120	=120	=120	=120	=120	=120	=120	=120
8BB-/L	.	.	16d/LL	.	8f/	.	2ryy	2ryy	8f\	.	2ryy	.	.	2r	4dd\	4ff\	.
.	.	.	16d/	.	.	.	.	.	.	.	.	.	.	.	.	.	.
8BB-/	.	.	16d/	.	8r	.	.	.	8r	.	.	.	.	.	.	.	.
.	.	.	16d/	.	.	.	.	.	.	.	.	.	.	.	.	.	.
8BB-/	.	.	16d/	.	16f/LL	.	.	.	16f\LL	-al-	.	.	.	.	4r	4r	.
.	.	.	16d/	.	(16e-/	.	.	.	16e-\	.	.	.	.	.	.	.	.
8BB-/J	.	.	16d/	.	16f/)	.	.	.	16f\	.	.	.	.	.	.	.	.
!	!	!	!	!	!LO:TX:b:t=Verte Cito	!	!	!	!	!	!	!	!	!	!	!	!
.	.	.	16d/JJ	.	16g/JJ	.	.	.	16g\JJ	.	.	.	.	.	.	.	.
!	!	!	!	!	!LO:PB:g=original	!	!	!	!	!	!	!	!	!	!	!	!
=121	=121	=121	=121	=121	=121	=121	=121	=121	=121	=121	=121	=121	=121	=121	=121	=121	=121
8BB-/L	.	.	16f/LL	.	4.a-/	.	2ryy	2ryy	4.a-\	-ta-	2ryy	.	.	2r	4ff\	4aa-\	.
.	.	.	16f/	.	.	.	.	.	.	.	.	.	.	.	.	.	.
8BB-/	.	.	16f/	.	.	.	.	.	.	.	.	.	.	.	.	.	.
.	.	.	16f/	.	.	.	.	.	.	.	.	.	.	.	.	.	.
8BB-/	.	.	16f/	.	.	.	.	.	.	.	.	.	.	.	4r	4r	.
.	.	.	16f/	.	.	.	.	.	.	.	.	.	.	.	.	.	.
8BB-/J	.	.	16f/	.	16f/LL	.	.	.	16f\LL	.	.	.	.	.	.	.	.
.	.	.	16f/JJ	.	16a-/JJ	.	.	.	16a-\JJ	-bit	.	.	.	.	.	.	.
=122	=122	=122	=122	=122	=122	=122	=122	=122	=122	=122	=122	=122	=122	=122	=122	=122	=122
!	!	!	!	!	!	!	!	!	!	!	!	!	!	!	!LO:TX:a:t=1.	!LO:TX:a:t=1.	!
8BB-/L	.	.	16f/LL	.	8g/L	.	2ryy	2ryy	8g\L	ca-	2ryy	.	.	2r	2r	2r	.
.	.	.	16f/	.	.	.	.	.	.	.	.	.	.	.	.	.	.
8BB-/	.	.	16f/	.	8f/	.	.	.	8f\	.	.	.	.	.	.	.	.
.	.	.	16f/	.	.	.	.	.	.	.	.	.	.	.	.	.	.
8BB-/	.	.	16f/	.	8e-/	.	.	.	8e-\	.	.	.	.	.	.	.	.
.	.	.	16f/	.	.	.	.	.	.	.	.	.	.	.	.	.	.
8BB-/J	.	.	16f/	.	8d/J	.	.	.	8d\J	.	.	.	.	.	.	.	.
.	.	.	16f/JJ	.	.	.	.	.	.	.	.	.	.	.	.	.	.
*	*	*	*Xtremolo	*	*	*	*	*	*	*	*	*	*	*	*	*	*
=123	=123	=123	=123	=123	=123	=123	=123	=123	=123	=123	=123	=123	=123	=123	=123	=123	=123
8E-\L	.	.	8e-/	.	16e-/LL	.	2ryy	2ryy	16e-\LL	.	2ryy	4ee-\	.	4ee-\	4ee-\	4gg\	.
.	.	.	.	.	(16d/	.	.	.	16d\	.	.	.	.	.	.	.	.
8E-\	.	.	8r	.	16e-/	.	.	.	16e-\	.	.	.	.	.	.	.	.
.	.	.	.	.	16f/JJ)	.	.	.	16f\JJ	.	.	.	.	.	.	.	.
8E-\	.	.	(16e-/LL	.	16g/LL	.	.	.	16g\LL	.	.	4r	.	4r	4r	4r	.
.	.	.	16d/	.	(16f/	.	.	.	16f\	.	.	.	.	.	.	.	.
8E-\J	.	.	16e-/	.	16g/)	.	.	.	16g\	.	.	.	.	.	.	.	.
.	.	.	16f/JJ)	.	16a-/JJ	.	.	.	16a-\JJ	.	.	.	.	.	.	.	.
=124	=124	=124	=124	=124	=124	=124	=124	=124	=124	=124	=124	=124	=124	=124	=124	=124	=124
!	!	!	!LO:N:vis=16/L	!	!	!	!	!	!	!	!	!	!	!	!	!	!
8E-\L	.	.	8g/L	.	8b-/L	.	2ryy	2ryy	8b-\L	.	2ryy	2ee-\	.	2ee-\	8gg\L	8bb-\L	.
!	!	!	!LO:N:vis=16/	!	!	!	!	!	!	!	!	!	!	!	!	!	!
8E-\	.	.	8e-/	.	8g/	.	.	.	8g\	.	.	.	.	.	8ee-\	8gg\	.
!	!	!	!LO:N:vis=16/	!	!	!	!	!	!	!	!	!	!	!	!	!	!
8E-\	.	.	8g/	.	8b-/	.	.	.	8b-\	.	.	.	.	.	8gg\	8bb-\	.
!	!	!	!LO:N:vis=16/J	!	!	!	!	!	!	!	!	!	!	!	!	!	!
8E-\J	.	.	8e-/J	.	8g/J	.	.	.	8g\J	.	.	.	.	.	8ee-\J	8gg\J	.
!	!	!	!	!	!	!	!	!	!LO:LB:g=original	!	!	!	!	!	!LO:LB:g=original	!	!
=125	=125	=125	=125	=125	=125	=125	=125	=125	=125	=125	=125	=125	=125	=125	=125	=125	=125
8D\L	5	.	8d/	.	16f/LL	.	2ryy	2ryy	16f\LL	.	2ryy	4b-/	.	4b-/	4dd\	4ff\	.
.	.	.	.	.	(16e-/	.	.	.	16e-\	.	.	.	.	.	.	.	.
8D\	.	.	8r	.	16f/)	.	.	.	16f\	.	.	.	.	.	.	.	.
.	.	.	.	.	16g/JJ	.	.	.	16g\JJ	.	.	.	.	.	.	.	.
8D\	.	.	(16f/LL	.	16a-/LL	.	.	.	16a-\LL	.	.	4r	.	4r	4r	4r	.
.	.	.	16e-/	.	(16g/	.	.	.	16g\	.	.	.	.	.	.	.	.
8D\J	.	.	16f/	.	16a-/)	.	.	.	16a-\	.	.	.	.	.	.	.	.
.	.	.	16g/JJ)	.	16b-/JJ	.	.	.	16b-\JJ	.	.	.	.	.	.	.	.
=126	=126	=126	=126	=126	=126	=126	=126	=126	=126	=126	=126	=126	=126	=126	=126	=126	=126
!	!	!	!LO:N:vis=16/L	!	!	!	!	!	!	!	!	!	!	!	!	!	!
8D\L	7	.	8a-/L	.	8cc/L	.	2ryy	2ryy	8cc\L	.	2ryy	2ff\	.	2ff\	4ff\	4aa-\	.
!	!	!	!LO:N:vis=16/	!	!	!	!	!	!	!	!	!	!	!	!	!	!
8D\	.	.	8f/	.	8a-/	.	.	.	8a-\	.	.	.	.	.	.	.	.
!	!	!	!LO:N:vis=16/	!	!	!	!	!	!	!	!	!	!	!	!	!	!
8D\	.	.	8e-/	.	8g/	.	.	.	8g\	.	.	.	.	.	(8ee-\L	8gg\L	.
!	!	!	!LO:N:vis=16/J	!	!	!	!	!	!	!	!	!	!	!	!	!	!
8D\J	.	.	8d/J	.	8f/J	.	.	.	8f\J	.	.	.	.	.	8dd\J)	8ff\J	.
!	!	!	!	!	!LO:LB:g=original	!	!	!	!	!	!	!	!	!	!	!	!
=127	=127	=127	=127	=127	=127	=127	=127	=127	=127	=127	=127	=127	=127	=127	=127	=127	=127
!	!	!	!LO:TX:a:t=P:problem=tt. 127-130 zapisane repetycją	!	!	!	!	!	!	!	!	!	!	!	!	!	!
8E-\L	.	.	8e-/yy	.	(16e-/LL	.	2ryy	2ryy	16e-\LL	.	2ryy	4ee-\	.	4ee-\	4ee-\	4gg\	.
.	.	.	.	.	16d/	.	.	.	16d\	.	.	.	.	.	.	.	.
8E-\	.	.	8ryy	.	16e-/)	.	.	.	16e-\	.	.	.	.	.	.	.	.
.	.	.	.	.	16f/JJ	.	.	.	16f\JJ	.	.	.	.	.	.	.	.
8E-\	.	.	(y16e-/LLyy	.	16g/LL	.	.	.	16g\LL	.	.	4r	.	4r	4r	4r	.
.	.	.	16d/yy	.	(16f/	.	.	.	16f\	.	.	.	.	.	.	.	.
8E-\J	.	.	16e-/yy	.	16g/)	.	.	.	16g\	.	.	.	.	.	.	.	.
.	.	.	16f/JJ)yy	.	16a-/JJ	.	.	.	16a-\JJ	.	.	.	.	.	.	.	.
=128	=128	=128	=128	=128	=128	=128	=128	=128	=128	=128	=128	=128	=128	=128	=128	=128	=128
!	!	!	!LO:N:vis=16/L	!	!	!	!	!	!	!	!	!	!	!	!	!	!
8E-\L	.	.	8g/Lyy	.	8b-/L	.	2ryy	2ryy	8b-\L	.	2ryy	2ee-\	.	2ee-\	8gg\L	8bb-\L	.
!	!	!	!LO:N:vis=16/	!	!	!	!	!	!	!	!	!	!	!	!	!	!
8E-\	.	.	8e-/yy	.	8g/	.	.	.	8g\	.	.	.	.	.	8ee-\	8gg\	.
!	!	!	!LO:N:vis=16/	!	!	!	!	!	!	!	!	!	!	!	!	!	!
8E-\	.	.	8g/yy	.	8b-/	.	.	.	8b-\	.	.	.	.	.	8gg\	8bb-\	.
!	!	!	!LO:N:vis=16/J	!	!	!	!	!	!	!	!	!	!	!	!	!	!
8E-\J	.	.	8e-/Jyy	.	8g/J	.	.	.	8g\J	.	.	.	.	.	8ee-\J	8gg\J	.
!	!	!	!	!	!	!	!	!	!	!	!	!LO:LB:g=original	!	!	!	!	!
=129	=129	=129	=129	=129	=129	=129	=129	=129	=129	=129	=129	=129	=129	=129	=129	=129	=129
8D\L	7	.	8d/yy	.	(16f/LL	.	2ryy	2ryy	16f\LL	.	2ryy	4b-/	.	4b-/	4dd\	4ff\	.
.	.	.	.	.	16e-/	.	.	.	16e-\	.	.	.	.	.	.	.	.
8D\	.	.	8ryy	.	16f/	.	.	.	16f\	.	.	.	.	.	.	.	.
.	.	.	.	.	16g/JJ)	.	.	.	16g\JJ	.	.	.	.	.	.	.	.
8D\	.	.	(y16f/LLyy	.	(16a-/LL	.	.	.	16a-\LL	.	.	4r	.	4r	4r	4r	.
.	.	.	16e-/yy	.	16g/	.	.	.	16g\	.	.	.	.	.	.	.	.
8D\J	.	.	16f/yy	.	16a-/	.	.	.	16a-\	.	.	.	.	.	.	.	.
.	.	.	16g/JJ)yy	.	16b-/JJ)	.	.	.	16b-\JJ	.	.	.	.	.	.	.	.
!LO:LB:g=original	!	!	!	!	!	!	!	!	!	!	!	!	!	!	!	!	!
=130	=130	=130	=130	=130	=130	=130	=130	=130	=130	=130	=130	=130	=130	=130	=130	=130	=130
!	!	!	!LO:N:vis=16/L	!	!	!	!	!	!	!	!	!	!	!	!	!	!
8D\L	.	.	8a-/Lyy	.	8cc/L	.	2ryy	2ryy	8cc\L	.	2ryy	2ff\	.	2ff\	4ff\	4aa-\	.
!	!	!	!LO:N:vis=16/	!	!	!	!	!	!	!	!	!	!	!	!	!	!
8D\	.	.	8f/yy	.	8a-/	.	.	.	8a-\	.	.	.	.	.	.	.	.
!	!	!	!LO:N:vis=16/	!	!	!	!	!	!	!	!	!	!	!	!	!	!
8D\	.	.	8e-/yy	.	8g/	.	.	.	8g\	.	.	.	.	.	(8ee-\L	8gg\L	.
*	*	*	*	*	*	*	*	*	*custos:e	*	*	*	*	*	*	*	*
!	!	!	!LO:N:vis=16/J	!	!	!	!	!	!	!	!	!	!	!	!	!	!
8D\J	.	.	8d/Jyy	.	8f/J	.	.	.	8f\J	.	.	.	.	.	8dd\J)	8ff\J	.
!	!	!	!	!	!	!	!	!	!LO:PB:g=original	!	!	!	!	!LO:LB:g=original	!	!LO:LB:g=original	!
=131	=131	=131	=131	=131	=131	=131	=131	=131	=131	=131	=131	=131	=131	=131	=131	=131	=131
*	*	*	*tremolo	*	*	*	*	*	*	*	*	*	*	*	*	*	*
8E-\L	.	.	8G/L	.	4.e-/	.	2ryy	2ryy	4.e-\	.	2ryy	4ee-\	.	4ee-\	4ee-\	4gg\	.
8E-\	.	.	8G/	.	.	.	.	.	.	.	.	.	.	.	.	.	.
8E-\	.	.	8G/	.	.	.	.	.	.	.	.	4r	.	4r	4r	4r	.
8E-\J	.	.	8G/J	.	16g/LL	.	.	.	16g\LL	.	.	.	.	.	.	.	.
.	.	.	.	.	16a-/JJ	.	.	.	16a-\JJ	.	.	.	.	.	.	.	.
!	!	!	!	!	!LO:LB:g=original	!	!	!	!	!	!	!	!	!	!	!	!
=132	=132	=132	=132	=132	=132	=132	=132	=132	=132	=132	=132	=132	=132	=132	=132	=132	=132
!	!	!	!	!	!	!	!	!	!	!	!	!LO:TX:a:t=5.	!	!LO:TX:a:t=5	!LO:TX:a:t=5.	!LO:TX:a:t=5.	!
8E-\L	7	.	8g/L	.	8b-\L	.	2ryy	2ryy	8b-\L	.	2ryy	0r	.	0r	0r	0r	.
8E-\	6	.	8g/	.	8dd-X\	.	.	.	8dd-X\	.	.	.	.	.	.	.	.
8E-\	.	.	8g/	.	8cc\	.	.	.	8cc\	.	.	.	.	.	.	.	.
8E-\J	.	.	8g/J	.	8b-\J	.	.	.	8b-\J	.	.	.	.	.	.	.	.
=133	=133	=133	=133	=133	=133	=133	=133	=133	=133	=133	=133	=133	=133	=133	=133	=133	=133
8D\L	.	.	8f/L	.	8b-\L	.	2ryy	2ryy	8b-\L	.	2ryy	.	.	.	.	.	.
8D\	.	.	8f/	.	8a-\J	.	.	.	8a-\J	.	.	.	.	.	.	.	.
8D\	.	.	8f/	.	4a-\	.	.	.	4a-\	-put	.	.	.	.	.	.	.
8D\J	.	.	8f/J	.	.	.	.	.	.	.	.	.	.	.	.	.	.
=134	=134	=134	=134	=134	=134	=134	=134	=134	=134	=134	=134	=134	=134	=134	=134	=134	=134
8BB-/L	7	.	8d/L	.	4.f/	.	2ryy	2ryy	4.f\	ex-	2ryy	.	.	.	.	.	.
8BB-/	.	.	8d/	.	.	.	.	.	.	.	.	.	.	.	.	.	.
8BB-/	.	.	8d/	.	.	.	.	.	.	.	.	.	.	.	.	.	.
8BB-/J	.	.	8d/J	.	16g/LL	.	.	.	16g\LL	-al-	.	.	.	.	.	.	.
.	.	.	.	.	16a-/JJ	.	.	.	16a-\JJ	.	.	.	.	.	.	.	.
*	*	*	*Xtremolo	*	*	*	*	*	*	*	*	*	*	*	*	*	*
!	!	!	!LO:LB:g=original	!	!	!	!	!	!	!	!	!	!	!	!	!	!
=135	=135	=135	=135	=135	=135	=135	=135	=135	=135	=135	=135	=135	=135	=135	=135	=135	=135
8E-\L	.	.	8e-/L	.	(8g/L	.	2ryy	2ryy	8g\L	-ta-	2ryy	.	.	.	.	.	.
8E-\	.	.	8g/	.	8b-/)	.	.	.	8b-\J	.	.	.	.	.	.	.	.
8E-\	.	.	8a-/	.	(8cc/	.	.	.	8cc\L	-bit	.	.	.	.	.	.	.
8E-\J	.	.	8g/J	.	8b-/J)	.	.	.	8b-\J	.	.	.	.	.	.	.	.
*Xtremolo	*	*	*	*	*	*	*	*	*	*	*	*	*	*	*	*	*
=136	=136	=136	=136	=136	=136	=136	=136	=136	=136	=136	=136	=136	=136	=136	=136	=136	=136
8A-\L	.	.	8g/L	.	(8b-/L	.	2ryy	2ryy	8b-\L	ca-	2ryy	2r	.	2r	2r	2r	.
8A-\	.	.	8f/	.	8a-/)	.	.	.	8a-\	.	.	.	.	.	.	.	.
8A-\	6	.	8f/	.	(8a-/	.	.	.	8a-\	.	.	.	.	.	.	.	.
8An\J	5	.	8e-/J	.	8g/J)	.	.	.	8g\J	.	.	.	.	.	.	.	.
=137	=137	=137	=137	=137	=137	=137	=137	=137	=137	=137	=137	=137	=137	=137	=137	=137	=137
!LO:TX:t=P:problem=mixed beam	!	!	!	!	!	!	!	!	!	!	!	!	!	!	!	!	!
.	.	.	.	.	8qqg/	.	.	.	.	.	.	.	.	.	.	.	.
!	!	!	!	!LO:DY:b:rj:t=f.	!	!	!	!	!	!	!	!	!LO:DY:t=f.	!	!	!	!
8B-\L	3	.	8d/L	f	4f/	.	2ryy	2ryy	4f\	-put	2ryy	8b-/L	f	8b-/L	(16dd\LL	16ff\LL	.
.	.	.	.	.	.	.	.	.	.	.	.	.	.	.	16cc\	16ee-\	.
8BB-/	.	.	8d/	.	.	.	.	.	.	.	.	8b-/	.	8b-/	16dd\	16ff\	.
.	.	.	.	.	.	.	.	.	.	.	.	.	.	.	16ee-\JJ)	16gg\JJ	.
8B-\J	.	.	8d/J	.	8r	.	.	.	8r	.	.	8b-/J	.	8b-/J	8dd\	8ff\	.
8r	.	.	8r	.	16b-\LL	.	.	.	16b-\LL	prop-	.	8r	.	8r	8r	8r	.
.	.	.	.	.	16cc\JJ	.	.	.	16cc\JJ	.	.	.	.	.	.	.	.
!	!	!	!	!	!	!	!	!	!LO:LB:g=original	!	!	!	!	!	!	!	!
=138	=138	=138	=138	=138	=138	=138	=138	=138	=138	=138	=138	=138	=138	=138	=138	=138	=138
*tremolo	*	*	*	*	*	*	*	*	*	*	*	*	*	*	*	*	*
!	!	!	!	!LO:DY:b:rj	!	!	!	!	!	!	!	!LO:TX:a:t=3.	!	!LO:TX:a:t=3	!LO:TX:a:t=3.	!LO:TX:a:t=3.	!
8E-\L	7	.	4.b-/	p	4.dd-X\	.	2ryy	2ryy	4.dd-X\	-te-	2ryy	1r	.	1r	1r	1r	.
8E-\	.	.	.	.	.	.	.	.	.	.	.	.	.	.	.	.	.
8E-\	.	.	.	.	.	.	.	.	.	.	.	.	.	.	.	.	.
8E-\J	-6r	.	8a-/	.	8cc\	.	.	.	8cc\	.	.	.	.	.	.	.	.
=139	=139	=139	=139	=139	=139	=139	=139	=139	=139	=139	=139	=139	=139	=139	=139	=139	=139
8E-\L	5	.	4.a-/	.	4.b-\	.	2ryy	2ryy	4.b-\	-re-	2ryy	.	.	.	.	.	.
8E-\	.	.	.	.	.	.	.	.	.	.	.	.	.	.	.	.	.
8E-\	.	.	.	.	.	.	.	.	.	.	.	.	.	.	.	.	.
8E-\J	4	.	8g/	.	8a-\	.	.	.	8a-X\	-a	.	.	.	.	.	.	.
*Xtremolo	*	*	*	*	*	*	*	*	*	*	*	*	*	*	*	*	*
!	!	!	!	!	!LO:LB:g=original	!	!	!	!	!	!	!	!	!	!	!	!
=140	=140	=140	=140	=140	=140	=140	=140	=140	=140	=140	=140	=140	=140	=140	=140	=140	=140
*	*	*	*tremolo	*	*	*	*	*	*	*	*	*	*	*	*	*	*
8E-\L	3	.	8c/L	.	16g/LL	.	2ryy	2ryy	16g\LL	ex-	2ryy	2r	.	2r	2r	2r	.
.	.	.	.	.	(16a-/	.	.	.	16a-\	.	.	.	.	.	.	.	.
8E-\	.	.	8c/	.	16b-/)	.	.	.	16b-\	.	.	.	.	.	.	.	.
.	.	.	.	.	16cc/JJ	.	.	.	16cc\JJ	.	.	.	.	.	.	.	.
8E-\	6	.	8c/	.	(16dd-X/LL	.	.	.	16dd\LL	.	.	.	.	.	.	.	.
.	.	.	.	.	16b-/	.	.	.	16b-\JJ	.	.	.	.	.	.	.	.
8En\J	5	.	8c/J	.	16a-/)	.	.	.	16a-\LL	-al-	.	.	.	.	.	.	.
.	.	.	.	.	16g/JJ	.	.	.	16g\JJ	.	.	.	.	.	.	.	.
*	*	*	*Xtremolo	*	*	*	*	*	*	*	*	*	*	*	*	*	*
=141	=141	=141	=141	=141	=141	=141	=141	=141	=141	=141	=141	=141	=141	=141	=141	=141	=141
!LO:TX:t=P:problem=mixed beam	!	!	!	!LO:DY:a:t=f.	!	!	!	!	!	!	!	!	!	!	!	!	!
8F\L	.	.	8c/L	f	16f/LL	.	2ryy	2ryy	16f\LL	-ta-	2ryy	8ff\L	.	8ff\L	8a-\L	8cc\L	.
.	.	.	.	.	16g/	.	.	.	16g\	.	.	.	.	.	.	.	.
8FF/	.	.	8c/	.	16a-/	.	.	.	16a-\	.	.	8ff\	.	8ff\	8a-\	8cc\	.
.	.	.	.	.	16g/JJ	.	.	.	16g\JJ	.	.	.	.	.	.	.	.
8F\J	.	.	8c/J	.	8f/L	.	.	.	8f\	-bit	.	8ff\J	.	8ff\J	8a-\J	8cc\J	.
8r	.	.	8r	.	16a-/L	.	.	.	16a-\LL	ex-	.	8r	.	8r	8r	8r	.
.	.	.	.	.	16b-/JJ	.	.	.	16b-\JJ	.	.	.	.	.	.	.	.
!LO:LB:g=original	!	!	!	!	!	!	!	!	!	!	!	!	!	!	!	!	!
=142	=142	=142	=142	=142	=142	=142	=142	=142	=142	=142	=142	=142	=142	=142	=142	=142	=142
*tremolo	*	*	*	*	*	*	*	*	*	*	*	*	*	*	*	*	*
!	!	!	!	!LO:DY:b:rj	!	!	!	!	!	!	!	!LO:TX:a:t=3.	!	!LO:TX:a:t=3	!LO:TX:a:t=3.	!LO:TX:a:t=3.	!
8D\L	7	.	4.a-/	p	4.cc\	.	2ryy	2ryy	4.cc\	.	2ryy	1r	.	1r	1r	1r	.
8D\	.	.	.	.	.	.	.	.	.	.	.	.	.	.	.	.	.
8D\	.	.	.	.	.	.	.	.	.	.	.	.	.	.	.	.	.
8D\J	6	.	8g/	.	8b-\	.	.	.	8b-\	-al-	.	.	.	.	.	.	.
=143	=143	=143	=143	=143	=143	=143	=143	=143	=143	=143	=143	=143	=143	=143	=143	=143	=143
8D\L	7	.	4.f/	.	4.a-\	.	2ryy	2ryy	4.a-\	-ta-	2ryy	.	.	.	.	.	.
8D\	.	.	.	.	.	.	.	.	.	.	.	.	.	.	.	.	.
8D\	.	.	.	.	.	.	.	.	.	.	.	.	.	.	.	.	.
8D\J	6	.	8e-/	.	8g\	.	.	.	8g\	.	.	.	.	.	.	.	.
!	!	!	!	!	!	!	!	!	!LO:LB:g=original	!	!	!	!	!	!	!	!
=144	=144	=144	=144	=144	=144	=144	=144	=144	=144	=144	=144	=144	=144	=144	=144	=144	=144
*	*	*	*tremolo	*	*	*	*	*	*	*	*	*	*	*	*	*	*
8D\L	5	.	8B-/L	.	16f/LL	.	2ryy	2ryy	16f\LL	.	2ryy	2r	.	2r	2r	2r	.
.	.	.	.	.	(16g/	.	.	.	16g\	.	.	.	.	.	.	.	.
8D\	.	.	8B-/	.	16a-/	.	.	.	16a-\	.	.	.	.	.	.	.	.
.	.	.	.	.	16b-/JJ)	.	.	.	16b-\JJ	.	.	.	.	.	.	.	.
8D\	.	.	8B-/	.	(16cc/LL	.	.	.	16cc\LL	.	.	.	.	.	.	.	.
.	.	.	.	.	16a-/	.	.	.	16a-\JJ	.	.	.	.	.	.	.	.
8D\J	.	.	8B-/J	.	16g/)	.	.	.	16g\LL	.	.	.	.	.	.	.	.
.	.	.	.	.	16f/JJ	.	.	.	16f\JJ	-bit	.	.	.	.	.	.	.
=145	=145	=145	=145	=145	=145	=145	=145	=145	=145	=145	=145	=145	=145	=145	=145	=145	=145
!	!	!	!	!	!	!LO:DY:b:rj	!	!	!	!	!	!	!	!	!	!	!
8E-\L	.	.	8B-/L	.	16e-/LL	f	2ryy	2ryy	16e-\LL	ca-	2ryy	8g/L	.	8g/L	8g/L	8ee-\L	.
.	.	.	.	.	16f/	.	.	.	16f\	.	.	.	.	.	.	.	.
8E-\	.	.	8B-/	.	16g/	.	.	.	16g\	.	.	8g/	.	8g/	8g/	8ee-\	.
.	.	.	.	.	16f/JJ	.	.	.	16f\JJ	.	.	.	.	.	.	.	.
!	!	!	!	!	!LO:LB:g=original	!	!	!	!	!	!	!	!	!	!	!	!
8E-\	.	.	8B-/	.	8e-/L	.	.	.	8e-\	-put	.	8g/J	.	8g/J	8g/J	8ee-\J	.
8E-\J	.	.	8B-/J	.	16g/L	.	.	.	16g\LL	ex-	.	8r	.	8r	8r	8r	.
.	.	.	.	.	16b-/JJ	.	.	.	16b-\JJ	.	.	.	.	.	.	.	.
*Xtremolo	*	*	*	*	*	*	*	*	*	*	*	*	*	*	*	*	*
!	!	!	!	!	!	!	!	!	!	!	!	!	!	!	!LO:PB:g=original	!	!
=146	=146	=146	=146	=146	=146	=146	=146	=146	=146	=146	=146	=146	=146	=146	=146	=146	=146
!	!	!	!	!	!	!LO:DY:b	!	!	!	!	!	!LO:TX:a:t=8.	!	!LO:TX:a:t=8	!LO:TX:a:t=8.	!LO:TX:a:t=8.	!
8E-\L	.	.	8B-/L	.	8a-/L	p	2ryy	2ryy	8a-\L	-al-	2ryy	0r	.	2r	0r	0r	.
8E-\	.	.	8B-/	.	8g/	.	.	.	8g\	.	.	.	.	.	.	.	.
8G\	6	.	8B-/	.	8f/	.	.	.	8f\	.	.	.	.	.	.	.	.
8G\J	5	.	8B-/J	.	8e-/J	.	.	.	8e-\J	.	.	.	.	.	.	.	.
=147	=147	=147	=147	=147	=147	=147	=147	=147	=147	=147	=147	=147	=147	=147	=147	=147	=147
!LO:TX:t=P:problem=mixed beam	!	!	!	!	!	!	!	!	!	!	!	!	!	!	!	!	!
8B-\L	.	.	8B-/L	.	8e-/L	.	2ryy	2ryy	8e-\L	-ta-	2ryy	.	.	2r	.	.	.
8B-\	.	.	8B-/	.	8d/J	.	.	.	8d\J	.	.	.	.	.	.	.	.
8BB-/	.	.	8B-/	.	4d/	.	.	.	4d\	-bit	.	.	.	.	.	.	.
8BB-/J	.	.	8B-/J	.	.	.	.	.	.	.	.	.	.	.	.	.	.
!	!	!	!LO:LB:g=original	!	!	!	!	!	!	!	!	!	!	!	!	!	!
=148	=148	=148	=148	=148	=148	=148	=148	=148	=148	=148	=148	=148	=148	=148	=148	=148	=148
*tremolo	*	*	*	*	*	*	*	*	*	*	*	*	*	*	*	*	*
8BB-/L	.	.	8d/L	.	16d/LL	.	2ryy	2ryy	16d\LL	ca-	2ryy	.	.	2r	.	.	.
.	.	.	.	.	(16e-/	.	.	.	16e-\	.	.	.	.	.	.	.	.
8BB-/	.	.	8d/	.	16f/	.	.	.	16f\	.	.	.	.	.	.	.	.
.	.	.	.	.	16e-/JJ)	.	.	.	16e-\JJ	.	.	.	.	.	.	.	.
8BB-/	.	.	8d/	.	(16g/LL	.	.	.	16g\LL	.	.	.	.	.	.	.	.
.	.	.	.	.	16f/	.	.	.	16f\	.	.	.	.	.	.	.	.
8BB-/J	.	.	8d/J	.	16e-/)	.	.	.	16e-\	.	.	.	.	.	.	.	.
.	.	.	.	.	16d/JJ	.	.	.	16d\JJ	.	.	.	.	.	.	.	.
!	!	!	!	!	!	!	!	!	!LO:LB:g=original	!	!	!	!	!	!	!	!
=149	=149	=149	=149	=149	=149	=149	=149	=149	=149	=149	=149	=149	=149	=149	=149	=149	=149
8BB-/L	.	.	8d/L	.	8e-/L	.	2ryy	2ryy	16e-\LL	.	2ryy	.	.	2r	.	.	.
.	.	.	.	.	.	.	.	.	16f\	.	.	.	.	.	.	.	.
8BB-/	.	.	8d/	.	8g/J	.	.	.	16g\	.	.	.	.	.	.	.	.
.	.	.	.	.	.	.	.	.	16f\JJ	.	.	.	.	.	.	.	.
8BB-/	.	.	8d/	.	4B-/	.	.	.	4f\	-put	.	.	.	.	.	.	.
8BB-/J	.	.	8d/J	.	.	.	.	.	.	.	.	.	.	.	.	.	.
=150	=150	=150	=150	=150	=150	=150	=150	=150	=150	=150	=150	=150	=150	=150	=150	=150	=150
8E-\L	.	.	8g/L	.	16B-/LL	.	2ryy	2ryy	16B-\LL	ca-	2ryy	0r	.	2r	0r	0r	.
.	.	.	.	.	(16c/	.	.	.	16c\	.	.	.	.	.	.	.	.
8E-\	.	.	8g/	.	16d/)	.	.	.	16d\	.	.	.	.	.	.	.	.
.	.	.	.	.	16e-/JJ	.	.	.	16e-\JJ	.	.	.	.	.	.	.	.
8E-\	.	.	8g/	.	16f/LL	.	.	.	16f\LL	.	.	.	.	.	.	.	.
.	.	.	.	.	(16e-/	.	.	.	16e-\	.	.	.	.	.	.	.	.
8E-\J	.	.	8g/J	.	16a-/)	.	.	.	16a-\	.	.	.	.	.	.	.	.
.	.	.	.	.	16g/JJ	.	.	.	16g\JJ	.	.	.	.	.	.	.	.
*Xtremolo	*	*	*Xtremolo	*	*	*	*	*	*	*	*	*	*	*	*	*	*
!	!	!	!	!	!LO:LB:g=original	!	!	!	!	!	!	!	!	!	!	!	!
=151	=151	=151	=151	=151	=151	=151	=151	=151	=151	=151	=151	=151	=151	=151	=151	=151	=151
8E-\	.	.	8g/	.	(16f/LL	.	2ryy	2ryy	16f\LL	.	2ryy	.	.	2r	.	.	.
.	.	.	.	.	16e-/	.	.	.	16e-\	.	.	.	.	.	.	.	.
8r	.	.	8r	.	16d/)	.	.	.	16d\	.	.	.	.	.	.	.	.
.	.	.	.	.	16e-/JJ	.	.	.	16e-\JJ	.	.	.	.	.	.	.	.
8D\	6 5	.	8f/	.	(16f/LL	.	.	.	16f\LL	.	.	.	.	.	.	.	.
.	.	.	.	.	16g/	.	.	.	16g\	.	.	.	.	.	.	.	.
8r	.	.	8r	.	16a-/)	.	.	.	16a-\	.	.	.	.	.	.	.	.
.	.	.	.	.	16f/JJ	.	.	.	16f\JJ	.	.	.	.	.	.	.	.
=152	=152	=152	=152	=152	=152	=152	=152	=152	=152	=152	=152	=152	=152	=152	=152	=152	=152
8E-\	.	.	8g/	.	16g/LL	.	2ryy	2ryy	16g\LL	.	2ryy	.	.	2r	.	.	.
.	.	.	.	.	(16e-/	.	.	.	16e-\	.	.	.	.	.	.	.	.
8r	.	.	8r	.	16d/)	.	.	.	16d\	.	.	.	.	.	.	.	.
.	.	.	.	.	16e-/JJ	.	.	.	16e-\JJ	.	.	.	.	.	.	.	.
8D\	6 5	.	8f/	.	(16f/LL	.	.	.	16f\LL	.	.	.	.	.	.	.	.
.	.	.	.	.	16g/	.	.	.	16g\	.	.	.	.	.	.	.	.
8r	.	.	8r	.	16a-/	.	.	.	16a-\	.	.	.	.	.	.	.	.
.	.	.	.	.	16f/JJ)	.	.	.	16f\JJ	.	.	.	.	.	.	.	.
=153	=153	=153	=153	=153	=153	=153	=153	=153	=153	=153	=153	=153	=153	=153	=153	=153	=153
8E-\	.	.	8g/	.	4g/	.	2ryy	2ryy	4g\	.	2ryy	.	.	2r	.	.	.
8r	.	.	8r	.	.	.	.	.	.	.	.	.	.	.	.	.	.
8C/	6\	.	8c/	.	(16f/LL	.	.	.	16f\LL	.	.	.	.	.	.	.	.
.	.	.	.	.	16e-/	.	.	.	16e-\	.	.	.	.	.	.	.	.
8r	.	.	8r	.	16d/)	.	.	.	16d\	.	.	.	.	.	.	.	.
.	.	.	.	.	16e-/JJ	.	.	.	16e-\JJ	.	.	.	.	.	.	.	.
!LO:LB:g=original	!	!	!	!	!	!	!	!	!LO:LB:g=original	!	!	!	!	!	!	!	!
=154	=154	=154	=154	=154	=154	=154	=154	=154	=154	=154	=154	=154	=154	=154	=154	=154	=154
!LO:TX:t=P:problem=mixed beam	!	!	!	!	!	!	!	!	!	!	!	!	!	!	!	!	!
8BB-/L	.	.	4d/	.	4d/	.	2ryy	2ryy	4d\	-put,	2ryy	4b-/	.	4b-/	4dd\	4ff\	.
8B-\	.	.	.	.	.	.	.	.	.	.	.	.	.	.	.	.	.
!	!	!	!	!LO:DY:b:t=for.	!	!	!	!	!	!	!	!	!	!	!	!	!
8F\	.	.	4dd 4f/	f	4bb- 4dd 4f\	.	.	.	4r	.	.	4b-/	.	4b-/	4dd\	4ff\	.
8D\J	.	.	.	.	.	.	.	.	.	.	.	.	.	.	.	.	.
!	!	!	!	!	!	!	!	!	!	!	!	!LO:LB:g=original	!	!	!	!	!
=155	=155	=155	=155	=155	=155	=155	=155	=155	=155	=155	=155	=155	=155	=155	=155	=155	=155
!	!	!	!	!	!	!	!	!	!LO:TX:a:t=1.	!	!	!	!	!	!	!	!
4BB-/	.	.	4dd 4f/	.	4bb- 4dd 4f\	.	2ryy	2ryy	2r	.	2ryy	4b-/	.	4b-/	4dd\	4ff\	.
4r	.	.	4r	.	4r	.	.	.	.	.	.	4r	.	4r	4r	4r	.
=156	=156	=156	=156	=156	=156	=156	=156	=156	=156	=156	=156	=156	=156	=156	=156	=156	=156
!	!	!LO:DY:b:rj:t=p&colon;	!	!	!	!LO:DY:b	!	!	!	!	!	!LO:TX:a:t=16.	!	!LO:TX:a:t=16	!LO:TX:a:t=16.	!LO:TX:a:t=16.	!
[2E-\	.	p	2B-/	.	2g/	p	2ryy	2ryy	16g\LL	ex-	2ryy	0r	.	2r	0r	0r	.
.	.	.	.	.	.	.	.	.	16a-\	.	.	.	.	.	.	.	.
.	.	.	.	.	.	.	.	.	16b-\	.	.	.	.	.	.	.	.
.	.	.	.	.	.	.	.	.	16a-\JJ	.	.	.	.	.	.	.	.
.	.	.	.	.	.	.	.	.	8g\	-al-	.	.	.	.	.	.	.
.	.	.	.	.	.	.	.	.	8r	.	.	.	.	.	.	.	.
=157	=157	=157	=157	=157	=157	=157	=157	=157	=157	=157	=157	=157	=157	=157	=157	=157	=157
2E-\]	.	.	2B-/	.	2g/	.	2ryy	2ryy	16g\LL	-ta-	2ryy	.	.	2r	.	.	.
.	.	.	.	.	.	.	.	.	16a-\	.	.	.	.	.	.	.	.
.	.	.	.	.	.	.	.	.	16b-\	.	.	.	.	.	.	.	.
.	.	.	.	.	.	.	.	.	16g\JJ	.	.	.	.	.	.	.	.
.	.	.	.	.	.	.	.	.	16cc\LL	.	.	.	.	.	.	.	.
.	.	.	.	.	.	.	.	.	16b-\	.	.	.	.	.	.	.	.
.	.	.	.	.	.	.	.	.	16a-\	.	.	.	.	.	.	.	.
.	.	.	.	.	.	.	.	.	16g\JJ	.	.	.	.	.	.	.	.
!	!	!	!	!	!LO:LB:g=original	!	!	!	!	!	!	!	!	!	!	!	!
=158	=158	=158	=158	=158	=158	=158	=158	=158	=158	=158	=158	=158	=158	=158	=158	=158	=158
[2BB-/	.	.	2d/	.	2f/	.	2ryy	2ryy	16f\LL	.	2ryy	.	.	2r	.	.	.
.	.	.	.	.	.	.	.	.	16g\	.	.	.	.	.	.	.	.
.	.	.	.	.	.	.	.	.	16a-\	.	.	.	.	.	.	.	.
.	.	.	.	.	.	.	.	.	16g\JJ	.	.	.	.	.	.	.	.
.	.	.	.	.	.	.	.	.	8f\	-bit	.	.	.	.	.	.	.
.	.	.	.	.	.	.	.	.	8r	.	.	.	.	.	.	.	.
=159	=159	=159	=159	=159	=159	=159	=159	=159	=159	=159	=159	=159	=159	=159	=159	=159	=159
2BB-/]	.	.	2d/	.	2f/	.	2ryy	2ryy	16f\LL	ca-	2ryy	.	.	2r	.	.	.
.	.	.	.	.	.	.	.	.	16g\	.	.	.	.	.	.	.	.
.	.	.	.	.	.	.	.	.	16a-\	.	.	.	.	.	.	.	.
.	.	.	.	.	.	.	.	.	16f\JJ	.	.	.	.	.	.	.	.
.	.	.	.	.	.	.	.	.	16b-\LL	.	.	.	.	.	.	.	.
.	.	.	.	.	.	.	.	.	16a-\	.	.	.	.	.	.	.	.
.	.	.	.	.	.	.	.	.	16g\	.	.	.	.	.	.	.	.
.	.	.	.	.	.	.	.	.	16f\JJ	.	.	.	.	.	.	.	.
!	!	!	!	!	!	!	!	!	!LO:LB:g=original	!	!	!	!	!	!	!	!
=160	=160	=160	=160	=160	=160	=160	=160	=160	=160	=160	=160	=160	=160	=160	=160	=160	=160
!	!	!	!LO:TX:a:t=P:problem=tt. 160-163 zapisane repetycją	!	!	!	!	!	!	!	!	!	!	!	!	!	!
[2E-\	.	.	2B-/yy	.	2g/	.	2ryy	2ryy	16g\LL	.	2ryy	0r	.	2r	0r	0r	.
.	.	.	.	.	.	.	.	.	16a-\	.	.	.	.	.	.	.	.
.	.	.	.	.	.	.	.	.	16b-\	.	.	.	.	.	.	.	.
.	.	.	.	.	.	.	.	.	16a-\JJ	.	.	.	.	.	.	.	.
.	.	.	.	.	.	.	.	.	8g\	.	.	.	.	.	.	.	.
.	.	.	.	.	.	.	.	.	8r	.	.	.	.	.	.	.	.
=161	=161	=161	=161	=161	=161	=161	=161	=161	=161	=161	=161	=161	=161	=161	=161	=161	=161
2E-\]	.	.	2B-/yy	.	2g/	.	2ryy	2ryy	16g\LL	.	2ryy	.	.	2r	.	.	.
.	.	.	.	.	.	.	.	.	16a-\	.	.	.	.	.	.	.	.
.	.	.	.	.	.	.	.	.	16b-\	.	.	.	.	.	.	.	.
.	.	.	.	.	.	.	.	.	16g\JJ	.	.	.	.	.	.	.	.
.	.	.	.	.	.	.	.	.	16cc\LL	.	.	.	.	.	.	.	.
.	.	.	.	.	.	.	.	.	16b-\	.	.	.	.	.	.	.	.
.	.	.	.	.	.	.	.	.	16a-\	.	.	.	.	.	.	.	.
.	.	.	.	.	.	.	.	.	16g\JJ	.	.	.	.	.	.	.	.
=162	=162	=162	=162	=162	=162	=162	=162	=162	=162	=162	=162	=162	=162	=162	=162	=162	=162
[2BB-/	.	.	2d/yy	.	2f/	.	2ryy	2ryy	16f\LL	.	2ryy	.	.	2r	.	.	.
.	.	.	.	.	.	.	.	.	16g\	.	.	.	.	.	.	.	.
.	.	.	.	.	.	.	.	.	16a-\	.	.	.	.	.	.	.	.
.	.	.	.	.	.	.	.	.	16g\JJ	.	.	.	.	.	.	.	.
.	.	.	.	.	.	.	.	.	8f\	.	.	.	.	.	.	.	.
.	.	.	.	.	.	.	.	.	8r	.	.	.	.	.	.	.	.
=163	=163	=163	=163	=163	=163	=163	=163	=163	=163	=163	=163	=163	=163	=163	=163	=163	=163
2BB-/]	.	.	2d/yy	.	2f/	.	2ryy	2ryy	16f\LL	.	2ryy	.	.	2r	.	.	.
.	.	.	.	.	.	.	.	.	16g\	.	.	.	.	.	.	.	.
.	.	.	.	.	.	.	.	.	16a-\	.	.	.	.	.	.	.	.
.	.	.	.	.	.	.	.	.	16f\JJ	.	.	.	.	.	.	.	.
.	.	.	.	.	.	.	.	.	16b-\LL	.	.	.	.	.	.	.	.
.	.	.	.	.	.	.	.	.	16a-\	.	.	.	.	.	.	.	.
.	.	.	.	.	.	.	.	.	16g\	.	.	.	.	.	.	.	.
.	.	.	.	.	.	.	.	.	16f\JJ	.	.	.	.	.	.	.	.
=164	=164	=164	=164	=164	=164	=164	=164	=164	=164	=164	=164	=164	=164	=164	=164	=164	=164
!	!	!	!	!	!LO:TX:a:t=dolce	!	!	!	!	!	!	!	!	!	!	!	!
!	!	!	!	!	!LO:TX:t=P:problem=mixed beam	!	!	!	!	!	!	!	!	!	!	!	!
4E-\	.	.	8B-/L	.	8g/L	.	2ryy	2ryy	4g\	-put,	2ryy	0r	.	2r	0r	0r	.
.	.	.	(8g/	.	(8gg\	.	.	.	.	.	.	.	.	.	.	.	.
4D\	5	.	8b-/	.	8bb-\	.	.	.	4r	.	.	.	.	.	.	.	.
.	6	.	8a-/J)	.	8aa-\J)	.	.	.	.	.	.	.	.	.	.	.	.
!	!	!	!LO:LB:g=original	!	!	!	!	!	!	!	!	!	!	!	!	!	!
=165	=165	=165	=165	=165	=165	=165	=165	=165	=165	=165	=165	=165	=165	=165	=165	=165	=165
!	!	!	!	!	!	!	!	!	!LO:TX:a:t=1.	!	!	!	!	!	!	!	!
4E-\	3	.	8a-/L	.	(8aa-\L	.	2ryy	2ryy	2r	.	2ryy	.	.	2r	.	.	.
.	.	.	8g/	.	8gg\	.	.	.	.	.	.	.	.	.	.	.	.
4C/	.	.	8f/	.	8ff\	.	.	.	.	.	.	.	.	.	.	.	.
.	.	.	8e-/J	.	8ee-\J)	.	.	.	.	.	.	.	.	.	.	.	.
!	!	!	!	!	!	!	!	!	!LO:LB:g=original	!	!	!	!	!	!	!	!
=166	=166	=166	=166	=166	=166	=166	=166	=166	=166	=166	=166	=166	=166	=166	=166	=166	=166
4BB-/	.	.	4d/	.	4dd\	.	2ryy	2ryy	8r	.	2ryy	.	.	2r	.	.	.
.	.	.	.	.	.	.	.	.	8f\	et	.	.	.	.	.	.	.
8r	.	.	8r	.	8r	.	.	.	8g\	ex-	.	.	.	.	.	.	.
8BB-/	.	.	8f/	.	8aa-\	.	.	.	8a-\	-al-	.	.	.	.	.	.	.
!LO:LB:g=original	!	!	!	!	!	!	!	!	!	!	!	!	!	!	!	!	!
=167	=167	=167	=167	=167	=167	=167	=167	=167	=167	=167	=167	=167	=167	=167	=167	=167	=167
!LO:TX:t=P:problem=mixed beam	!	!	!	!	!	!	!	!	!	!	!	!	!	!	!	!	!
8E-\L	.	.	4b-/	.	8gg\L	.	2ryy	2ryy	8g\	-ta-	2ryy	.	.	2r	.	.	.
8G\	.	.	.	.	8ee-\J	.	.	.	8e-\	-bit	.	.	.	.	.	.	.
8B-\	4	.	(16b-/LL	.	(16gg\LL	.	.	.	16a-\LL	ca-	.	.	.	.	.	.	.
.	.	.	16a-/	.	16ff\	.	.	.	16g\	.	.	.	.	.	.	.	.
8BB-/J	3	.	16g/	.	16ee-\	.	.	.	16f\	.	.	.	.	.	.	.	.
.	.	.	16f/JJ)	.	16dd\JJ)	.	.	.	16e-\JJ	.	.	.	.	.	.	.	.
!	!	!	!	!	!LO:LB:g=original	!	!	!	!	!	!	!	!	!	!	!	!
=168	=168	=168	=168	=168	=168	=168	=168	=168	=168	=168	=168	=168	=168	=168	=168	=168	=168
4E-\	.	.	8e-/L	.	(8ee-\L	.	2ryy	2ryy	4e-\	-put	2ryy	0r	.	2r	0r	0r	.
.	.	.	(8g/	.	8gg\	.	.	.	.	.	.	.	.	.	.	.	.
4D\	6	.	8b-/	.	8bb-\	.	.	.	4r	.	.	.	.	.	.	.	.
.	5	.	8a-/J)	.	8aa-\J)	.	.	.	.	.	.	.	.	.	.	.	.
=169	=169	=169	=169	=169	=169	=169	=169	=169	=169	=169	=169	=169	=169	=169	=169	=169	=169
!	!	!	!	!	!	!	!	!	!LO:TX:a:t=1.	!	!	!	!	!	!	!	!
4E-\	.	.	8a-/L	.	(8aa-\L	.	2ryy	2ryy	2r	.	2ryy	.	.	2r	.	.	.
.	.	.	(8g/	.	8gg\	.	.	.	.	.	.	.	.	.	.	.	.
4C\	.	.	8f/	.	8ff\	.	.	.	.	.	.	.	.	.	.	.	.
.	.	.	8e-/J)	.	8ee-\J)	.	.	.	.	.	.	.	.	.	.	.	.
=170	=170	=170	=170	=170	=170	=170	=170	=170	=170	=170	=170	=170	=170	=170	=170	=170	=170
4BB-/	.	.	4d/	.	4dd\	.	2ryy	2ryy	8r	.	2ryy	.	.	2r	.	.	.
.	.	.	.	.	.	.	.	.	8f\	et	.	.	.	.	.	.	.
8r	.	.	8r	.	8r	.	.	.	8g\	ex-	.	.	.	.	.	.	.
8BB-/	.	.	8f/	.	8aa-\	.	.	.	8a-\	-al-	.	.	.	.	.	.	.
=171	=171	=171	=171	=171	=171	=171	=171	=171	=171	=171	=171	=171	=171	=171	=171	=171	=171
!LO:TX:t=P:problem=mixed beam	!	!	!	!	!	!	!	!	!	!	!	!	!	!	!	!	!
8E-\L	.	.	4b-/	.	8gg\L	.	2ryy	2ryy	8g\	-ta-	2ryy	.	.	2r	.	.	.
8G\	.	.	.	.	8ee-\J	.	.	.	8e-\	-bit	.	.	.	.	.	.	.
8B-\	4	.	(16b-/LL	.	(16gg\LL	.	.	.	16g\LL	ca-	.	.	.	.	.	.	.
.	.	.	16a-/	.	16ff\	.	.	.	16f\	.	.	.	.	.	.	.	.
8BB-/J	3	.	16g/	.	16ee-\	.	.	.	16e-\	.	.	.	.	.	.	.	.
.	.	.	16f/JJ)	.	16dd\JJ)	.	.	.	16d\JJ	.	.	.	.	.	.	.	.
!	!	!	!	!	!	!	!	!	!LO:LB:g=original	!	!	!	!	!	!	!	!
=172	=172	=172	=172	=172	=172	=172	=172	=172	=172	=172	=172	=172	=172	=172	=172	=172	=172
*tremolo	*	*	*tremolo	*	*	*	*	*	*	*	*	*	*	*	*	*	*
!	!	!	!	!	!	!	!	!	!	!	!	!	!LO:DY:t=p.	!	!	!	!
8E-\L	.	.	8g/L	.	8ee-\	.	2ryy	2ryy	8e-\	-put	2ryy	4ee-\	p	4gg\	4ee-\	4gg\	.
8E-\	.	.	8g/	.	8r	.	.	.	8r	.	.	.	.	.	.	.	.
8E-\	.	.	8g/	.	(16ee-\LL	.	.	.	16e-\LL	ca-	.	4r	.	4r	4r	4r	.
.	.	.	.	.	16dd\	.	.	.	16d\	.	.	.	.	.	.	.	.
8E-\J	.	.	8g/J	.	16ee-\	.	.	.	16e-\	.	.	.	.	.	.	.	.
.	.	.	.	.	16gg\JJ)	.	.	.	16g\JJ	.	.	.	.	.	.	.	.
*Xtremolo	*	*	*Xtremolo	*	*	*	*	*	*	*	*	*	*	*	*	*	*
!	!	!	!	!	!	!	!	!	!	!	!	!	!	!LO:LB:g=original	!	!	!
=173	=173	=173	=173	=173	=173	=173	=173	=173	=173	=173	=173	=173	=173	=173	=173	=173	=173
!	!	!	!	!	!	!	!	!	!	!	!	!LO:TX:a:t=1.	!	!LO:TX:a:t=1	!LO:TX:a:t=1	!LO:TX:a:t=1.	!
8D/L	.	.	8B-/L	.	(16ff\LL	.	2ryy	2ryy	16f\LL	.	2ryy	2r	.	2r	2r	2r	.
.	.	.	.	.	16ee-\	.	.	.	16e-\	.	.	.	.	.	.	.	.
8D/	.	.	8B-/	.	16ff\	.	.	.	16f\	.	.	.	.	.	.	.	.
.	.	.	.	.	16aa-\JJ)	.	.	.	16a-\JJ	.	.	.	.	.	.	.	.
8BB-/	.	.	8f/	.	(16gg\LL	.	.	.	16g\LL	.	.	.	.	.	.	.	.
.	.	.	.	.	16ff\)	.	.	.	16f\	.	.	.	.	.	.	.	.
8BB-/J	.	.	8f/J	.	(16ee-\	.	.	.	16e-\	.	.	.	.	.	.	.	.
.	.	.	.	.	16dd\JJ)	.	.	.	16d\JJ	.	.	.	.	.	.	.	.
!	!	!	!	!	!LO:LB:g=original	!	!	!	!	!	!	!	!	!	!	!	!
=174	=174	=174	=174	=174	=174	=174	=174	=174	=174	=174	=174	=174	=174	=174	=174	=174	=174
*tremolo	*	*	*tremolo	*	*	*	*	*	*	*	*	*	*	*	*	*	*
!	!	!	!LO:TX:a:t=P:problem=tt. 174-175 zapisane repetycją	!	!	!	!	!	!	!	!	!	!	!	!	!	!
8E-\L	.	.	8g/Lyy	.	8ee-\	.	2ryy	2ryy	8e-\	.	2ryy	4ee-\	.	4gg\	4ee-\	4gg\	.
8E-\	.	.	8g/yy	.	8r	.	.	.	8r	.	.	.	.	.	.	.	.
8E-\	.	.	8g/yy	.	(16ee-\LL	.	.	.	16e-\LL	.	.	4r	.	4r	4r	4r	.
.	.	.	.	.	16dd\	.	.	.	16d\	.	.	.	.	.	.	.	.
8E-\J	.	.	8g/Jyy	.	16ee-\	.	.	.	16e-\	.	.	.	.	.	.	.	.
.	.	.	.	.	16gg\JJ)	.	.	.	16g\JJ	.	.	.	.	.	.	.	.
*Xtremolo	*	*	*Xtremolo	*	*	*	*	*	*	*	*	*	*	*	*	*	*
!LO:PB:g=original	!	!	!	!	!	!	!	!	!	!	!	!	!	!	!	!	!
=175	=175	=175	=175	=175	=175	=175	=175	=175	=175	=175	=175	=175	=175	=175	=175	=175	=175
!	!	!	!	!	!	!	!	!	!	!	!	!LO:TX:a:t=5.	!	!LO:TX:a:t=5	!LO:TX:a:t=5.	!LO:TX:a:t=5.	!
8D/L	6 5	.	8B-/Lyy	.	(16ff\LL	.	2ryy	2ryy	16f\LL	.	2ryy	0r	.	0r	0r	0r	.
.	.	.	.	.	16ee-\	.	.	.	16e-\	.	.	.	.	.	.	.	.
8D/	.	.	8B-/yy	.	16ff\	.	.	.	16f\	.	.	.	.	.	.	.	.
.	.	.	.	.	16aa-\JJ)	.	.	.	16a-\JJ	.	.	.	.	.	.	.	.
8BB-/	.	.	8f/yy	.	(16gg\LL	.	.	.	16g\LL	.	.	.	.	.	.	.	.
.	.	.	.	.	16ff\	.	.	.	16f\	.	.	.	.	.	.	.	.
8BB-/J	.	.	8f/Jyy	.	16ee-\	.	.	.	16e-\	.	.	.	.	.	.	.	.
.	.	.	.	.	16dd\JJ)	.	.	.	16d\JJ	.	.	.	.	.	.	.	.
=176	=176	=176	=176	=176	=176	=176	=176	=176	=176	=176	=176	=176	=176	=176	=176	=176	=176
8E-\	.	.	8B-/	.	(16ee-\LL	.	2ryy	2ryy	16e-\LL	.	2ryy	.	.	.	.	.	.
.	.	.	.	.	16ff\	.	.	.	16f\	.	.	.	.	.	.	.	.
8r	.	.	8r	.	16gg\	.	.	.	16g\	.	.	.	.	.	.	.	.
.	.	.	.	.	16ee-\JJ)	.	.	.	16e-\JJ	.	.	.	.	.	.	.	.
8D\	6 5	.	8B-/	.	(16aa-\LL	.	.	.	16a-\LL	.	.	.	.	.	.	.	.
.	.	.	.	.	16ff\	.	.	.	16f\	.	.	.	.	.	.	.	.
8r	.	.	8r	.	16ee-\	.	.	.	16e-\	.	.	.	.	.	.	.	.
.	.	.	.	.	16dd\JJ)	.	.	.	16d\JJ	.	.	.	.	.	.	.	.
!	!	!	!LO:LB:g=original	!	!	!	!	!	!LO:LB:g=original	!	!	!	!	!	!	!	!
=177	=177	=177	=177	=177	=177	=177	=177	=177	=177	=177	=177	=177	=177	=177	=177	=177	=177
8E-\	.	.	8B-/	.	(16ee-\LL	.	2ryy	2ryy	16e-\LL	.	2ryy	.	.	.	.	.	.
.	.	.	.	.	16ff\	.	.	.	16f\	.	.	.	.	.	.	.	.
8r	.	.	8r	.	16gg\	.	.	.	16g\	.	.	.	.	.	.	.	.
.	.	.	.	.	16ee-\JJ)	.	.	.	16e-\JJ	.	.	.	.	.	.	.	.
8D\	.	.	8B-/	.	(16aa-\LL	.	.	.	16a-\LL	.	.	.	.	.	.	.	.
.	.	.	.	.	16ff\	.	.	.	16f\	.	.	.	.	.	.	.	.
8r	.	.	8r	.	16ee-\)	.	.	.	16e-\	.	.	.	.	.	.	.	.
.	.	.	.	.	16dd\JJ	.	.	.	16d\JJ	.	.	.	.	.	.	.	.
=178	=178	=178	=178	=178	=178	=178	=178	=178	=178	=178	=178	=178	=178	=178	=178	=178	=178
8E-\	.	.	8B-/	.	(16ee-\LL	.	2ryy	2ryy	16e-\LL	.	2ryy	.	.	.	.	.	.
.	.	.	.	.	16dd\	.	.	.	16d\	.	.	.	.	.	.	.	.
8r	.	.	8r	.	16ee-\	.	.	.	16e-\	.	.	.	.	.	.	.	.
.	.	.	.	.	16ff\JJ)	.	.	.	16f\JJ	.	.	.	.	.	.	.	.
!	!	!	!	!	!LO:LB:g=original	!	!	!	!	!	!	!	!	!	!	!	!
!	!	!	!	!	!LO:TX:t=P:problem=mixed beam	!	!	!	!	!	!	!	!	!	!	!	!
4r	.	.	4r	.	8gg\L	.	.	.	8g\L	.	.	.	.	.	.	.	.
.	.	.	.	.	8b-/J	.	.	.	8b-\J	.	.	.	.	.	.	.	.
=179	=179	=179	=179	=179	=179	=179	=179	=179	=179	=179	=179	=179	=179	=179	=179	=179	=179
!LO:TX:a:t=1.	!	!	!LO:TX:a:t=1.	!	!	!	!	!	!	!	!	!	!	!	!	!	!
2r	.	.	2r	.	8ee-\L	.	2ryy	2ryy	8ee-\L	.	2ryy	2r	.	2r	2r	2r	.
.	.	.	.	.	8b-\J	.	.	.	8b-\J	.	.	.	.	.	.	.	.
.	.	.	.	.	8g/L	.	.	.	8g\	.	.	.	.	.	.	.	.
.	.	.	.	.	8e-/J	.	.	.	8e-\	.	.	.	.	.	.	.	.
=180	=180	=180	=180	=180	=180	=180	=180	=180	=180	=180	=180	=180	=180	=180	=180	=180	=180
*tremolo	*	*	*tremolo	*	*	*	*	*	*	*	*	*	*	*	*	*	*
!	!	!	!	!LO:HP:b	!	!LO:HP:t=crescendo	!	!	!	!	!	!	!	!	!	!	!
8B-\L	4	.	16g/LL	<	16ee-\LL	<	2ryy	2ryy	2B-/	.	2ryy	2ee-\	.	2gg\	2ee-\	2gg\	.
.	.	.	16g/	.	16ee-\	.	.	.	.	.	.	.	.	.	.	.	.
8B-\	.	.	16g/	.	16ee-\	.	.	.	.	.	.	.	.	.	.	.	.
.	.	.	16g/JJ	.	16ee-\JJ	.	.	.	.	.	.	.	.	.	.	.	.
*	*	*	*	*	*tremolo	*	*	*	*	*	*	*	*	*	*	*	*
8B-\	.	.	16g/LL	.	16ee-\LL	.	.	.	.	.	.	.	.	.	.	.	.
.	.	.	16g/	.	16ee-\	.	.	.	.	.	.	.	.	.	.	.	.
8B-\J	.	.	16g/	.	16ee-\	.	.	.	.	.	.	.	.	.	.	.	.
.	.	.	16g/JJ	.	16ee-\JJ	.	.	.	.	.	.	.	.	.	.	.	.
=181	=181	=181	=181	=181	=181	=181	=181	=181	=181	=181	=181	=181	=181	=181	=181	=181	=181
8BB-/L	3	.	16f/LL	.	16dd\LL	.	2ryy	2ryy	2fT\	.	2ryy	2b-/	.	2ff\	2dd\	2ff\	.
.	.	.	16f/	.	16dd\	.	.	.	.	.	.	.	.	.	.	.	.
8BB-/	.	.	16f/	.	16dd\	.	.	.	.	.	.	.	.	.	.	.	.
.	.	.	16f/JJ	.	16dd\JJ	.	.	.	.	.	.	.	.	.	.	.	.
8BB-/	.	.	16f/LL	.	16dd\LL	.	.	.	.	.	.	.	.	.	.	.	.
.	.	.	16f/	.	16dd\	.	.	.	.	.	.	.	.	.	.	.	.
8BB-/J	.	.	16f/	.	16dd\	.	.	.	.	.	.	.	.	.	.	.	.
.	.	.	16f/JJ	.	16dd\JJ	.	.	.	.	.	.	.	.	.	.	.	.
*Xtremolo	*	*	*Xtremolo	*	*Xtremolo	*	*	*	*	*	*	*	*	*	*	*	*
=182	=182	=182	=182	=182	=182	=182	=182	=182	=182	=182	=182	=182	=182	=182	=182	=182	=182
!	!	!LO:DY:b:rj:t=f&colon;	!	!	!	!	!	!	!	!	!	!	!	!	!	!	!
8E-|\L	6 5	f	8g/	.	8ee-\	.	2ryy	2ryy	4e-\	-put.	2ryy	8g/	.	8ee-\	8ee-\	8gg\	.
!	!	!	!	!LO:DY:b:t=for.	!	!LO:DY:b	!	!	!	!	!	!	!LO:DY:rj:t=f.	!	!	!	!
16E-|\L	.	.	4ee-\	f	4gg\	f	.	.	.	.	.	4ee-\	f	4gg\	4ee-\	4gg\	.
16F|\JJ	.	.	.	.	.	.	.	.	.	.	.	.	.	.	.	.	.
8G'\L	.	.	.	.	.	.	.	.	4r	.	.	.	.	.	.	.	.
16G'\L	.	.	8ee-\	.	8gg\	.	.	.	.	.	.	8ee-\	.	8gg\	8ee-\	8gg\	.
16A-|\JJ	.	.	.	.	.	.	.	.	.	.	.	.	.	.	.	.	.
!LO:LB:g=original	!	!	!	!	!	!	!	!	!	!	!	!	!	!	!	!LO:LB:g=original	!
=183	=183	=183	=183	=183	=183	=183	=183	=183	=183	=183	=183	=183	=183	=183	=183	=183	=183
!	!	!	!	!	!	!	!	!	!LO:TX:a:t=5.	!	!	!	!	!	!	!	!
8B-|\L	.	.	8ee-\	.	8gg\	.	2ryy	2ryy	0r	.	2ryy	8ee-\	.	8gg\	8ee-\	8gg\	.
8G|\	.	.	4ee-\	.	4gg\	.	.	.	.	.	.	4ee-\	.	4gg\	4ee-\	4gg\	.
8B-|\	.	.	.	.	.	.	.	.	.	.	.	.	.	.	.	.	.
8G|\J	.	.	8ee-\	.	8gg\	.	.	.	.	.	.	8ee-\	.	8gg\	8ee-\	8gg\	.
=184	=184	=184	=184	=184	=184	=184	=184	=184	=184	=184	=184	=184	=184	=184	=184	=184	=184
8E-|\L	.	.	8ee-\	.	8gg\	.	2ryy	2ryy	.	.	2ryy	8ee-\	.	8gg\	8ee-\	8gg\	.
(16C\L	.	.	4ee-\	.	4gg\	.	.	.	.	.	.	4ee-\	.	4gg\	4ee-\	4gg\	.
16D\JJ)	.	.	.	.	.	.	.	.	.	.	.	.	.	.	.	.	.
8E-|\L	.	.	.	.	.	.	.	.	.	.	.	.	.	.	.	.	.
(16E-\L	.	.	8ee-\	.	8gg\	.	.	.	.	.	.	8ee-\	.	8gg\	8ee-\	8gg\	.
16F\JJ)	.	.	.	.	.	.	.	.	.	.	.	.	.	.	.	.	.
!	!	!	!	!	!LO:LB:g=original	!	!	!	!	!	!	!	!	!	!	!	!
=185	=185	=185	=185	=185	=185	=185	=185	=185	=185	=185	=185	=185	=185	=185	=185	=185	=185
8G|\L	.	.	8ee-\	.	8gg\	.	2ryy	2ryy	.	.	2ryy	8ee-\	.	8gg\	8ee-\	8gg\	.
8E-|\	.	.	4ee-\	.	4gg\	.	.	.	.	.	.	4ee-\	.	4gg\	4ee-\	4gg\	.
8G|\	.	.	.	.	.	.	.	.	.	.	.	.	.	.	.	.	.
8E-|\J	.	.	8ee-\	.	8gg\	.	.	.	.	.	.	8ee-\	.	8gg\	8ee-\	8gg\	.
!	!	!	!	!	!	!	!	!	!	!	!	!LO:LB:g=original	!	!	!	!	!
=186	=186	=186	=186	=186	=186	=186	=186	=186	=186	=186	=186	=186	=186	=186	=186	=186	=186
8C|/L	.	.	8ee-\	.	8gg\	.	2ryy	2ryy	.	.	2ryy	8ee-\	.	8gg\	8ee-\	8gg\	.
(16AA-/L	.	.	4ee-\	.	4gg\	.	.	.	.	.	.	4ee-\	.	4gg\	4ee-\	4gg\	.
16BB-/JJ)	.	.	.	.	.	.	.	.	.	.	.	.	.	.	.	.	.
8C|/L	.	.	.	.	.	.	.	.	.	.	.	.	.	.	.	.	.
(16C/L	.	.	8ee-\	.	8gg\	.	.	.	.	.	.	8ee-\	.	8gg\	8ee-\	8gg\	.
16D/JJ)	.	.	.	.	.	.	.	.	.	.	.	.	.	.	.	.	.
!	!	!	!LO:LB:g=original	!	!	!	!	!	!	!	!	!	!	!	!	!	!
=187	=187	=187	=187	=187	=187	=187	=187	=187	=187	=187	=187	=187	=187	=187	=187	=187	=187
8E-/L	.	.	8ee-\	.	8gg\	.	2ryy	2ryy	2r	.	2ryy	8ee-\	.	8gg\	8ee-\	8gg\	.
8C/	.	.	4ee-\	.	4gg\	.	.	.	.	.	.	4ee-\	.	4gg\	4ee-\	4gg\	.
8BB-/	.	.	.	.	.	.	.	.	.	.	.	.	.	.	.	.	.
8AAn/J	.	.	8ee-\	.	8gg\	.	.	.	.	.	.	8ee-\	.	8gg\	8ee-\	8gg\	.
!	!	!	!	!	!	!	!	!	!LO:LB:g=original	!	!	!	!	!LO:LB:g=original	!LO:LB:g=original	!	!
=188	=188	=188	=188	=188	=188	=188	=188	=188	=188	=188	=188	=188	=188	=188	=188	=188	=188
2BB-;/	.	.	4ee-;\	.	4gg\	.	2ryy	2ryy	8.e-\L	ca-	2ryy	4ee-;\	.	2gg;\	4ee-;\	4gg;\	.
.	.	.	.	.	.	.	.	.	16f;\Jk	.	.	.	.	.	.	.	.
.	.	.	4r	.	4r;	.	.	.	4fT\	.	.	4r	.	.	4r	4r	.
=189	=189	=189	=189	=189	=189	=189	=189	=189	=189	=189	=189	=189	=189	=189	=189	=189	=189
*tremolo	*	*	*	*	*	*	*	*	*	*	*	*	*	*	*	*	*
!	!	!	!	!	!	!LO:DY:b	!	!	!	!	!	!	!	!	!	!	!
8E-\L	.	.	4g/	.	4gg\	f	2ryy	2ryy	4e-\	-put.	2ryy	2ee-\	.	2gg\	2ee-\	2gg\	f
8E-\	.	.	.	.	.	.	.	.	.	.	.	.	.	.	.	.	.
8E-\	.	.	(16b-/LL	.	16bb-\LL	.	.	.	4r	.	.	.	.	.	.	.	.
.	.	.	16an/	.	16aan\	.	.	.	.	.	.	.	.	.	.	.	.
8E-\J	.	.	16b-/	.	16bb-\	.	.	.	.	.	.	.	.	.	.	.	.
.	.	.	16cc/JJ)	.	16ccc\JJ	.	.	.	.	.	.	.	.	.	.	.	.
=190	=190	=190	=190	=190	=190	=190	=190	=190	=190	=190	=190	=190	=190	=190	=190	=190	=190
!	!	!	!	!	!	!	!	!	!LO:TX:a:t=7.	!	!	!	!	!	!	!	!
8D\L	6 5	.	8b-/L	.	8bb-\L	.	2ryy	2ryy	0r	.	2ryy	2b-/	.	2ff\	2ff\	2aa-\	.
8D\	.	.	8f/	.	8ff\	.	.	.	.	.	.	.	.	.	.	.	.
8D\	.	.	8g/	.	8gg\	.	.	.	.	.	.	.	.	.	.	.	.
8D\J	.	.	8a-X/J	.	8aa-X\J	.	.	.	.	.	.	.	.	.	.	.	.
=191	=191	=191	=191	=191	=191	=191	=191	=191	=191	=191	=191	=191	=191	=191	=191	=191	=191
8E-\L	.	.	4g/	.	4gg\	.	2ryy	2ryy	.	.	2ryy	2ee-\	.	2gg\	2ee-\	2gg\	.
8E-\	.	.	.	.	.	.	.	.	.	.	.	.	.	.	.	.	.
8E-\	.	.	(16b-/LL	.	16bb-\LL	.	.	.	.	.	.	.	.	.	.	.	.
.	.	.	16an/	.	16aan\	.	.	.	.	.	.	.	.	.	.	.	.
8E-\J	.	.	16b-/	.	16bb-\	.	.	.	.	.	.	.	.	.	.	.	.
.	.	.	16cc/JJ)	.	16ccc\JJ	.	.	.	.	.	.	.	.	.	.	.	.
!LO:LB:g=original	!	!	!	!	!LO:LB:g=original	!	!	!	!	!	!	!	!	!	!	!	!
=192	=192	=192	=192	=192	=192	=192	=192	=192	=192	=192	=192	=192	=192	=192	=192	=192	=192
8D\L	6 5	.	8b-/L	.	8bb-\L	.	2ryy	2ryy	.	.	2ryy	2b-/	.	2ff\	2ff\	2aa-\	.
8D\	.	.	8f/	.	8ff\	.	.	.	.	.	.	.	.	.	.	.	.
8D\	.	.	8g/	.	8gg\	.	.	.	.	.	.	.	.	.	.	.	.
8D\J	.	.	8a-X/J	.	8aa-X\J	.	.	.	.	.	.	.	.	.	.	.	.
*Xtremolo	*	*	*	*	*	*	*	*	*	*	*	*	*	*	*	*	*
=193	=193	=193	=193	=193	=193	=193	=193	=193	=193	=193	=193	=193	=193	=193	=193	=193	=193
8E-\L	.	.	16b-\LL	.	16gg\LL	.	2ryy	2ryy	.	.	2ryy	4ee-\	.	4gg\	4ee-\	4gg\	.
.	.	.	16b-\	.	16gg\	.	.	.	.	.	.	.	.	.	.	.	.
8E-\	.	.	16b-\	.	16gg\	.	.	.	.	.	.	.	.	.	.	.	.
.	.	.	16b-\JJ	.	16gg\JJ	.	.	.	.	.	.	.	.	.	.	.	.
*	*	*	*	*	*tremolo	*	*	*	*	*	*	*	*	*	*	*	*
8A-\	.	.	16cc\LL	.	16ee-\LL	.	.	.	.	.	.	4ee-\	.	4aa-\	4ee-\	4aa-\	.
.	.	.	16cc\	.	16ee-\	.	.	.	.	.	.	.	.	.	.	.	.
8A-\J	.	.	16cc\	.	16ee-\	.	.	.	.	.	.	.	.	.	.	.	.
.	.	.	16cc\JJ	.	16ee-\JJ	.	.	.	.	.	.	.	.	.	.	.	.
=194	=194	=194	=194	=194	=194	=194	=194	=194	=194	=194	=194	=194	=194	=194	=194	=194	=194
*	*	*	*tremolo	*	*	*	*	*	*	*	*	*	*	*	*	*	*
!LO:TX:t=P:problem=mixed beam	!	!	!	!	!	!	!	!	!	!	!	!	!	!	!	!	!
8B-\L	.	.	16g/LL	.	16ee-\LL	.	2ryy	2ryy	1r	.	2ryy	4ee-\	.	4gg\	4ee-\	4gg\	.
.	.	.	16g/	.	16ee-\	.	.	.	.	.	.	.	.	.	.	.	.
8B-\	.	.	16g/	.	16ee-\	.	.	.	.	.	.	.	.	.	.	.	.
.	.	.	16g/JJ	.	16ee-\JJ	.	.	.	.	.	.	.	.	.	.	.	.
8BB-/	.	.	16g/LL	.	16dd\LL	.	.	.	.	.	.	4b-/	.	4ff\	4dd\	4ff\	.
.	.	.	16g/	.	16dd\	.	.	.	.	.	.	.	.	.	.	.	.
8BB-/J	.	.	16g/	.	16dd\	.	.	.	.	.	.	.	.	.	.	.	.
.	.	.	16g/JJ	.	16dd\JJ	.	.	.	.	.	.	.	.	.	.	.	.
*	*	*	*Xtremolo	*	*Xtremolo	*	*	*	*	*	*	*	*	*	*	*	*
=195	=195	=195	=195	=195	=195	=195	=195	=195	=195	=195	=195	=195	=195	=195	=195	=195	=195
8E-\L	.	.	4g/	.	4ee-\	.	2ryy	2ryy	.	.	2ryy	4ee-\	.	4gg\	4ee-\	4gg\	.
8e-\	.	.	.	.	.	.	.	.	.	.	.	.	.	.	.	.	.
8B-\	.	.	4ee- 4g/	.	4gg 4b- 4e-/	.	.	.	.	.	.	4ee-\	.	4gg\	4b-\	4gg\	.
8G\J	.	.	.	.	.	.	.	.	.	.	.	.	.	.	.	.	.
=196	=196	=196	=196	=196	=196	=196	=196	=196	=196	=196	=196	=196	=196	=196	=196	=196	=196
4E-\	.	.	4ee- 4g/	.	4gg 4b- 4e-/	.	2ryy	2ryy	2r	.	2ryy	4ee-\	.	4gg\	4b-\	4gg\	.
4r	.	.	4r	.	4r	.	.	.	.	.	.	4r	.	4r	4r	4r	.
==	==	==	==	==	==	==	==	==	==	==	==	==	==	==	==	==	==
*-	*-	*-	*-	*-	*-	*-	*-	*-	*-	*-	*-	*-	*-	*-	*-	*-	*-
!!!system-decoration: [(s1,s2)][(s3,s4)][(s5,s6,s7,s8)][(s9,s10)]s11
!!!RDF**kern: | = vertical stroke
!!!ENC: Marta Chmielewska
!!!END: 2020-07-09
!!!ENC: Marta Lawrence
!!!END: 2021-11-22
!!!YEC: Copyright 2022 Narodowy Instytut Fryderyka Chopina (https://polishscores.org)
!!!YEM: Licence CC BY 4.0 (https://creativecommons.org/licenses/by/4.0)
